VaruniBuereddy/DMP-LfD-MPC/dmp_joint_traj.csv
time,q1,q2,q3,q4,q5,q6,q7,dq1,dq2,dq3,dq4,dq5,dq6,dq7
0.0,-0.1835494367156443,0.5439865126398635,3.2898848938456804,2.0569068142447735,-0.14673350810175592,0.5503785754644878,0.7165020669750152,0.0,0.0,0.0,0.0,0.0,0.0,0.0
0.009999995769511305,-0.1835494367156443,0.5439865126398635,3.2898848938456804,2.0569068142447735,-0.14673350810175592,0.5503785754644878,0.7165020669750152,0.0,0.0,0.0,0.0,0.0,0.0,0.0
0.01999999153902261,-0.1835494367156443,0.5439865126398635,3.2898848938456804,2.0569068142447735,-0.14673350810175592,0.5503785754644878,0.7165020669750152,0.0,0.0,0.0,0.0,0.0,0.0,0.0
0.029999987308533912,-0.1835494367156443,0.5439865126398635,3.2898848938456804,2.0569068142447735,-0.14673350810175592,0.5503785754644878,0.7165020669750152,0.0,0.0,0.0,0.0,0.0,0.0,0.0
0.03999998307804522,-0.1835494367156443,0.5439865126398635,3.2898848938456804,2.0569068142447735,-0.14673350810175592,0.5503785754644878,0.7165020669750152,0.0,0.0,0.0,0.0,0.0,0.0,0.0
0.049999978847556525,-0.1835494367156443,0.5439865126398635,3.2898848938456804,2.0569068142447735,-0.14673350810175592,0.5503785754644878,0.7165020669750152,0.0,0.0,0.0,0.0,0.0,0.0,0.0
0.059999974617067825,-0.1835494367156443,0.5439865126398635,3.2898848938456804,2.0569068142447735,-0.14673350810175592,0.5503785754644878,0.7165020669750152,0.0,0.0,0.0,0.0,0.0,0.0,0.0
0.06999997038657914,-0.1835494367156443,0.5439865126398635,3.2898848938456804,2.0569068142447735,-0.14673350810175592,0.5503785754644878,0.7165020669750152,0.0,0.0,0.0,0.0,0.0,0.0,0.0
0.07999996615609044,-0.1835494367156443,0.5439865126398635,3.2898848938456804,2.0569068142447735,-0.14673350810175592,0.5503785754644878,0.7165020669750152,0.0,0.0,0.0,0.0,0.0,0.0,0.0
0.08999996192560172,-0.1835494367156443,0.5439865126398635,3.2898848938456804,2.0569068142447735,-0.14673350810175592,0.5503785754644878,0.7165020669750152,0.0,0.0,0.0,0.0,0.0,0.0,0.0
0.09999995769511304,-0.1835494367156443,0.5439865126398635,3.2898848938456804,2.0569068142447735,-0.14673350810175592,0.5503785754644878,0.7165020669750152,0.0,0.0,0.0,0.0,0.0,0.0,0.0
0.10999995346462436,-0.1835494367156443,0.5439865126398635,3.2898848938456804,2.0569068142447735,-0.14673350810175592,0.5503785754644878,0.7165020669750152,0.0,0.0,0.0,0.0,0.0,0.0,0.0
0.11999994923413564,-0.1835494367156443,0.5439865126398635,3.2898848938456804,2.0569068142447735,-0.14673350810175592,0.5503785754644878,0.7165020669750152,0.0,0.0,0.0,0.0,0.0,0.0,0.0
0.12999994500364695,-0.1835494367156443,0.5439865126398635,3.2898848938456804,2.0569068142447735,-0.14673350810175592,0.5503785754644878,0.7165020669750152,0.0,0.0,0.0,0.0,0.0,0.0,0.0
0.13999994077315828,-0.1835494367156443,0.5439865126398635,3.2898848938456804,2.0569068142447735,-0.14673350810175592,0.5503785754644878,0.7165020669750152,0.0,0.0,0.0,0.0,0.0,0.0,0.0
0.14999993654266955,-0.1835494367156443,0.5439865126398635,3.2898848938456804,2.0569068142447735,-0.14673350810175592,0.5503785754644878,0.7165020669750152,0.0,0.0,0.0,0.0,0.0,0.0,0.0
0.15999993231218088,-0.1835494367156443,0.5439865126398635,3.2898848938456804,2.0569068142447735,-0.14673350810175592,0.5503785754644878,0.7165020669750152,0.0,0.0,0.0,0.0,0.0,0.0,0.0
0.16999992808169215,-0.1835494367156443,0.5439865126398635,3.2898848938456804,2.0569068142447735,-0.14673350810175592,0.5503785754644878,0.7165020669750152,0.0,0.0,0.0,0.0,0.0,0.0,0.0
0.17999992385120347,-0.1835494367156443,0.5439865126398635,3.2898848938456804,2.0569068142447735,-0.14673350810175592,0.5503785754644878,0.7165020669750152,0.0,0.0,0.0,0.0,0.0,0.0,0.0
0.1899999196207148,-0.1835494367156443,0.5439865126398635,3.2898848938456804,2.0569068142447735,-0.14673350810175592,0.5503785754644878,0.7165020669750152,0.0,0.0,0.0,0.0,0.0,0.0,0.0
0.19999991539022607,-0.1835494367156443,0.5439865126398635,3.2898848938456804,2.0569068142447735,-0.14673350810175592,0.5503785754644878,0.7165020669750152,0.0,0.0,0.0,0.0,0.0,0.0,0.0
0.2099999111597374,-0.1835494367156443,0.5439865126398635,3.2898848938456804,2.0569068142447735,-0.14673350810175592,0.5503785754644878,0.7165020669750152,0.0,0.0,0.0,0.0,0.0,0.0,0.0
0.21999990692924873,-0.1835494367156443,0.5439865126398635,3.2898848938456804,2.0569068142447735,-0.14673350810175592,0.5503785754644878,0.7165020669750152,0.0,0.0,0.0,0.0,0.0,0.0,0.0
0.22999990269876,-0.1835494367156443,0.5439865126398635,3.2898848938456804,2.0569068142447735,-0.14673350810175592,0.5503785754644878,0.7165020669750152,0.0,0.0,0.0,0.0,0.0,0.0,0.0
0.23999989846827127,-0.1835494367156443,0.5439865126398635,3.2898848938456804,2.0569068142447735,-0.14673350810175592,0.5503785754644878,0.7165020669750152,0.0,0.0,0.0,0.0,0.0,0.0,0.0
0.24999989423778263,-0.1835494367156443,0.5439865126398635,3.2898848938456804,2.0569068142447735,-0.14673350810175592,0.5503785754644878,0.7165020669750152,0.0,0.0,0.0,0.0,0.0,0.0,0.0
0.2599998900072939,-0.1835494367156443,0.5439865126398635,3.2898848938456804,2.0569068142447735,-0.14673350810175592,0.5503785754644878,0.7165020669750152,0.0,0.0,0.0,0.0,0.0,0.0,0.0
0.2699998857768052,-0.1835494367156443,0.5439865126398635,3.2898848938456804,2.0569068142447735,-0.14673350810175592,0.5503785754644878,0.7165020669750152,0.0,0.0,0.0,0.0,0.0,0.0,0.0
0.2799998815463165,-0.1835494367156443,0.5439865126398635,3.2898848938456804,2.0569068142447735,-0.14673350810175592,0.5503785754644878,0.7165020669750152,0.0,0.0,0.0,0.0,0.0,0.0,0.0
0.2899998773158278,-0.1835494367156443,0.5439865126398635,3.2898848938456804,2.0569068142447735,-0.14673350810175592,0.5503785754644878,0.7165020669750152,0.0,0.0,0.0,0.0,0.0,0.0,0.0
0.29999987308533915,-0.1835494367156443,0.5439865126398635,3.2898848938456804,2.0569068142447735,-0.14673350810175592,0.5503785754644878,0.7165020669750152,0.0,0.0,0.0,0.0,0.0,0.0,0.0
0.3099998688548504,-0.1835494367156443,0.5439865126398635,3.2898848938456804,2.0569068142447735,-0.14673350810175592,0.5503785754644878,0.7165020669750152,0.0,0.0,0.0,0.0,0.0,0.0,0.0
0.3199998646243617,-0.1835494367156443,0.5439865126398635,3.2898848938456804,2.0569068142447735,-0.14673350810175592,0.5503785754644878,0.7165020669750152,0.0,0.0,0.0,0.0,0.0,0.0,0.0
0.3299998603938731,-0.1835494367156443,0.5439865126398635,3.2898848938456804,2.0569068142447735,-0.14673350810175592,0.5503785754644878,0.7165020669750152,0.0,0.0,0.0,0.0,0.0,0.0,0.0
0.33999985616338435,-0.1835494367156443,0.5439865126398635,3.2898848938456804,2.0569068142447735,-0.14673350810175592,0.5503785754644878,0.7165020669750152,0.0,0.0,0.0,0.0,0.0,0.0,0.0
0.3499998519328957,-0.1835494367156443,0.5439865126398635,3.2898848938456804,2.0569068142447735,-0.14673350810175592,0.5503785754644878,0.7165020669750152,0.0,0.0,0.0,0.0,0.0,0.0,0.0
0.3599998477024069,-0.1835494367156443,0.5439865126398635,3.2898848938456804,2.0569068142447735,-0.14673350810175592,0.5503785754644878,0.7165020669750152,0.0,0.0,0.0,0.0,0.0,0.0,0.0
0.36999984347191833,-0.1835494367156443,0.5439865126398635,3.2898848938456804,2.0569068142447735,-0.14673350810175592,0.5503785754644878,0.7165020669750152,0.0,0.0,0.0,0.0,0.0,0.0,0.0
0.3799998392414296,-0.1835494367156443,0.5439865126398635,3.2898848938456804,2.0569068142447735,-0.14673350810175592,0.5503785754644878,0.7165020669750152,0.0,0.0,0.0,0.0,0.0,0.0,0.0
0.3899998350109409,-0.1835494367156443,0.5439865126398635,3.2898848938456804,2.0569068142447735,-0.14673350810175592,0.5503785754644878,0.7165020669750152,0.0,0.0,0.0,0.0,0.0,0.0,0.0
0.39999983078045215,-0.1835494367156443,0.5439865126398635,3.2898848938456804,2.0569068142447735,-0.14673350810175592,0.5503785754644878,0.7165020669750152,0.0,0.0,0.0,0.0,0.0,0.0,0.0
0.4099998265499634,-0.1835494367156443,0.5439865126398635,3.2898848938456804,2.0569068142447735,-0.14673350810175592,0.5503785754644878,0.7165020669750152,0.0,0.0,0.0,0.0,0.0,0.0,0.0
0.4199998223194748,-0.1835494367156443,0.5439865126398635,3.2898848938456804,2.0569068142447735,-0.14673350810175592,0.5503785754644878,0.7165020669750152,0.0,0.0,0.0,0.0,0.0,0.0,0.0
0.4299998180889861,-0.1835494367156443,0.5439865126398635,3.2898848938456804,2.0569068142447735,-0.14673350810175592,0.5503785754644878,0.7165020669750152,0.0,0.0,0.0,0.0,0.0,0.0,0.0
0.43999981385849746,-0.1835494367156443,0.5439865126398635,3.2898848938456804,2.0569068142447735,-0.14673350810175592,0.5503785754644878,0.7165020669750152,0.0,0.0,0.0,0.0,0.0,0.0,0.0
0.44999980962800873,-0.1835494367156443,0.5439865126398635,3.2898848938456804,2.0569068142447735,-0.14673350810175592,0.5503785754644878,0.7165020669750152,0.0,0.0,0.0,0.0,0.0,0.0,0.0
0.45999980539752,-0.1835494367156443,0.5439865126398635,3.2898848938456804,2.0569068142447735,-0.14673350810175592,0.5503785754644878,0.7165020669750152,0.0,0.0,0.0,0.0,0.0,0.0,0.0
0.4699998011670313,-0.1835494367156443,0.5439865126398635,3.2898848938456804,2.0569068142447735,-0.14673350810175592,0.5503785754644878,0.7165020669750152,0.0,0.0,0.0,0.0,0.0,0.0,0.0
0.47999979693654254,-0.1835494367156443,0.5439865126398635,3.2898848938456804,2.0569068142447735,-0.14673350810175592,0.5503785754644878,0.7165020669750152,0.0,0.0,0.0,0.0,0.0,0.0,0.0
0.4899997927060539,-0.1835494367156443,0.5439865126398635,3.2898848938456804,2.0569068142447735,-0.14673350810175592,0.5503785754644878,0.7165020669750152,0.0,0.0,0.0,0.0,0.0,0.0,0.0
0.49999978847556525,-0.1835494367156443,0.5439865126398635,3.2898848938456804,2.0569068142447735,-0.14673350810175592,0.5503785754644878,0.7165020669750152,0.0,0.0,0.0,0.0,0.0,0.0,0.0
0.5099997842450765,-0.1835494367156443,0.5439865126398635,3.2898848938456804,2.0569068142447735,-0.14673350810175592,0.5503785754644878,0.7165020669750152,0.0,0.0,0.0,0.0,0.0,0.0,0.0
0.5199997800145878,-0.1835494367156443,0.5439865126398635,3.2898848938456804,2.0569068142447735,-0.14673350810175592,0.5503785754644878,0.7165020669750152,0.0,0.0,0.0,0.0,0.0,0.0,0.0
0.5299997757840992,-0.1835494367156443,0.5439865126398635,3.2898848938456804,2.0569068142447735,-0.14673350810175592,0.5503785754644878,0.7165020669750152,0.0,0.0,0.0,0.0,0.0,0.0,0.0
0.5399997715536105,-0.1835494367156443,0.5439865126398635,3.2898848938456804,2.0569068142447735,-0.14673350810175592,0.5503785754644878,0.7165020669750152,0.0,0.0,0.0,0.0,0.0,0.0,0.0
0.5499997673231217,-0.1835494367156443,0.5439865126398635,3.2898848938456804,2.0569068142447735,-0.14673350810175592,0.5503785754644878,0.7165020669750152,0.0,0.0,0.0,0.0,0.0,0.0,0.0
0.5599997630926331,-0.1835494367156443,0.5439865126398635,3.2898848938456804,2.0569068142447735,-0.14673350810175592,0.5503785754644878,0.7165020669750152,0.0,0.0,0.0,0.0,0.0,0.0,0.0
0.5699997588621444,-0.1835494367156443,0.5439865126398635,3.2898848938456804,2.0569068142447735,-0.14673350810175592,0.5503785754644878,0.7165020669750152,0.0,0.0,0.0,0.0,0.0,0.0,0.0
0.5799997546316557,-0.1835494367156443,0.5439865126398635,3.2898848938456804,2.0569068142447735,-0.14673350810175592,0.5503785754644878,0.7165020669750152,0.0,0.0,0.0,0.0,0.0,0.0,0.0
0.589999750401167,-0.1835494367156443,0.5439865126398635,3.2898848938456804,2.0569068142447735,-0.14673350810175592,0.5503785754644878,0.7165020669750152,0.0,0.0,0.0,0.0,0.0,0.0,0.0
0.5999997461706783,-0.1835494367156443,0.5439865126398635,3.2898848938456804,2.0569068142447735,-0.14673350810175592,0.5503785754644878,0.7165020669750152,0.0,0.0,0.0,0.0,0.0,0.0,0.0
0.6099997419401896,-0.1835494367156443,0.5439865126398635,3.2898848938456804,2.0569068142447735,-0.14673350810175592,0.5503785754644878,0.7165020669750152,0.0,0.0,0.0,0.0,0.0,0.0,0.0
0.6199997377097008,-0.1835494367156443,0.5439865126398635,3.2898848938456804,2.0569068142447735,-0.14673350810175592,0.5503785754644878,0.7165020669750152,0.0,0.0,0.0,0.0,0.0,0.0,0.0
0.6299997334792121,-0.1835494367156443,0.5439865126398635,3.2898848938456804,2.0569068142447735,-0.14673350810175592,0.5503785754644878,0.7165020669750152,0.0,0.0,0.0,0.0,0.0,0.0,0.0
0.6399997292487235,-0.1835494367156443,0.5439865126398635,3.2898848938456804,2.0569068142447735,-0.14673350810175592,0.5503785754644878,0.7165020669750152,0.0,0.0,0.0,0.0,0.0,0.0,0.0
0.6499997250182348,-0.1835494367156443,0.5439865126398635,3.2898848938456804,2.0569068142447735,-0.14673350810175592,0.5503785754644878,0.7165020669750152,0.0,0.0,0.0,0.0,0.0,0.0,0.0
0.6599997207877462,-0.1835494367156443,0.5439865126398635,3.2898848938456804,2.0569068142447735,-0.14673350810175592,0.5503785754644878,0.7165020669750152,0.0,0.0,0.0,0.0,0.0,0.0,0.0
0.6699997165572574,-0.1835494367156443,0.5439865126398635,3.2898848938456804,2.0569068142447735,-0.14673350810175592,0.5503785754644878,0.7165020669750152,0.0,0.0,0.0,0.0,0.0,0.0,0.0
0.6799997123267687,-0.1835494367156443,0.5439865126398635,3.2898848938456804,2.0569068142447735,-0.14673350810175592,0.5503785754644878,0.7165020669750152,0.0,0.0,0.0,0.0,0.0,0.0,0.0
0.68999970809628,-0.1835494367156443,0.5439865126398635,3.2898848938456804,2.0569068142447735,-0.14673350810175592,0.5503785754644878,0.7165020669750152,0.0,0.0,0.0,0.0,0.0,0.0,0.0
0.6999997038657914,-0.1835494367156443,0.5439865126398635,3.2898848938456804,2.0569068142447735,-0.14673350810175592,0.5503785754644878,0.7165020669750152,0.0,0.0,0.0,0.0,0.0,0.0,0.0
0.7099996996353025,-0.1835494367156443,0.5439865126398635,3.2898848938456804,2.0569068142447735,-0.14673350810175592,0.5503785754644878,0.7165020669750152,0.0,0.0,0.0,0.0,0.0,0.0,0.0
0.7199996954048138,-0.1835494367156443,0.5439865126398635,3.2898848938456804,2.0569068142447735,-0.14673350810175592,0.5503785754644878,0.7165020669750152,0.0,0.0,0.0,0.0,0.0,0.0,0.0
0.7299996911743252,-0.1835494367156443,0.5439865126398635,3.2898848938456804,2.0569068142447735,-0.14673350810175592,0.5503785754644878,0.7165020669750152,0.0,0.0,0.0,0.0,0.0,0.0,0.0
0.7399996869438364,-0.1835494367156443,0.5439865126398635,3.2898848938456804,2.0569068142447735,-0.14673350810175592,0.5503785754644878,0.7165020669750152,0.0,0.0,0.0,0.0,0.0,0.0,0.0
0.7499996827133478,-0.1835494367156443,0.5439865126398635,3.2898848938456804,2.0569068142447735,-0.14673350810175592,0.5503785754644878,0.7165020669750152,0.0,0.0,0.0,0.0,0.0,0.0,0.0
0.7599996784828592,-0.1835494367156443,0.5439865126398635,3.2898848938456804,2.0569068142447735,-0.14673350810175592,0.5503785754644878,0.7165020669750152,0.0,0.0,0.0,0.0,0.0,0.0,0.0
0.7699996742523706,-0.1835494367156443,0.5439865126398635,3.2898848938456804,2.0569068142447735,-0.14673350810175592,0.5503785754644878,0.7165020669750152,0.0,0.0,0.0,0.0,0.0,0.0,0.0
0.7799996700218818,-0.1835494367156443,0.5439865126398635,3.2898848938456804,2.0569068142447735,-0.14673350810175592,0.5503785754644878,0.7165020669750152,0.0,0.0,0.0,0.0,0.0,0.0,0.0
0.7899996657913929,-0.1835494367156443,0.5439865126398635,3.2898848938456804,2.0569068142447735,-0.14673350810175592,0.5503785754644878,0.7165020669750152,0.0,0.0,0.0,0.0,0.0,0.0,0.0
0.7999996615609043,-0.1835494367156443,0.5439865126398635,3.2898848938456804,2.0569068142447735,-0.14673350810175592,0.5503785754644878,0.7165020669750152,0.0,0.0,0.0,0.0,0.0,0.0,0.0
0.8099996573304157,-0.1835494367156443,0.5439865126398635,3.2898848938456804,2.0569068142447735,-0.14673350810175592,0.5503785754644878,0.7165020669750152,0.0,0.0,0.0,0.0,0.0,0.0,0.0
0.8199996530999268,-0.1835494367156443,0.5439865126398635,3.2898848938456804,2.0569068142447735,-0.14673350810175592,0.5503785754644878,0.7165020669750152,0.0,0.0,0.0,0.0,0.0,0.0,0.0
0.8299996488694382,-0.1835494367156443,0.5439865126398635,3.2898848938456804,2.0569068142447735,-0.14673350810175592,0.5503785754644878,0.7165020669750152,0.0,0.0,0.0,0.0,0.0,0.0,0.0
0.8399996446389496,-0.1835494367156443,0.5439865126398635,3.2898848938456804,2.0569068142447735,-0.14673350810175592,0.5503785754644878,0.7165020669750152,0.0,0.0,0.0,0.0,0.0,0.0,0.0
0.8499996404084608,-0.1835494367156443,0.5439865126398635,3.2898848938456804,2.0569068142447735,-0.14673350810175592,0.5503785754644878,0.7165020669750152,0.0,0.0,0.0,0.0,0.0,0.0,0.0
0.8599996361779721,-0.1835494367156443,0.5439865126398635,3.2898848938456804,2.0569068142447735,-0.14673350810175592,0.5503785754644878,0.7165020669750152,0.0,0.0,0.0,0.0,0.0,0.0,0.0
0.8699996319474835,-0.1835494367156443,0.5439865126398635,3.2898848938456804,2.0569068142447735,-0.14673350810175592,0.5503785754644878,0.7165020669750152,0.0,0.0,0.0,0.0,0.0,0.0,0.0
0.8799996277169949,-0.1835494367156443,0.5439865126398635,3.2898848938456804,2.0569068142447735,-0.14673350810175592,0.5503785754644878,0.7165020669750152,0.0,0.0,0.0,0.0,0.0,0.0,0.0
0.889999623486506,-0.1835494367156443,0.5439865126398635,3.2898848938456804,2.0569068142447735,-0.14673350810175592,0.5503785754644878,0.7165020669750152,0.0,0.0,0.0,0.0,0.0,0.0,0.0
0.8999996192560175,-0.1835494367156443,0.5439865126398635,3.2898848938456804,2.0569068142447735,-0.14673350810175592,0.5503785754644878,0.7165020669750152,0.0,0.0,0.0,0.0,0.0,0.0,0.0
0.9099996150255288,-0.1835494367156443,0.5439865126398635,3.2898848938456804,2.0569068142447735,-0.14673350810175592,0.5503785754644878,0.7165020669750152,0.0,0.0,0.0,0.0,0.0,0.0,0.0
0.91999961079504,-0.1835494367156443,0.5439865126398635,3.2898848938456804,2.0569068142447735,-0.14673350810175592,0.5503785754644878,0.7165020669750152,0.0,0.0,0.0,0.0,0.0,0.0,0.0
0.9299996065645514,-0.1835494367156443,0.5439865126398635,3.2898848938456804,2.0569068142447735,-0.14673350810175592,0.5503785754644878,0.7165020669750152,0.0,0.0,0.0,0.0,0.0,0.0,0.0
0.9399996023340625,-0.1835494367156443,0.5439865126398635,3.2898848938456804,2.0569068142447735,-0.14673350810175592,0.5503785754644878,0.7165020669750152,0.0,0.0,0.0,0.0,0.0,0.0,0.0
0.949999598103574,-0.1835494367156443,0.5439865126398635,3.2898848938456804,2.0569068142447735,-0.14673350810175592,0.5503785754644878,0.7165020669750152,0.0,0.0,0.0,0.0,0.0,0.0,0.0
0.9599995938730853,-0.1835494367156443,0.5439865126398635,3.2898848938456804,2.0569068142447735,-0.14673350810175592,0.5503785754644878,0.7165020669750152,0.0,0.0,0.0,0.0,0.0,0.0,0.0
0.9699995896425965,-0.1835494367156443,0.5439865126398635,3.2898848938456804,2.0569068142447735,-0.14673350810175592,0.5503785754644878,0.7165020669750152,0.0,0.0,0.0,0.0,0.0,0.0,0.0
0.9799995854121079,-0.1835494367156443,0.5439865126398635,3.2898848938456804,2.0569068142447735,-0.14673350810175592,0.5503785754644878,0.7165020669750152,0.0,0.0,0.0,0.0,0.0,0.0,0.0
0.9899995811816192,-0.1835494367156443,0.5439865126398635,3.2898848938456804,2.0569068142447735,-0.14673350810175592,0.5503785754644878,0.7165020669750152,0.0,0.0,0.0,0.0,0.0,0.0,0.0
0.9999995769511304,-0.1835494367156443,0.5439865126398635,3.2898848938456804,2.0569068142447735,-0.14673350810175592,0.5503785754644878,0.7165020669750152,0.0,0.0,0.0,0.0,0.0,0.0,0.0
1.0099995727206417,-0.1835494367156443,0.5439865126398635,3.2898848938456804,2.0569068142447735,-0.14673350810175592,0.5503785754644878,0.7165020669750152,0.0,0.0,0.0,0.0,0.0,0.0,0.0
1.019999568490153,-0.1835494367156443,0.5439865126398635,3.2898848938456804,2.0569068142447735,-0.14673350810175592,0.5503785754644878,0.7165020669750152,0.0,0.0,0.0,0.0,0.0,0.0,0.0
1.0299995642596644,-0.1835494367156443,0.5439865126398635,3.2898848938456804,2.0569068142447735,-0.14673350810175592,0.5503785754644878,0.7165020669750152,0.0,0.0,0.0,0.0,0.0,0.0,0.0
1.0399995600291756,-0.1835494367156443,0.5439865126398635,3.2898848938456804,2.0569068142447735,-0.14673350810175592,0.5503785754644878,0.7165020669750152,0.0,0.0,0.0,0.0,0.0,0.0,0.0
1.0499995557986868,-0.1835494367156443,0.5439865126398635,3.2898848938456804,2.0569068142447735,-0.14673350810175592,0.5503785754644878,0.7165020669750152,0.0,0.0,0.0,0.0,0.0,0.0,0.0
1.0599995515681984,-0.1835494367156443,0.5439865126398635,3.2898848938456804,2.0569068142447735,-0.14673350810175592,0.5503785754644878,0.7165020669750152,0.0,0.0,0.0,0.0,0.0,0.0,0.0
1.0699995473377095,-0.1835494367156443,0.5439865126398635,3.2898848938456804,2.0569068142447735,-0.14673350810175592,0.5503785754644878,0.7165020669750152,0.0,0.0,0.0,0.0,0.0,0.0,0.0
1.079999543107221,-0.1835494367156443,0.5439865126398635,3.2898848938456804,2.0569068142447735,-0.14673350810175592,0.5503785754644878,0.7165020669750152,0.0,0.0,0.0,0.0,0.0,0.0,0.0
1.0899995388767323,-0.1835494367156443,0.5439865126398635,3.2898848938456804,2.0569068142447735,-0.14673350810175592,0.5503785754644878,0.7165020669750152,0.0,0.0,0.0,0.0,0.0,0.0,0.0
1.0999995346462434,-0.1835494367156443,0.5439865126398635,3.2898848938456804,2.0569068142447735,-0.14673350810175592,0.5503785754644878,0.7165020669750152,0.0,0.0,0.0,0.0,0.0,0.0,0.0
1.1099995304157548,-0.1835494367156443,0.5439865126398635,3.2898848938456804,2.0569068142447735,-0.14673350810175592,0.5503785754644878,0.7165020669750152,0.0,0.0,0.0,0.0,0.0,0.0,0.0
1.1199995261852662,-0.1835494367156443,0.5439865126398635,3.2898848938456804,2.0569068142447735,-0.14673350810175592,0.5503785754644878,0.7165020669750152,0.0,0.0,0.0,0.0,0.0,0.0,0.0
1.1299995219547772,-0.1835494367156443,0.5439865126398635,3.2898848938456804,2.0569068142447735,-0.14673350810175592,0.5503785754644878,0.7165020669750152,0.0,0.0,0.0,0.0,0.0,0.0,0.0
1.1399995177242888,-0.1835494367156443,0.5439865126398635,3.2898848938456804,2.0569068142447735,-0.14673350810175592,0.5503785754644878,0.7165020669750152,0.0,0.0,0.0,0.0,0.0,0.0,0.0
1.1499995134938,-0.1835494367156443,0.5439865126398635,3.2898848938456804,2.0569068142447735,-0.14673350810175592,0.5503785754644878,0.7165020669750152,0.0,0.0,0.0,0.0,0.0,0.0,0.0
1.1599995092633113,-0.1835494367156443,0.5439865126398635,3.2898848938456804,2.0569068142447735,-0.14673350810175592,0.5503785754644878,0.7165020669750152,0.0,0.0,0.0,0.0,0.0,0.0,0.0
1.1699995050328227,-0.1835494367156443,0.5439865126398635,3.2898848938456804,2.0569068142447735,-0.14673350810175592,0.5503785754644878,0.7165020669750152,0.0,0.0,0.0,0.0,0.0,0.0,0.0
1.179999500802334,-0.1835494367156443,0.5439865126398635,3.2898848938456804,2.0569068142447735,-0.14673350810175592,0.5503785754644878,0.7165020669750152,0.0,0.0,0.0,0.0,0.0,0.0,0.0
1.1899994965718452,-0.1835494367156443,0.5439865126398635,3.2898848938456804,2.0569068142447735,-0.14673350810175592,0.5503785754644878,0.7165020669750152,0.0,0.0,0.0,0.0,0.0,0.0,0.0
1.1999994923413566,-0.1835494367156443,0.5439865126398635,3.2898848938456804,2.0569068142447735,-0.14673350810175592,0.5503785754644878,0.7165020669750152,0.0,0.0,0.0,0.0,0.0,0.0,0.0
1.2099994881108675,-0.1835494367156443,0.5439865126398635,3.2898848938456804,2.0569068142447735,-0.14673350810175592,0.5503785754644878,0.7165020669750152,0.0,0.0,0.0,0.0,0.0,0.0,0.0
1.2199994838803792,-0.1835494367156443,0.5439865126398635,3.2898848938456804,2.0569068142447735,-0.14673350810175592,0.5503785754644878,0.7165020669750152,0.0,0.0,0.0,0.0,0.0,0.0,0.0
1.2299994796498903,-0.1835494367156443,0.5439865126398635,3.2898848938456804,2.0569068142447735,-0.14673350810175592,0.5503785754644878,0.7165020669750152,0.0,0.0,0.0,0.0,0.0,0.0,0.0
1.2399994754194017,-0.1835494367156443,0.5439865126398635,3.2898848938456804,2.0569068142447735,-0.14673350810175592,0.5503785754644878,0.7165020669750152,0.0,0.0,0.0,0.0,0.0,0.0,0.0
1.249999471188913,-0.1835494367156443,0.5439865126398635,3.2898848938456804,2.0569068142447735,-0.14673350810175592,0.5503785754644878,0.7165020669750152,0.0,0.0,0.0,0.0,0.0,0.0,0.0
1.2599994669584245,-0.1835494367156443,0.5439865126398635,3.2898848938456804,2.0569068142447735,-0.14673350810175592,0.5503785754644878,0.7165020669750152,0.0,0.0,0.0,0.0,0.0,0.0,0.0
1.2699994627279356,-0.1835494367156443,0.5439865126398635,3.2898848938456804,2.0569068142447735,-0.14673350810175592,0.5503785754644878,0.7165020669750152,0.0,0.0,0.0,0.0,0.0,0.0,0.0
1.279999458497447,-0.1835494367156443,0.5439865126398635,3.2898848938456804,2.0569068142447735,-0.14673350810175592,0.5503785754644878,0.7165020669750152,0.0,0.0,0.0,0.0,0.0,0.0,0.0
1.2899994542669584,-0.1835494367156443,0.5439865126398635,3.2898848938456804,2.0569068142447735,-0.14673350810175592,0.5503785754644878,0.7165020669750152,0.0,0.0,0.0,0.0,0.0,0.0,0.0
1.2999994500364696,-0.1835494367156443,0.5439865126398635,3.2898848938456804,2.0569068142447735,-0.14673350810175592,0.5503785754644878,0.7165020669750152,0.0,0.0,0.0,0.0,0.0,0.0,0.0
1.3099994458059807,-0.1835494367156443,0.5439865126398635,3.2898848938456804,2.0569068142447735,-0.14673350810175592,0.5503785754644878,0.7165020669750152,0.0,0.0,0.0,0.0,0.0,0.0,0.0
1.3199994415754923,-0.1835494367156443,0.5439865126398635,3.2898848938456804,2.0569068142447735,-0.14673350810175592,0.5503785754644878,0.7165020669750152,0.0,0.0,0.0,0.0,0.0,0.0,0.0
1.3299994373450035,-0.1835494367156443,0.5439865126398635,3.2898848938456804,2.0569068142447735,-0.14673350810175592,0.5503785754644878,0.7165020669750152,0.0,0.0,0.0,0.0,0.0,0.0,0.0
1.3399994331145149,-0.1835494367156443,0.5439865126398635,3.2898848938456804,2.0569068142447735,-0.14673350810175592,0.5503785754644878,0.7165020669750152,0.0,0.0,0.0,0.0,0.0,0.0,0.0
1.3499994288840262,-0.1835494367156443,0.5439865126398635,3.2898848938456804,2.0569068142447735,-0.14673350810175592,0.5503785754644878,0.7165020669750152,0.0,0.0,0.0,0.0,0.0,0.0,0.0
1.3599994246535374,-0.1835494367156443,0.5439865126398635,3.2898848938456804,2.0569068142447735,-0.14673350810175592,0.5503785754644878,0.7165020669750152,0.0,0.0,0.0,0.0,0.0,0.0,0.0
1.3699994204230488,-0.1835494367156443,0.5439865126398635,3.2898848938456804,2.0569068142447735,-0.14673350810175592,0.5503785754644878,0.7165020669750152,0.0,0.0,0.0,0.0,0.0,0.0,0.0
1.37999941619256,-0.1835494367156443,0.5439865126398635,3.2898848938456804,2.0569068142447735,-0.14673350810175592,0.5503785754644878,0.7165020669750152,0.0,0.0,0.0,0.0,0.0,0.0,0.0
1.389999411962071,-0.1835494367156443,0.5439865126398635,3.2898848938456804,2.0569068142447735,-0.14673350810175592,0.5503785754644878,0.7165020669750152,0.0,0.0,0.0,0.0,0.0,0.0,0.0
1.3999994077315827,-0.1835494367156443,0.5439865126398635,3.2898848938456804,2.0569068142447735,-0.14673350810175592,0.5503785754644878,0.7165020669750152,0.0,0.0,0.0,0.0,0.0,0.0,0.0
1.4099994035010939,-0.1835494367156443,0.5439865126398635,3.2898848938456804,2.0569068142447735,-0.14673350810175592,0.5503785754644878,0.7165020669750152,0.0,0.0,0.0,0.0,0.0,0.0,0.0
1.4199993992706053,-0.1835494367156443,0.5439865126398635,3.2898848938456804,2.0569068142447735,-0.14673350810175592,0.5503785754644878,0.7165020669750152,0.0,0.0,0.0,0.0,0.0,0.0,0.0
1.4299993950401166,-0.1835494367156443,0.5439865126398635,3.2898848938456804,2.0569068142447735,-0.14673350810175592,0.5503785754644878,0.7165020669750152,0.0,0.0,0.0,0.0,0.0,0.0,0.0
1.4399993908096276,-0.1835494367156443,0.5439865126398635,3.2898848938456804,2.0569068142447735,-0.14673350810175592,0.5503785754644878,0.7165020669750152,0.0,0.0,0.0,0.0,0.0,0.0,0.0
1.4499993865791392,-0.1835494367156443,0.5439865126398635,3.2898848938456804,2.0569068142447735,-0.14673350810175592,0.5503785754644878,0.7165020669750152,0.0,0.0,0.0,0.0,0.0,0.0,0.0
1.4599993823486503,-0.1835494367156443,0.5439865126398635,3.2898848938456804,2.0569068142447735,-0.14673350810175592,0.5503785754644878,0.7165020669750152,0.0,0.0,0.0,0.0,0.0,0.0,0.0
1.4699993781181615,-0.1835494367156443,0.5439865126398635,3.2898848938456804,2.0569068142447735,-0.14673350810175592,0.5503785754644878,0.7165020669750152,0.0,0.0,0.0,0.0,0.0,0.0,0.0
1.479999373887673,-0.1835494367156443,0.5439865126398635,3.2898848938456804,2.0569068142447735,-0.14673350810175592,0.5503785754644878,0.7165020669750152,0.0,0.0,0.0,0.0,0.0,0.0,0.0
1.4899993696571845,-0.1835494367156443,0.5439865126398635,3.2898848938456804,2.0569068142447735,-0.14673350810175592,0.5503785754644878,0.7165020669750152,0.0,0.0,0.0,0.0,0.0,0.0,0.0
1.4999993654266957,-0.1835494367156443,0.5439865126398635,3.2898848938456804,2.0569068142447735,-0.14673350810175592,0.5503785754644878,0.7165020669750152,0.0,0.0,0.0,0.0,0.0,0.0,0.0
1.509999361196207,-0.1835494367156443,0.5439865126398635,3.2898848938456804,2.0569068142447735,-0.14673350810175592,0.5503785754644878,0.7165020669750152,0.0,0.0,0.0,0.0,0.0,0.0,0.0
1.5199993569657184,-0.1835494367156443,0.5439865126398635,3.2898848938456804,2.0569068142447735,-0.14673350810175592,0.5503785754644878,0.7165020669750152,0.0,0.0,0.0,0.0,0.0,0.0,0.0
1.5299993527352296,-0.1835494367156443,0.5439865126398635,3.2898848938456804,2.0569068142447735,-0.14673350810175592,0.5503785754644878,0.7165020669750152,0.0,0.0,0.0,0.0,0.0,0.0,0.0
1.5399993485047407,-0.1835494367156443,0.5439865126398635,3.2898848938456804,2.0569068142447735,-0.14673350810175592,0.5503785754644878,0.7165020669750152,0.0,0.0,0.0,0.0,0.0,0.0,0.0
1.5499993442742523,-0.1835494367156443,0.5439865126398635,3.2898848938456804,2.0569068142447735,-0.14673350810175592,0.5503785754644878,0.7165020669750152,0.0,0.0,0.0,0.0,0.0,0.0,0.0
1.5599993400437635,-0.1835494367156443,0.5439865126398635,3.2898848938456804,2.0569068142447735,-0.14673350810175592,0.5503785754644878,0.7165020669750152,0.0,0.0,0.0,0.0,0.0,0.0,0.0
1.5699993358132749,-0.1835494367156443,0.5439865126398635,3.2898848938456804,2.0569068142447735,-0.14673350810175592,0.5503785754644878,0.7165020669750152,0.0,0.0,0.0,0.0,0.0,0.0,0.0
1.579999331582786,-0.1835494367156443,0.5439865126398635,3.2898848938456804,2.0569068142447735,-0.14673350810175592,0.5503785754644878,0.7165020669750152,0.0,0.0,0.0,0.0,0.0,0.0,0.0
1.5899993273522974,-0.1835494367156443,0.5439865126398635,3.2898848938456804,2.0569068142447735,-0.14673350810175592,0.5503785754644878,0.7165020669750152,0.0,0.0,0.0,0.0,0.0,0.0,0.0
1.5999993231218088,-0.1835494367156443,0.5439865126398635,3.2898848938456804,2.0569068142447735,-0.14673350810175592,0.5503785754644878,0.7165020669750152,0.0,0.0,0.0,0.0,0.0,0.0,0.0
1.60999931889132,-0.1835494367156443,0.5439865126398635,3.2898848938456804,2.0569068142447735,-0.14673350810175592,0.5503785754644878,0.7165020669750152,0.0,0.0,0.0,0.0,0.0,0.0,0.0
1.6199993146608311,-0.1835494367156443,0.5439865126398635,3.2898848938456804,2.0569068142447735,-0.14673350810175592,0.5503785754644878,0.7165020669750152,0.0,0.0,0.0,0.0,0.0,0.0,0.0
1.6299993104303427,-0.1835494367156443,0.5439865126398635,3.2898848938456804,2.0569068142447735,-0.14673350810175592,0.5503785754644878,0.7165020669750152,0.0,0.0,0.0,0.0,0.0,0.0,0.0
1.639999306199854,-0.1835494367156443,0.5439865126398635,3.2898848938456804,2.0569068142447735,-0.14673350810175592,0.5503785754644878,0.7165020669750152,0.0,0.0,0.0,0.0,0.0,0.0,0.0
1.6499993019693653,-0.1835494367156443,0.5439865126398635,3.2898848938456804,2.0569068142447735,-0.14673350810175592,0.5503785754644878,0.7165020669750152,0.0,0.0,0.0,0.0,0.0,0.0,0.0
1.6599992977388767,-0.1835494367156443,0.5439865126398635,3.2898848938456804,2.0569068142447735,-0.14673350810175592,0.5503785754644878,0.7165020669750152,0.0,0.0,0.0,0.0,0.0,0.0,0.0
1.6699992935083878,-0.1835494367156443,0.5439865126398635,3.2898848938456804,2.0569068142447735,-0.14673350810175592,0.5503785754644878,0.7165020669750152,0.0,0.0,0.0,0.0,0.0,0.0,0.0
1.6799992892778992,-0.1835494367156443,0.5439865126398635,3.2898848938456804,2.0569068142447735,-0.14673350810175592,0.5503785754644878,0.7165020669750152,0.0,0.0,0.0,0.0,0.0,0.0,0.0
1.6899992850474104,-0.1835494367156443,0.5439865126398635,3.2898848938456804,2.0569068142447735,-0.14673350810175592,0.5503785754644878,0.7165020669750152,0.0,0.0,0.0,0.0,0.0,0.0,0.0
1.6999992808169215,-0.1835494367156443,0.5439865126398635,3.2898848938456804,2.0569068142447735,-0.14673350810175592,0.5503785754644878,0.7165020669750152,0.0,0.0,0.0,0.0,0.0,0.0,0.0
1.7099992765864331,-0.1835494367156443,0.5439865126398635,3.2898848938456804,2.0569068142447735,-0.14673350810175592,0.5503785754644878,0.7165020669750152,0.0,0.0,0.0,0.0,0.0,0.0,0.0
1.7199992723559443,-0.1835494367156443,0.5439865126398635,3.2898848938456804,2.0569068142447735,-0.14673350810175592,0.5503785754644878,0.7165020669750152,0.0,0.0,0.0,0.0,0.0,0.0,0.0
1.7299992681254557,-0.1835494367156443,0.5439865126398635,3.2898848938456804,2.0569068142447735,-0.14673350810175592,0.5503785754644878,0.7165020669750152,0.0,0.0,0.0,0.0,0.0,0.0,0.0
1.739999263894967,-0.1835494367156443,0.5439865126398635,3.2898848938456804,2.0569068142447735,-0.14673350810175592,0.5503785754644878,0.7165020669750152,0.0,0.0,0.0,0.0,0.0,0.0,0.0
1.7499992596644782,-0.1835494367156443,0.5439865126398635,3.2898848938456804,2.0569068142447735,-0.14673350810175592,0.5503785754644878,0.7165020669750152,0.0,0.0,0.0,0.0,0.0,0.0,0.0
1.7599992554339896,-0.1835494367156443,0.5439865126398635,3.2898848938456804,2.0569068142447735,-0.14673350810175592,0.5503785754644878,0.7165020669750152,0.0,0.0,0.0,0.0,0.0,0.0,0.0
1.7699992512035008,-0.1835494367156443,0.5439865126398635,3.2898848938456804,2.0569068142447735,-0.14673350810175592,0.5503785754644878,0.7165020669750152,0.0,0.0,0.0,0.0,0.0,0.0,0.0
1.779999246973012,-0.1835494367156443,0.5439865126398635,3.2898848938456804,2.0569068142447735,-0.14673350810175592,0.5503785754644878,0.7165020669750152,0.0,0.0,0.0,0.0,0.0,0.0,0.0
1.7899992427425235,-0.1835494367156443,0.5439865126398635,3.2898848938456804,2.0569068142447735,-0.14673350810175592,0.5503785754644878,0.7165020669750152,0.0,0.0,0.0,0.0,0.0,0.0,0.0
1.7999992385120347,-0.1835494367156443,0.5439865126398635,3.2898848938456804,2.0569068142447735,-0.14673350810175592,0.5503785754644878,0.7165020669750152,0.0,0.0,0.0,0.0,0.0,0.0,0.0
1.809999234281546,-0.1835494367156443,0.5439865126398635,3.2898848938456804,2.0569068142447735,-0.14673350810175592,0.5503785754644878,0.7165020669750152,0.0,0.0,0.0,0.0,0.0,0.0,0.0
1.8199992300510572,-0.1835494367156443,0.5439865126398635,3.2898848938456804,2.0569068142447735,-0.14673350810175592,0.5503785754644878,0.7165020669750152,0.0,0.0,0.0,0.0,0.0,0.0,0.0
1.8299992258205688,-0.1835494367156443,0.5439865126398635,3.2898848938456804,2.0569068142447735,-0.14673350810175592,0.5503785754644878,0.7165020669750152,0.0,0.0,0.0,0.0,0.0,0.0,0.0
1.83999922159008,-0.1835494367156443,0.5439865126398635,3.2898848938456804,2.0569068142447735,-0.14673350810175592,0.5503785754644878,0.7165020669750152,0.0,0.0,0.0,0.0,0.0,0.0,0.0
1.8499992173595916,-0.1835494367156443,0.5439865126398635,3.2898848938456804,2.0569068142447735,-0.14673350810175592,0.5503785754644878,0.7165020669750152,0.0,0.0,0.0,0.0,0.0,0.0,0.0
1.8599992131291028,-0.1835494367156443,0.5439865126398635,3.2898848938456804,2.0569068142447735,-0.14673350810175592,0.5503785754644878,0.7165020669750152,0.0,0.0,0.0,0.0,0.0,0.0,0.0
1.8699992088986137,-0.1835494367156443,0.5439865126398635,3.2898848938456804,2.0569068142447735,-0.14673350810175592,0.5503785754644878,0.7165020669750152,0.0,0.0,0.0,0.0,0.0,0.0,0.0
1.879999204668125,-0.1835494367156443,0.5439865126398635,3.2898848938456804,2.0569068142447735,-0.14673350810175592,0.5503785754644878,0.7165020669750152,0.0,0.0,0.0,0.0,0.0,0.0,0.0
1.8899992004376367,-0.1835494367156443,0.5439865126398635,3.2898848938456804,2.0569068142447735,-0.14673350810175592,0.5503785754644878,0.7165020669750152,0.0,0.0,0.0,0.0,0.0,0.0,0.0
1.899999196207148,-0.1835494367156443,0.5439865126398635,3.2898848938456804,2.0569068142447735,-0.14673350810175592,0.5503785754644878,0.7165020669750152,0.0,0.0,0.0,0.0,0.0,0.0,0.0
1.9099991919766592,-0.1835494367156443,0.5439865126398635,3.2898848938456804,2.0569068142447735,-0.14673350810175592,0.5503785754644878,0.7165020669750152,0.0,0.0,0.0,0.0,0.0,0.0,0.0
1.9199991877461704,-0.1835494367156443,0.5439865126398635,3.2898848938456804,2.0569068142447735,-0.14673350810175592,0.5503785754644878,0.7165020669750152,0.0,0.0,0.0,0.0,0.0,0.0,0.0
1.9299991835156816,-0.1835494367156443,0.5439865126398635,3.2898848938456804,2.0569068142447735,-0.14673350810175592,0.5503785754644878,0.7165020669750152,0.0,0.0,0.0,0.0,0.0,0.0,0.0
1.9399991792851927,-0.1835494367156443,0.5439865126398635,3.2898848938456804,2.0569068142447735,-0.14673350810175592,0.5503785754644878,0.7165020669750152,0.0,0.0,0.0,0.0,0.0,0.0,0.0
1.9499991750547043,-0.1835494367156443,0.5439865126398635,3.2898848938456804,2.0569068142447735,-0.14673350810175592,0.5503785754644878,0.7165020669750152,0.0,0.0,0.0,0.0,0.0,0.0,0.0
1.959999170824216,-0.1835494367156443,0.5439865126398635,3.2898848938456804,2.0569068142447735,-0.14673350810175592,0.5503785754644878,0.7165020669750152,0.0,0.0,0.0,0.0,0.0,0.0,0.0
1.969999166593727,-0.1835494367156443,0.5439865126398635,3.2898848938456804,2.0569068142447735,-0.14673350810175592,0.5503785754644878,0.7165020669750152,0.0,0.0,0.0,0.0,0.0,0.0,0.0
1.9799991623632385,-0.1835494367156443,0.5439865126398635,3.2898848938456804,2.0569068142447735,-0.14673350810175592,0.5503785754644878,0.7165020669750152,0.0,0.0,0.0,0.0,0.0,0.0,0.0
1.9899991581327496,-0.1835494367156443,0.5439865126398635,3.2898848938456804,2.0569068142447735,-0.14673350810175592,0.5503785754644878,0.7165020669750152,0.0,0.0,0.0,0.0,0.0,0.0,0.0
1.9999991539022608,-0.1835494367156443,0.5439865126398635,3.2898848938456804,2.0569068142447735,-0.14673350810175592,0.5503785754644878,0.7165020669750152,0.0,0.0,0.0,0.0,0.0,0.0,0.0
2.0099991496717724,-0.1835494367156443,0.5439865126398635,3.2898848938456804,2.0569068142447735,-0.14673350810175592,0.5503785754644878,0.7165020669750152,0.0,0.0,0.0,0.0,0.0,0.0,0.0
2.019999145441284,-0.1835494367156443,0.5439865126398635,3.2898848938456804,2.0569068142447735,-0.14673350810175592,0.5503785754644878,0.7165020669750152,0.0,0.0,0.0,0.0,0.0,0.0,0.0
2.0299991412107947,-0.1835494367156443,0.5439865126398635,3.2898848938456804,2.0569068142447735,-0.14673350810175592,0.5503785754644878,0.7165020669750152,0.0,0.0,0.0,0.0,0.0,0.0,0.0
2.039999136980306,-0.1835494367156443,0.5439865126398635,3.2898848938456804,2.0569068142447735,-0.14673350810175592,0.5503785754644878,0.7165020669750152,0.0,0.0,0.0,0.0,0.0,0.0,0.0
2.049999132749817,-0.1835494367156443,0.5439865126398635,3.2898848938456804,2.0569068142447735,-0.14673350810175592,0.5503785754644878,0.7165020669750152,0.010721490579533114,0.01566893676220367,-0.001329704254750945,-4.52568174547576e-05,-0.006185444464499676,-0.015309905753388111,-0.014860615842117128
2.059999128519329,-0.18333500699476793,0.5442998912425331,3.289858299771836,2.0569059091088073,-0.146857216938711,0.5500723774789568,0.7162048547839082,0.010721490579533114,0.01566893676220367,-0.001329704254750945,-4.52568174547576e-05,-0.006185444464499676,-0.015309905753388111,-0.014860615842117128
2.06999912428884,-0.18333500699476793,0.5442998912425331,3.289858299771836,2.0569059091088073,-0.146857216938711,0.5500723774789568,0.7162048547839082,0.0,0.0,0.0,0.0,0.0,0.0,0.0
2.079999120058351,-0.18333500699476793,0.5442998912425331,3.289858299771836,2.0569059091088073,-0.146857216938711,0.5500723774789568,0.7162048547839082,0.0,0.0,0.0,0.0,0.0,0.0,0.0
2.0899991158278626,-0.18333500699476793,0.5442998912425331,3.289858299771836,2.0569059091088073,-0.146857216938711,0.5500723774789568,0.7162048547839082,0.0,0.0,0.0,0.0,0.0,0.0,0.0
2.0999991115973735,-0.18333500699476793,0.5442998912425331,3.289858299771836,2.0569059091088073,-0.146857216938711,0.5500723774789568,0.7162048547839082,0.0,0.0,0.0,0.0,0.0,0.0,0.0
2.1099991073668853,-0.18333500699476793,0.5442998912425331,3.289858299771836,2.0569059091088073,-0.146857216938711,0.5500723774789568,0.7162048547839082,0.0,0.0,0.0,0.0,0.0,0.0,0.0
2.1199991031363967,-0.18333500699476793,0.5442998912425331,3.289858299771836,2.0569059091088073,-0.146857216938711,0.5500723774789568,0.7162048547839082,0.0,0.0,0.0,0.0,0.0,0.0,0.0
2.129999098905908,-0.18333500699476793,0.5442998912425331,3.289858299771836,2.0569059091088073,-0.146857216938711,0.5500723774789568,0.7162048547839082,0.0,0.0,0.0,0.0,0.0,0.0,0.0
2.139999094675419,-0.18333500699476793,0.5442998912425331,3.289858299771836,2.0569059091088073,-0.146857216938711,0.5500723774789568,0.7162048547839082,0.0,0.0,0.0,0.0,0.0,0.0,0.0
2.1499990904449304,-0.18333500699476793,0.5442998912425331,3.289858299771836,2.0569059091088073,-0.146857216938711,0.5500723774789568,0.7162048547839082,0.0,0.0,0.0,0.0,0.0,0.0,0.0
2.159999086214442,-0.18333500699476793,0.5442998912425331,3.289858299771836,2.0569059091088073,-0.146857216938711,0.5500723774789568,0.7162048547839082,0.0,0.0,0.0,0.0,0.0,0.0,0.0
2.1699990819839527,-0.18333500699476793,0.5442998912425331,3.289858299771836,2.0569059091088073,-0.146857216938711,0.5500723774789568,0.7162048547839082,0.0,0.0,0.0,0.0,0.0,0.0,0.0
2.1799990777534646,-0.18333500699476793,0.5442998912425331,3.289858299771836,2.0569059091088073,-0.146857216938711,0.5500723774789568,0.7162048547839082,0.0,0.0,0.0,0.0,0.0,0.0,0.0
2.189999073522976,-0.18333500699476793,0.5442998912425331,3.289858299771836,2.0569059091088073,-0.146857216938711,0.5500723774789568,0.7162048547839082,0.0,0.0,0.0,0.0,0.0,0.0,0.0
2.199999069292487,-0.18333500699476793,0.5442998912425331,3.289858299771836,2.0569059091088073,-0.146857216938711,0.5500723774789568,0.7162048547839082,0.0,0.0,0.0,0.0,0.0,0.0,0.0
2.2099990650619983,-0.18333500699476793,0.5442998912425331,3.289858299771836,2.0569059091088073,-0.146857216938711,0.5500723774789568,0.7162048547839082,0.0,0.0,0.0,0.0,0.0,0.0,0.0
2.2199990608315097,-0.18333500699476793,0.5442998912425331,3.289858299771836,2.0569059091088073,-0.146857216938711,0.5500723774789568,0.7162048547839082,0.0,0.0,0.0,0.0,0.0,0.0,0.0
2.2299990566010206,-0.18333500699476793,0.5442998912425331,3.289858299771836,2.0569059091088073,-0.146857216938711,0.5500723774789568,0.7162048547839082,0.0,0.0,0.0,0.0,0.0,0.0,0.0
2.2399990523705324,-0.18333500699476793,0.5442998912425331,3.289858299771836,2.0569059091088073,-0.146857216938711,0.5500723774789568,0.7162048547839082,0.0,0.0,0.0,0.0,0.0,0.0,0.0
2.249999048140044,-0.18333500699476793,0.5442998912425331,3.289858299771836,2.0569059091088073,-0.146857216938711,0.5500723774789568,0.7162048547839082,0.0,0.0,0.0,0.0,0.0,0.0,0.0
2.2599990439095548,-0.18333500699476793,0.5442998912425331,3.289858299771836,2.0569059091088073,-0.146857216938711,0.5500723774789568,0.7162048547839082,0.0,0.0,0.0,0.0,0.0,0.0,0.0
2.269999039679066,-0.18333500699476793,0.5442998912425331,3.289858299771836,2.0569059091088073,-0.146857216938711,0.5500723774789568,0.7162048547839082,0.0,0.0,0.0,0.0,0.0,0.0,0.0
2.279999035448577,-0.18333500699476793,0.5442998912425331,3.289858299771836,2.0569059091088073,-0.146857216938711,0.5500723774789568,0.7162048547839082,0.0,0.0,0.0,0.0,0.0,0.0,0.0
2.289999031218089,-0.18333500699476793,0.5442998912425331,3.289858299771836,2.0569059091088073,-0.146857216938711,0.5500723774789568,0.7162048547839082,0.0,0.0,0.0,0.0,0.0,0.0,0.0
2.2999990269876,-0.18333500699476793,0.5442998912425331,3.289858299771836,2.0569059091088073,-0.146857216938711,0.5500723774789568,0.7162048547839082,0.0,0.0,0.0,0.0,0.0,0.0,0.0
2.309999022757111,-0.18333500699476793,0.5442998912425331,3.289858299771836,2.0569059091088073,-0.146857216938711,0.5500723774789568,0.7162048547839082,0.0,0.0,0.0,0.0,0.0,0.0,0.0
2.3199990185266226,-0.18333500699476793,0.5442998912425331,3.289858299771836,2.0569059091088073,-0.146857216938711,0.5500723774789568,0.7162048547839082,0.0,0.0,0.0,0.0,0.0,0.0,0.0
2.3299990142961335,-0.18333500699476793,0.5442998912425331,3.289858299771836,2.0569059091088073,-0.146857216938711,0.5500723774789568,0.7162048547839082,0.0,0.0,0.0,0.0,0.0,0.0,0.0
2.3399990100656454,-0.18333500699476793,0.5442998912425331,3.289858299771836,2.0569059091088073,-0.146857216938711,0.5500723774789568,0.7162048547839082,0.0,0.0,0.0,0.0,0.0,0.0,0.0
2.3499990058351568,-0.18333500699476793,0.5442998912425331,3.289858299771836,2.0569059091088073,-0.146857216938711,0.5500723774789568,0.7162048547839082,0.0,0.0,0.0,0.0,0.0,0.0,0.0
2.359999001604668,-0.18333500699476793,0.5442998912425331,3.289858299771836,2.0569059091088073,-0.146857216938711,0.5500723774789568,0.7162048547839082,0.0,0.0,0.0,0.0,0.0,0.0,0.0
2.369998997374179,-0.18333500699476793,0.5442998912425331,3.289858299771836,2.0569059091088073,-0.146857216938711,0.5500723774789568,0.7162048547839082,0.0,0.0,0.0,0.0,0.0,0.0,0.0
2.3799989931436905,-0.18333500699476793,0.5442998912425331,3.289858299771836,2.0569059091088073,-0.146857216938711,0.5500723774789568,0.7162048547839082,0.0,0.0,0.0,0.0,0.0,0.0,0.0
2.3899989889132014,-0.18333500699476793,0.5442998912425331,3.289858299771836,2.0569059091088073,-0.146857216938711,0.5500723774789568,0.7162048547839082,0.0,0.0,0.0,0.0,0.0,0.0,0.0
2.3999989846827128,-0.18333500699476793,0.5442998912425331,3.289858299771836,2.0569059091088073,-0.146857216938711,0.5500723774789568,0.7162048547839082,0.0,0.0,0.0,0.0,0.0,0.0,0.0
2.4099989804522246,-0.18333500699476793,0.5442998912425331,3.289858299771836,2.0569059091088073,-0.146857216938711,0.5500723774789568,0.7162048547839082,0.0,0.0,0.0,0.0,0.0,0.0,0.0
2.4199989762217355,-0.18333500699476793,0.5442998912425331,3.289858299771836,2.0569059091088073,-0.146857216938711,0.5500723774789568,0.7162048547839082,0.0,0.0,0.0,0.0,0.0,0.0,0.0
2.429998971991247,-0.18333500699476793,0.5442998912425331,3.289858299771836,2.0569059091088073,-0.146857216938711,0.5500723774789568,0.7162048547839082,0.0,0.0,0.0,0.0,0.0,0.0,0.0
2.4399989677607583,-0.18333500699476793,0.5442998912425331,3.289858299771836,2.0569059091088073,-0.146857216938711,0.5500723774789568,0.7162048547839082,0.0,0.0,0.0,0.0,0.0,0.0,0.0
2.4499989635302697,-0.18333500699476793,0.5442998912425331,3.289858299771836,2.0569059091088073,-0.146857216938711,0.5500723774789568,0.7162048547839082,0.0,0.0,0.0,0.0,0.0,0.0,0.0
2.4599989592997806,-0.18333500699476793,0.5442998912425331,3.289858299771836,2.0569059091088073,-0.146857216938711,0.5500723774789568,0.7162048547839082,0.0,0.0,0.0,0.0,0.0,0.0,0.0
2.4699989550692925,-0.18333500699476793,0.5442998912425331,3.289858299771836,2.0569059091088073,-0.146857216938711,0.5500723774789568,0.7162048547839082,0.0,0.0,0.0,0.0,0.0,0.0,0.0
2.4799989508388034,-0.18333500699476793,0.5442998912425331,3.289858299771836,2.0569059091088073,-0.146857216938711,0.5500723774789568,0.7162048547839082,0.0,0.0,0.0,0.0,0.0,0.0,0.0
2.489998946608315,-0.18333500699476793,0.5442998912425331,3.289858299771836,2.0569059091088073,-0.146857216938711,0.5500723774789568,0.7162048547839082,0.0,0.0,0.0,0.0,0.0,0.0,0.0
2.499998942377826,-0.18333500699476793,0.5442998912425331,3.289858299771836,2.0569059091088073,-0.146857216938711,0.5500723774789568,0.7162048547839082,0.0,0.0,0.0,0.0,0.0,0.0,0.0
2.509998938147337,-0.18333500699476793,0.5442998912425331,3.289858299771836,2.0569059091088073,-0.146857216938711,0.5500723774789568,0.7162048547839082,0.0,0.0,0.0,0.0,0.0,0.0,0.0
2.519998933916849,-0.18333500699476793,0.5442998912425331,3.289858299771836,2.0569059091088073,-0.146857216938711,0.5500723774789568,0.7162048547839082,0.0,0.0,0.0,0.0,0.0,0.0,0.0
2.5299989296863603,-0.18333500699476793,0.5442998912425331,3.289858299771836,2.0569059091088073,-0.146857216938711,0.5500723774789568,0.7162048547839082,0.0,0.0,0.0,0.0,0.0,0.0,0.0
2.5399989254558712,-0.18333500699476793,0.5442998912425331,3.289858299771836,2.0569059091088073,-0.146857216938711,0.5500723774789568,0.7162048547839082,0.0,0.0,0.0,0.0,0.0,0.0,0.0
2.549998921225382,-0.18333500699476793,0.5442998912425331,3.289858299771836,2.0569059091088073,-0.146857216938711,0.5500723774789568,0.7162048547839082,0.0,0.0,0.0,0.0,0.0,0.0,0.0
2.559998916994894,-0.18333500699476793,0.5442998912425331,3.289858299771836,2.0569059091088073,-0.146857216938711,0.5500723774789568,0.7162048547839082,0.0,0.0,0.0,0.0,0.0,0.0,0.0
2.5699989127644054,-0.18333500699476793,0.5442998912425331,3.289858299771836,2.0569059091088073,-0.146857216938711,0.5500723774789568,0.7162048547839082,0.0,0.0,0.0,0.0,0.0,0.0,0.0
2.579998908533917,-0.18333500699476793,0.5442998912425331,3.289858299771836,2.0569059091088073,-0.146857216938711,0.5500723774789568,0.7162048547839082,0.0,0.0,0.0,0.0,0.0,0.0,0.0
2.589998904303428,-0.18333500699476793,0.5442998912425331,3.289858299771836,2.0569059091088073,-0.146857216938711,0.5500723774789568,0.7162048547839082,0.0,0.0,0.0,0.0,0.0,0.0,0.0
2.599998900072939,-0.18333500699476793,0.5442998912425331,3.289858299771836,2.0569059091088073,-0.146857216938711,0.5500723774789568,0.7162048547839082,0.0,0.0,0.0,0.0,0.0,0.0,0.0
2.6099988958424505,-0.18333500699476793,0.5442998912425331,3.289858299771836,2.0569059091088073,-0.146857216938711,0.5500723774789568,0.7162048547839082,0.0,0.0,0.0,0.0,0.0,0.0,0.0
2.6199988916119614,-0.18333500699476793,0.5442998912425331,3.289858299771836,2.0569059091088073,-0.146857216938711,0.5500723774789568,0.7162048547839082,0.0,0.0,0.0,0.0,0.0,0.0,0.0
2.629998887381473,-0.18333500699476793,0.5442998912425331,3.289858299771836,2.0569059091088073,-0.146857216938711,0.5500723774789568,0.7162048547839082,0.0,0.0,0.0,0.0,0.0,0.0,0.0
2.6399988831509846,-0.18333500699476793,0.5442998912425331,3.289858299771836,2.0569059091088073,-0.146857216938711,0.5500723774789568,0.7162048547839082,0.0,0.0,0.0,0.0,0.0,0.0,0.0
2.6499988789204956,-0.18333500699476793,0.5442998912425331,3.289858299771836,2.0569059091088073,-0.146857216938711,0.5500723774789568,0.7162048547839082,0.0,0.0,0.0,0.0,0.0,0.0,0.0
2.659998874690007,-0.18333500699476793,0.5442998912425331,3.289858299771836,2.0569059091088073,-0.146857216938711,0.5500723774789568,0.7162048547839082,0.0,0.0,0.0,0.0,0.0,0.0,0.0
2.6699988704595183,-0.18333500699476793,0.5442998912425331,3.289858299771836,2.0569059091088073,-0.146857216938711,0.5500723774789568,0.7162048547839082,0.0,0.0,0.0,0.0,0.0,0.0,0.0
2.6799988662290297,-0.18333500699476793,0.5442998912425331,3.289858299771836,2.0569059091088073,-0.146857216938711,0.5500723774789568,0.7162048547839082,0.0,0.0,0.0,0.0,0.0,0.0,0.0
2.6899988619985407,-0.18333500699476793,0.5442998912425331,3.289858299771836,2.0569059091088073,-0.146857216938711,0.5500723774789568,0.7162048547839082,0.0,0.0,0.0,0.0,0.0,0.0,0.0
2.6999988577680525,-0.18333500699476793,0.5442998912425331,3.289858299771836,2.0569059091088073,-0.146857216938711,0.5500723774789568,0.7162048547839082,0.0,0.0,0.0,0.0,0.0,0.0,0.0
2.7099988535375634,-0.18333500699476793,0.5442998912425331,3.289858299771836,2.0569059091088073,-0.146857216938711,0.5500723774789568,0.7162048547839082,0.0,0.0,0.0,0.0,0.0,0.0,0.0
2.719998849307075,-0.18333500699476793,0.5442998912425331,3.289858299771836,2.0569059091088073,-0.146857216938711,0.5500723774789568,0.7162048547839082,0.0,0.0,0.0,0.0,0.0,0.0,0.0
2.729998845076586,-0.18333500699476793,0.5442998912425331,3.289858299771836,2.0569059091088073,-0.146857216938711,0.5500723774789568,0.7162048547839082,0.0,0.0,0.0,0.0,0.0,0.0,0.0
2.739998840846097,-0.18333500699476793,0.5442998912425331,3.289858299771836,2.0569059091088073,-0.146857216938711,0.5500723774789568,0.7162048547839082,0.0,0.0,0.0,0.0,0.0,0.0,0.0
2.749998836615609,-0.18333500699476793,0.5442998912425331,3.289858299771836,2.0569059091088073,-0.146857216938711,0.5500723774789568,0.7162048547839082,0.0,0.0,0.0,0.0,0.0,0.0,0.0
2.75999883238512,-0.18333500699476793,0.5442998912425331,3.289858299771836,2.0569059091088073,-0.146857216938711,0.5500723774789568,0.7162048547839082,0.0,0.0,0.0,0.0,0.0,0.0,0.0
2.7699988281546313,-0.18333500699476793,0.5442998912425331,3.289858299771836,2.0569059091088073,-0.146857216938711,0.5500723774789568,0.7162048547839082,0.0,0.0,0.0,0.0,0.0,0.0,0.0
2.779998823924142,-0.18333500699476793,0.5442998912425331,3.289858299771836,2.0569059091088073,-0.146857216938711,0.5500723774789568,0.7162048547839082,0.0,0.0,0.0,0.0,0.0,0.0,0.0
2.789998819693654,-0.18333500699476793,0.5442998912425331,3.289858299771836,2.0569059091088073,-0.146857216938711,0.5500723774789568,0.7162048547839082,0.0,0.0,0.0,0.0,0.0,0.0,0.0
2.799998815463165,-0.18333500699476793,0.5442998912425331,3.289858299771836,2.0569059091088073,-0.146857216938711,0.5500723774789568,0.7162048547839082,0.0,0.0,0.0,0.0,0.0,0.0,0.0
2.809998811232677,-0.18333500699476793,0.5442998912425331,3.289858299771836,2.0569059091088073,-0.146857216938711,0.5500723774789568,0.7162048547839082,0.0,0.0,0.0,0.0,0.0,0.0,0.0
2.819998807002188,-0.18333500699476793,0.5442998912425331,3.289858299771836,2.0569059091088073,-0.146857216938711,0.5500723774789568,0.7162048547839082,0.0,0.0,0.0,0.0,0.0,0.0,0.0
2.829998802771699,-0.18333500699476793,0.5442998912425331,3.289858299771836,2.0569059091088073,-0.146857216938711,0.5500723774789568,0.7162048547839082,0.0,0.0,0.0,0.0,0.0,0.0,0.0
2.8399987985412105,-0.18333500699476793,0.5442998912425331,3.289858299771836,2.0569059091088073,-0.146857216938711,0.5500723774789568,0.7162048547839082,0.0,0.0,0.0,0.0,0.0,0.0,0.0
2.8499987943107215,-0.18333500699476793,0.5442998912425331,3.289858299771836,2.0569059091088073,-0.146857216938711,0.5500723774789568,0.7162048547839082,0.0,0.0,0.0,0.0,0.0,0.0,0.0
2.859998790080233,-0.18333500699476793,0.5442998912425331,3.289858299771836,2.0569059091088073,-0.146857216938711,0.5500723774789568,0.7162048547839082,0.0,0.0,0.0,0.0,0.0,0.0,0.0
2.8699987858497447,-0.18333500699476793,0.5442998912425331,3.289858299771836,2.0569059091088073,-0.146857216938711,0.5500723774789568,0.7162048547839082,0.0,0.0,0.0,0.0,0.0,0.0,0.0
2.8799987816192556,-0.18333500699476793,0.5442998912425331,3.289858299771836,2.0569059091088073,-0.146857216938711,0.5500723774789568,0.7162048547839082,0.0,0.0,0.0,0.0,0.0,0.0,0.0
2.889998777388767,-0.18333500699476793,0.5442998912425331,3.289858299771836,2.0569059091088073,-0.146857216938711,0.5500723774789568,0.7162048547839082,0.0,0.0,0.0,0.0,0.0,0.0,0.0
2.8999987731582784,-0.18333500699476793,0.5442998912425331,3.289858299771836,2.0569059091088073,-0.146857216938711,0.5500723774789568,0.7162048547839082,0.0,0.0,0.0,0.0,0.0,0.0,0.0
2.9099987689277897,-0.18333500699476793,0.5442998912425331,3.289858299771836,2.0569059091088073,-0.146857216938711,0.5500723774789568,0.7162048547839082,0.0,0.0,0.0,0.0,0.0,0.0,0.0
2.9199987646973007,-0.18333500699476793,0.5442998912425331,3.289858299771836,2.0569059091088073,-0.146857216938711,0.5500723774789568,0.7162048547839082,0.0,0.0,0.0,0.0,0.0,0.0,0.0
2.929998760466812,-0.18333500699476793,0.5442998912425331,3.289858299771836,2.0569059091088073,-0.146857216938711,0.5500723774789568,0.7162048547839082,0.0,0.0,0.0,0.0,0.0,0.0,0.0
2.9399987562363235,-0.18333500699476793,0.5442998912425331,3.289858299771836,2.0569059091088073,-0.146857216938711,0.5500723774789568,0.7162048547839082,0.0,0.0,0.0,0.0,0.0,0.0,0.0
2.949998752005835,-0.18333500699476793,0.5442998912425331,3.289858299771836,2.0569059091088073,-0.146857216938711,0.5500723774789568,0.7162048547839082,0.0,0.0,0.0,0.0,0.0,0.0,0.0
2.959998747775346,-0.18333500699476793,0.5442998912425331,3.289858299771836,2.0569059091088073,-0.146857216938711,0.5500723774789568,0.7162048547839082,0.0,0.0,0.0,0.0,0.0,0.0,0.0
2.9699987435448576,-0.18333500699476793,0.5442998912425331,3.289858299771836,2.0569059091088073,-0.146857216938711,0.5500723774789568,0.7162048547839082,0.0,0.0,0.0,0.0,0.0,0.0,0.0
2.979998739314369,-0.18333500699476793,0.5442998912425331,3.289858299771836,2.0569059091088073,-0.146857216938711,0.5500723774789568,0.7162048547839082,0.0,0.0,0.0,0.0,0.0,0.0,0.0
2.98999873508388,-0.18333500699476793,0.5442998912425331,3.289858299771836,2.0569059091088073,-0.146857216938711,0.5500723774789568,0.7162048547839082,0.0,0.0,0.0,0.0,0.0,0.0,0.0
2.9999987308533917,-0.18333500699476793,0.5442998912425331,3.289858299771836,2.0569059091088073,-0.146857216938711,0.5500723774789568,0.7162048547839082,0.0,0.0,0.0,0.0,0.0,0.0,0.0
3.0099987266229022,-0.18333500699476793,0.5442998912425331,3.289858299771836,2.0569059091088073,-0.146857216938711,0.5500723774789568,0.7162048547839082,0.0,0.0,0.0,0.0,0.0,0.0,0.0
3.019998722392414,-0.18333500699476793,0.5442998912425331,3.289858299771836,2.0569059091088073,-0.146857216938711,0.5500723774789568,0.7162048547839082,0.0,0.0,0.0,0.0,0.0,0.0,0.0
3.029998718161925,-0.18333500699476793,0.5442998912425331,3.289858299771836,2.0569059091088073,-0.146857216938711,0.5500723774789568,0.7162048547839082,0.0,0.0,0.0,0.0,0.0,0.0,0.0
3.039998713931437,-0.18333500699476793,0.5442998912425331,3.289858299771836,2.0569059091088073,-0.146857216938711,0.5500723774789568,0.7162048547839082,0.0,0.0,0.0,0.0,0.0,0.0,0.0
3.049998709700948,-0.18333500699476793,0.5442998912425331,3.289858299771836,2.0569059091088073,-0.146857216938711,0.5500723774789568,0.7162048547839082,0.0,0.0,0.0,0.0,0.0,0.0,0.0
3.059998705470459,-0.18333500699476793,0.5442998912425331,3.289858299771836,2.0569059091088073,-0.146857216938711,0.5500723774789568,0.7162048547839082,0.0,0.0,0.0,0.0,0.0,0.0,0.0
3.0699987012399705,-0.18333500699476793,0.5442998912425331,3.289858299771836,2.0569059091088073,-0.146857216938711,0.5500723774789568,0.7162048547839082,0.0,0.0,0.0,0.0,0.0,0.0,0.0
3.0799986970094815,-0.18333500699476793,0.5442998912425331,3.289858299771836,2.0569059091088073,-0.146857216938711,0.5500723774789568,0.7162048547839082,0.0,0.0,0.0,0.0,0.0,0.0,0.0
3.0899986927789933,-0.18333500699476793,0.5442998912425331,3.289858299771836,2.0569059091088073,-0.146857216938711,0.5500723774789568,0.7162048547839082,0.0,0.0,0.0,0.0,0.0,0.0,0.0
3.0999986885485047,-0.18333500699476793,0.5442998912425331,3.289858299771836,2.0569059091088073,-0.146857216938711,0.5500723774789568,0.7162048547839082,0.0,0.0,0.0,0.0,0.0,0.0,0.0
3.109998684318016,-0.18333500699476793,0.5442998912425331,3.289858299771836,2.0569059091088073,-0.146857216938711,0.5500723774789568,0.7162048547839082,0.0,0.0,0.0,0.0,0.0,0.0,0.0
3.119998680087527,-0.18333500699476793,0.5442998912425331,3.289858299771836,2.0569059091088073,-0.146857216938711,0.5500723774789568,0.7162048547839082,0.0,0.0,0.0,0.0,0.0,0.0,0.0
3.1299986758570384,-0.18333500699476793,0.5442998912425331,3.289858299771836,2.0569059091088073,-0.146857216938711,0.5500723774789568,0.7162048547839082,0.0,0.0,0.0,0.0,0.0,0.0,0.0
3.1399986716265498,-0.18333500699476793,0.5442998912425331,3.289858299771836,2.0569059091088073,-0.146857216938711,0.5500723774789568,0.7162048547839082,0.0,0.0,0.0,0.0,0.0,0.0,0.0
3.1499986673960607,-0.18333500699476793,0.5442998912425331,3.289858299771836,2.0569059091088073,-0.146857216938711,0.5500723774789568,0.7162048547839082,0.0,0.0,0.0,0.0,0.0,0.0,0.0
3.159998663165572,-0.18333500699476793,0.5442998912425331,3.289858299771836,2.0569059091088073,-0.146857216938711,0.5500723774789568,0.7162048547839082,0.0,0.0,0.0,0.0,0.0,0.0,0.0
3.1699986589350835,-0.18333500699476793,0.5442998912425331,3.289858299771836,2.0569059091088073,-0.146857216938711,0.5500723774789568,0.7162048547839082,0.0,0.0,0.0,0.0,0.0,0.0,0.0
3.179998654704595,-0.18333500699476793,0.5442998912425331,3.289858299771836,2.0569059091088073,-0.146857216938711,0.5500723774789568,0.7162048547839082,0.0,0.0,0.0,0.0,0.0,0.0,0.0
3.1899986504741062,-0.18333500699476793,0.5442998912425331,3.289858299771836,2.0569059091088073,-0.146857216938711,0.5500723774789568,0.7162048547839082,0.0,0.0,0.0,0.0,0.0,0.0,0.0
3.1999986462436176,-0.18333500699476793,0.5442998912425331,3.289858299771836,2.0569059091088073,-0.146857216938711,0.5500723774789568,0.7162048547839082,0.0,0.0,0.0,0.0,0.0,0.0,0.0
3.209998642013129,-0.18333500699476793,0.5442998912425331,3.289858299771836,2.0569059091088073,-0.146857216938711,0.5500723774789568,0.7162048547839082,0.0,0.0,0.0,0.0,0.0,0.0,0.0
3.21999863778264,-0.18333500699476793,0.5442998912425331,3.289858299771836,2.0569059091088073,-0.146857216938711,0.5500723774789568,0.7162048547839082,0.0,0.0,0.0,0.0,0.0,0.0,0.0
3.2299986335521518,-0.18333500699476793,0.5442998912425331,3.289858299771836,2.0569059091088073,-0.146857216938711,0.5500723774789568,0.7162048547839082,0.0,0.0,0.0,0.0,0.0,0.0,0.0
3.2399986293216627,-0.18333500699476793,0.5442998912425331,3.289858299771836,2.0569059091088073,-0.146857216938711,0.5500723774789568,0.7162048547839082,0.0,0.0,0.0,0.0,0.0,0.0,0.0
3.249998625091174,-0.18333500699476793,0.5442998912425331,3.289858299771836,2.0569059091088073,-0.146857216938711,0.5500723774789568,0.7162048547839082,0.0,0.0,0.0,0.0,0.0,0.0,0.0
3.259998620860685,-0.18333500699476793,0.5442998912425331,3.289858299771836,2.0569059091088073,-0.146857216938711,0.5500723774789568,0.7162048547839082,0.0,0.0,0.0,0.0,0.0,0.0,0.0
3.269998616630197,-0.18333500699476793,0.5442998912425331,3.289858299771836,2.0569059091088073,-0.146857216938711,0.5500723774789568,0.7162048547839082,0.0,0.0,0.0,0.0,0.0,0.0,0.0
3.279998612399708,-0.18333500699476793,0.5442998912425331,3.289858299771836,2.0569059091088073,-0.146857216938711,0.5500723774789568,0.7162048547839082,0.0,0.0,0.0,0.0,0.0,0.0,0.0
3.289998608169219,-0.18333500699476793,0.5442998912425331,3.289858299771836,2.0569059091088073,-0.146857216938711,0.5500723774789568,0.7162048547839082,0.0,0.0,0.0,0.0,0.0,0.0,0.0
3.2999986039387306,-0.18333500699476793,0.5442998912425331,3.289858299771836,2.0569059091088073,-0.146857216938711,0.5500723774789568,0.7162048547839082,0.0,0.0,0.0,0.0,0.0,0.0,0.0
3.3099985997082415,-0.18333500699476793,0.5442998912425331,3.289858299771836,2.0569059091088073,-0.146857216938711,0.5500723774789568,0.7162048547839082,0.0,0.0,0.0,0.0,0.0,0.0,0.0
3.3199985954777533,-0.18333500699476793,0.5442998912425331,3.289858299771836,2.0569059091088073,-0.146857216938711,0.5500723774789568,0.7162048547839082,0.0,0.0,0.0,0.0,0.0,0.0,0.0
3.329998591247264,-0.18333500699476793,0.5442998912425331,3.289858299771836,2.0569059091088073,-0.146857216938711,0.5500723774789568,0.7162048547839082,0.0,0.0,0.0,0.0,0.0,0.0,0.0
3.339998587016776,-0.18333500699476793,0.5442998912425331,3.289858299771836,2.0569059091088073,-0.146857216938711,0.5500723774789568,0.7162048547839082,0.0,0.0,0.0,0.0,0.0,0.0,0.0
3.349998582786287,-0.18333500699476793,0.5442998912425331,3.289858299771836,2.0569059091088073,-0.146857216938711,0.5500723774789568,0.7162048547839082,0.0,0.0,0.0,0.0,0.0,0.0,0.0
3.3599985785557984,-0.18333500699476793,0.5442998912425331,3.289858299771836,2.0569059091088073,-0.146857216938711,0.5500723774789568,0.7162048547839082,0.0,0.0,0.0,0.0,0.0,0.0,0.0
3.36999857432531,-0.18333500699476793,0.5442998912425331,3.289858299771836,2.0569059091088073,-0.146857216938711,0.5500723774789568,0.7162048547839082,0.0,0.0,0.0,0.0,0.0,0.0,0.0
3.3799985700948207,-0.18333500699476793,0.5442998912425331,3.289858299771836,2.0569059091088073,-0.146857216938711,0.5500723774789568,0.7162048547839082,0.0,0.0,0.0,0.0,0.0,0.0,0.0
3.389998565864332,-0.18333500699476793,0.5442998912425331,3.289858299771836,2.0569059091088073,-0.146857216938711,0.5500723774789568,0.7162048547839082,0.0,0.0,0.0,0.0,0.0,0.0,0.0
3.3999985616338435,-0.18333500699476793,0.5442998912425331,3.289858299771836,2.0569059091088073,-0.146857216938711,0.5500723774789568,0.7162048547839082,0.0,0.0,0.0,0.0,0.0,0.0,0.0
3.409998557403355,-0.18333500699476793,0.5442998912425331,3.289858299771836,2.0569059091088073,-0.146857216938711,0.5500723774789568,0.7162048547839082,0.0,0.0,0.0,0.0,0.0,0.0,0.0
3.4199985531728663,-0.18333500699476793,0.5442998912425331,3.289858299771836,2.0569059091088073,-0.146857216938711,0.5500723774789568,0.7162048547839082,0.0,0.0,0.0,0.0,0.0,0.0,0.0
3.4299985489423777,-0.18333500699476793,0.5442998912425331,3.289858299771836,2.0569059091088073,-0.146857216938711,0.5500723774789568,0.7162048547839082,0.0,0.0,0.0,0.0,0.0,0.0,0.0
3.4399985447118886,-0.18333500699476793,0.5442998912425331,3.289858299771836,2.0569059091088073,-0.146857216938711,0.5500723774789568,0.7162048547839082,0.0,0.0,0.0,0.0,0.0,0.0,0.0
3.4499985404814,-0.18333500699476793,0.5442998912425331,3.289858299771836,2.0569059091088073,-0.146857216938711,0.5500723774789568,0.7162048547839082,0.0,0.0,0.0,0.0,0.0,0.0,0.0
3.459998536250912,-0.18333500699476793,0.5442998912425331,3.289858299771836,2.0569059091088073,-0.146857216938711,0.5500723774789568,0.7162048547839082,0.0,0.0,0.0,0.0,0.0,0.0,0.0
3.4699985320204227,-0.18333500699476793,0.5442998912425331,3.289858299771836,2.0569059091088073,-0.146857216938711,0.5500723774789568,0.7162048547839082,0.0,0.0,0.0,0.0,0.0,0.0,0.0
3.479998527789934,-0.18333500699476793,0.5442998912425331,3.289858299771836,2.0569059091088073,-0.146857216938711,0.5500723774789568,0.7162048547839082,0.0,0.0,0.0,0.0,0.0,0.0,0.0
3.489998523559445,-0.18333500699476793,0.5442998912425331,3.289858299771836,2.0569059091088073,-0.146857216938711,0.5500723774789568,0.7162048547839082,0.0,0.0,0.0,0.0,0.0,0.0,0.0
3.4999985193289564,-0.18333500699476793,0.5442998912425331,3.289858299771836,2.0569059091088073,-0.146857216938711,0.5500723774789568,0.7162048547839082,0.0,0.0,0.0,0.0,0.0,0.0,0.0
3.509998515098468,-0.18333500699476793,0.5442998912425331,3.289858299771836,2.0569059091088073,-0.146857216938711,0.5500723774789568,0.7162048547839082,0.0,0.0,0.0,0.0,0.0,0.0,0.0
3.519998510867979,-0.18333500699476793,0.5442998912425331,3.289858299771836,2.0569059091088073,-0.146857216938711,0.5500723774789568,0.7162048547839082,0.0,0.0,0.0,0.0,0.0,0.0,0.0
3.5299985066374906,-0.18333500699476793,0.5442998912425331,3.289858299771836,2.0569059091088073,-0.146857216938711,0.5500723774789568,0.7162048547839082,0.0,0.0,0.0,0.0,0.0,0.0,0.0
3.5399985024070015,-0.18333500699476793,0.5442998912425331,3.289858299771836,2.0569059091088073,-0.146857216938711,0.5500723774789568,0.7162048547839082,0.0,0.0,0.0,0.0,0.0,0.0,0.0
3.5499984981765134,-0.18333500699476793,0.5442998912425331,3.289858299771836,2.0569059091088073,-0.146857216938711,0.5500723774789568,0.7162048547839082,0.0,0.0,0.0,0.0,0.0,0.0,0.0
3.5599984939460243,-0.18333500699476793,0.5442998912425331,3.289858299771836,2.0569059091088073,-0.146857216938711,0.5500723774789568,0.7162048547839082,0.0,0.0,0.0,0.0,0.0,0.0,0.0
3.569998489715536,-0.18333500699476793,0.5442998912425331,3.289858299771836,2.0569059091088073,-0.146857216938711,0.5500723774789568,0.7162048547839082,0.0,0.0,0.0,0.0,0.0,0.0,0.0
3.579998485485047,-0.18333500699476793,0.5442998912425331,3.289858299771836,2.0569059091088073,-0.146857216938711,0.5500723774789568,0.7162048547839082,0.0,0.0,0.0,0.0,0.0,0.0,0.0
3.5899984812545584,-0.18333500699476793,0.5442998912425331,3.289858299771836,2.0569059091088073,-0.146857216938711,0.5500723774789568,0.7162048547839082,0.0,0.0,0.0,0.0,0.0,0.0,0.0
3.5999984770240694,-0.18333500699476793,0.5442998912425331,3.289858299771836,2.0569059091088073,-0.146857216938711,0.5500723774789568,0.7162048547839082,0.0,0.0,0.0,0.0,0.0,0.0,0.0
3.6099984727935808,-0.18333500699476793,0.5442998912425331,3.289858299771836,2.0569059091088073,-0.146857216938711,0.5500723774789568,0.7162048547839082,0.0,0.0,0.0,0.0,0.0,0.0,0.0
3.619998468563092,-0.18333500699476793,0.5442998912425331,3.289858299771836,2.0569059091088073,-0.146857216938711,0.5500723774789568,0.7162048547839082,0.0,0.0,0.0,0.0,0.0,0.0,0.0
3.629998464332604,-0.18333500699476793,0.5442998912425331,3.289858299771836,2.0569059091088073,-0.146857216938711,0.5500723774789568,0.7162048547839082,0.0,0.0,0.0,0.0,0.0,0.0,0.0
3.6399984601021145,-0.18333500699476793,0.5442998912425331,3.289858299771836,2.0569059091088073,-0.146857216938711,0.5500723774789568,0.7162048547839082,0.0,0.0,0.0,0.0,0.0,0.0,0.0
3.6499984558716254,-0.18333500699476793,0.5442998912425331,3.289858299771836,2.0569059091088073,-0.146857216938711,0.5500723774789568,0.7162048547839082,0.0,0.0,0.0,0.0,0.0,0.0,0.0
3.6599984516411377,-0.18333500699476793,0.5442998912425331,3.289858299771836,2.0569059091088073,-0.146857216938711,0.5500723774789568,0.7162048547839082,0.0,0.0,0.0,0.0,0.0,0.0,0.0
3.6699984474106486,-0.18333500699476793,0.5442998912425331,3.289858299771836,2.0569059091088073,-0.146857216938711,0.5500723774789568,0.7162048547839082,0.0,0.0,0.0,0.0,0.0,0.0,0.0
3.67999844318016,-0.18333500699476793,0.5442998912425331,3.289858299771836,2.0569059091088073,-0.146857216938711,0.5500723774789568,0.7162048547839082,0.0,0.0,0.0,0.0,0.0,0.0,0.0
3.6899984389496714,-0.18333500699476793,0.5442998912425331,3.289858299771836,2.0569059091088073,-0.146857216938711,0.5500723774789568,0.7162048547839082,0.0,0.0,0.0,0.0,0.0,0.0,0.0
3.699998434719183,-0.18333500699476793,0.5442998912425331,3.289858299771836,2.0569059091088073,-0.146857216938711,0.5500723774789568,0.7162048547839082,0.0,0.0,0.0,0.0,0.0,0.0,0.0
3.7099984304886946,-0.18333500699476793,0.5442998912425331,3.289858299771836,2.0569059091088073,-0.146857216938711,0.5500723774789568,0.7162048547839082,0.0,0.0,0.0,0.0,0.0,0.0,0.0
3.7199984262582055,-0.18333500699476793,0.5442998912425331,3.289858299771836,2.0569059091088073,-0.146857216938711,0.5500723774789568,0.7162048547839082,0.0,0.0,0.0,0.0,0.0,0.0,0.0
3.729998422027717,-0.18333500699476793,0.5442998912425331,3.289858299771836,2.0569059091088073,-0.146857216938711,0.5500723774789568,0.7162048547839082,0.0,0.0,0.0,0.0,0.0,0.0,0.0
3.739998417797228,-0.18333500699476793,0.5442998912425331,3.289858299771836,2.0569059091088073,-0.146857216938711,0.5500723774789568,0.7162048547839082,0.0,0.0,0.0,0.0,0.0,0.0,0.0
3.7499984135667392,-0.18333500699476793,0.5442998912425331,3.289858299771836,2.0569059091088073,-0.146857216938711,0.5500723774789568,0.7162048547839082,0.0,0.0,0.0,0.0,0.0,0.0,0.0
3.75999840933625,-0.18333500699476793,0.5442998912425331,3.289858299771836,2.0569059091088073,-0.146857216938711,0.5500723774789568,0.7162048547839082,0.0,0.0,0.0,0.0,0.0,0.0,0.0
3.7699984051057616,-0.18333500699476793,0.5442998912425331,3.289858299771836,2.0569059091088073,-0.146857216938711,0.5500723774789568,0.7162048547839082,0.0,0.0,0.0,0.0,0.0,0.0,0.0
3.779998400875273,-0.18333500699476793,0.5442998912425331,3.289858299771836,2.0569059091088073,-0.146857216938711,0.5500723774789568,0.7162048547839082,0.0,0.0,0.0,0.0,0.0,0.0,0.0
3.789998396644784,-0.18333500699476793,0.5442998912425331,3.289858299771836,2.0569059091088073,-0.146857216938711,0.5500723774789568,0.7162048547839082,0.0,0.0,0.0,0.0,0.0,0.0,0.0
3.799998392414296,-0.18333500699476793,0.5442998912425331,3.289858299771836,2.0569059091088073,-0.146857216938711,0.5500723774789568,0.7162048547839082,0.0,0.0,0.0,0.0,0.0,0.0,0.0
3.809998388183807,-0.18333500699476793,0.5442998912425331,3.289858299771836,2.0569059091088073,-0.146857216938711,0.5500723774789568,0.7162048547839082,0.0,0.0,0.0,0.0,0.0,0.0,0.0
3.8199983839533185,-0.18333500699476793,0.5442998912425331,3.289858299771836,2.0569059091088073,-0.146857216938711,0.5500723774789568,0.7162048547839082,0.0,0.0,0.0,0.0,0.0,0.0,0.0
3.8299983797228294,-0.18333500699476793,0.5442998912425331,3.289858299771836,2.0569059091088073,-0.146857216938711,0.5500723774789568,0.7162048547839082,0.0,0.0,0.0,0.0,0.0,0.0,0.0
3.839998375492341,-0.18333500699476793,0.5442998912425331,3.289858299771836,2.0569059091088073,-0.146857216938711,0.5500723774789568,0.7162048547839082,0.0,0.0,0.0,0.0,0.0,0.0,0.0
3.849998371261852,-0.18333500699476793,0.5442998912425331,3.289858299771836,2.0569059091088073,-0.146857216938711,0.5500723774789568,0.7162048547839082,0.0,0.0,0.0,0.0,0.0,0.0,0.0
3.859998367031364,-0.18333500699476793,0.5442998912425331,3.289858299771836,2.0569059091088073,-0.146857216938711,0.5500723774789568,0.7162048547839082,0.0,0.0,0.0,0.0,0.0,0.0,0.0
3.8699983628008745,-0.18333500699476793,0.5442998912425331,3.289858299771836,2.0569059091088073,-0.146857216938711,0.5500723774789568,0.7162048547839082,0.0,0.0,0.0,0.0,0.0,0.0,0.0
3.8799983585703854,-0.18333500699476793,0.5442998912425331,3.289858299771836,2.0569059091088073,-0.146857216938711,0.5500723774789568,0.7162048547839082,0.0,0.0,0.0,0.0,0.0,0.0,0.0
3.8899983543398977,-0.18333500699476793,0.5442998912425331,3.289858299771836,2.0569059091088073,-0.146857216938711,0.5500723774789568,0.7162048547839082,0.0,0.0,0.0,0.0,0.0,0.0,0.0
3.8999983501094087,-0.18333500699476793,0.5442998912425331,3.289858299771836,2.0569059091088073,-0.146857216938711,0.5500723774789568,0.7162048547839082,0.0,0.0,0.0,0.0,0.0,0.0,0.0
3.90999834587892,-0.18333500699476793,0.5442998912425331,3.289858299771836,2.0569059091088073,-0.146857216938711,0.5500723774789568,0.7162048547839082,0.0,0.0,0.0,0.0,0.0,0.0,0.0
3.919998341648432,-0.18333500699476793,0.5442998912425331,3.289858299771836,2.0569059091088073,-0.146857216938711,0.5500723774789568,0.7162048547839082,0.0,0.0,0.0,0.0,0.0,0.0,0.0
3.9299983374179432,-0.18333500699476793,0.5442998912425331,3.289858299771836,2.0569059091088073,-0.146857216938711,0.5500723774789568,0.7162048547839082,0.0,0.0,0.0,0.0,0.0,0.0,0.0
3.939998333187454,-0.18333500699476793,0.5442998912425331,3.289858299771836,2.0569059091088073,-0.146857216938711,0.5500723774789568,0.7162048547839082,0.0,0.0,0.0,0.0,0.0,0.0,0.0
3.9499983289569656,-0.18333500699476793,0.5442998912425331,3.289858299771836,2.0569059091088073,-0.146857216938711,0.5500723774789568,0.7162048547839082,0.0,0.0,0.0,0.0,0.0,0.0,0.0
3.959998324726477,-0.18333500699476793,0.5442998912425331,3.289858299771836,2.0569059091088073,-0.146857216938711,0.5500723774789568,0.7162048547839082,0.0,0.0,0.0,0.0,0.0,0.0,0.0
3.969998320495988,-0.18333500699476793,0.5442998912425331,3.289858299771836,2.0569059091088073,-0.146857216938711,0.5500723774789568,0.7162048547839082,0.0,0.0,0.0,0.0,0.0,0.0,0.0
3.9799983162654993,-0.18333500699476793,0.5442998912425331,3.289858299771836,2.0569059091088073,-0.146857216938711,0.5500723774789568,0.7162048547839082,0.0,0.0,0.0,0.0,0.0,0.0,0.0
3.98999831203501,-0.18333500699476793,0.5442998912425331,3.289858299771836,2.0569059091088073,-0.146857216938711,0.5500723774789568,0.7162048547839082,0.0,0.0,0.0,0.0,0.0,0.0,0.0
3.9999983078045216,-0.18333500699476793,0.5442998912425331,3.289858299771836,2.0569059091088073,-0.146857216938711,0.5500723774789568,0.7162048547839082,0.0,0.0,0.0,0.0,0.0,0.0,0.0
4.009998303574033,-0.18333500699476793,0.5442998912425331,3.289858299771836,2.0569059091088073,-0.146857216938711,0.5500723774789568,0.7162048547839082,0.0,0.0,0.0,0.0,0.0,0.0,0.0
4.019998299343545,-0.18333500699476793,0.5442998912425331,3.289858299771836,2.0569059091088073,-0.146857216938711,0.5500723774789568,0.7162048547839082,0.0,0.0,0.0,0.0,0.0,0.0,0.0
4.029998295113056,-0.18333500699476793,0.5442998912425331,3.289858299771836,2.0569059091088073,-0.146857216938711,0.5500723774789568,0.7162048547839082,0.0,0.0,0.0,0.0,0.0,0.0,0.0
4.039998290882568,-0.18333500699476793,0.5442998912425331,3.289858299771836,2.0569059091088073,-0.146857216938711,0.5500723774789568,0.7162048547839082,0.0,0.0,0.0,0.0,0.0,0.0,0.0
4.049998286652079,-0.18333500699476793,0.5442998912425331,3.289858299771836,2.0569059091088073,-0.146857216938711,0.5500723774789568,0.7162048547839082,0.0,0.0,0.0,0.0,0.0,0.0,0.0
4.0599982824215886,-0.18333500699476793,0.5442998912425331,3.289858299771836,2.0569059091088073,-0.146857216938711,0.5500723774789568,0.7162048547839082,0.0,0.0,0.0,0.0,0.0,0.0,0.0
4.0699982781911,-0.18333500699476793,0.5442998912425331,3.289858299771836,2.0569059091088073,-0.146857216938711,0.5500723774789568,0.7162048547839082,0.0,0.0,0.0,0.0,0.0,0.0,0.0
4.079998273960612,-0.18333500699476793,0.5442998912425331,3.289858299771836,2.0569059091088073,-0.146857216938711,0.5500723774789568,0.7162048547839082,0.0,0.0,0.0,0.0,0.0,0.0,0.0
4.089998269730124,-0.18333500699476793,0.5442998912425331,3.289858299771836,2.0569059091088073,-0.146857216938711,0.5500723774789568,0.7162048547839082,0.0,0.0,0.0,0.0,0.0,0.0,0.0
4.099998265499634,-0.18333500699476793,0.5442998912425331,3.289858299771836,2.0569059091088073,-0.146857216938711,0.5500723774789568,0.7162048547839082,0.0,0.0,0.0,0.0,0.0,0.0,0.0
4.109998261269146,-0.18333500699476793,0.5442998912425331,3.289858299771836,2.0569059091088073,-0.146857216938711,0.5500723774789568,0.7162048547839082,0.0,0.0,0.0,0.0,0.0,0.0,0.0
4.119998257038658,-0.18333500699476793,0.5442998912425331,3.289858299771836,2.0569059091088073,-0.146857216938711,0.5500723774789568,0.7162048547839082,0.0,0.0,0.0,0.0,0.0,0.0,0.0
4.129998252808169,-0.18333500699476793,0.5442998912425331,3.289858299771836,2.0569059091088073,-0.146857216938711,0.5500723774789568,0.7162048547839082,0.0,0.0,0.0,0.0,0.0,0.0,0.0
4.1399982485776805,-0.18333500699476793,0.5442998912425331,3.289858299771836,2.0569059091088073,-0.146857216938711,0.5500723774789568,0.7162048547839082,0.0,0.0,0.0,0.0,0.0,0.0,0.0
4.149998244347192,-0.18333500699476793,0.5442998912425331,3.289858299771836,2.0569059091088073,-0.146857216938711,0.5500723774789568,0.7162048547839082,0.0,0.0,0.0,0.0,0.0,0.0,0.0
4.159998240116702,-0.18333500699476793,0.5442998912425331,3.289858299771836,2.0569059091088073,-0.146857216938711,0.5500723774789568,0.7162048547839082,0.0,0.0,0.0,0.0,0.0,0.0,0.0
4.169998235886214,-0.18333500699476793,0.5442998912425331,3.289858299771836,2.0569059091088073,-0.146857216938711,0.5500723774789568,0.7162048547839082,0.0,0.0,0.0,0.0,0.0,0.0,0.0
4.179998231655725,-0.18333500699476793,0.5442998912425331,3.289858299771836,2.0569059091088073,-0.146857216938711,0.5500723774789568,0.7162048547839082,0.0,0.0,0.0,0.0,0.0,0.0,0.0
4.189998227425237,-0.18333500699476793,0.5442998912425331,3.289858299771836,2.0569059091088073,-0.146857216938711,0.5500723774789568,0.7162048547839082,0.0,0.0,0.0,0.0,0.0,0.0,0.0
4.199998223194748,-0.18333500699476793,0.5442998912425331,3.289858299771836,2.0569059091088073,-0.146857216938711,0.5500723774789568,0.7162048547839082,0.0,0.0,0.0,0.0,0.0,0.0,0.0
4.209998218964258,-0.18333500699476793,0.5442998912425331,3.289858299771836,2.0569059091088073,-0.146857216938711,0.5500723774789568,0.7162048547839082,0.0,0.0,0.0,0.0,0.0,0.0,0.0
4.219998214733771,-0.18333500699476793,0.5442998912425331,3.289858299771836,2.0569059091088073,-0.146857216938711,0.5500723774789568,0.7162048547839082,0.0,0.0,0.0,0.0,0.0,0.0,0.0
4.229998210503282,-0.18333500699476793,0.5442998912425331,3.289858299771836,2.0569059091088073,-0.146857216938711,0.5500723774789568,0.7162048547839082,0.0,0.0,0.0,0.0,0.0,0.0,0.0
4.2399982062727934,-0.18333500699476793,0.5442998912425331,3.289858299771836,2.0569059091088073,-0.146857216938711,0.5500723774789568,0.7162048547839082,0.0,0.0,0.0,0.0,0.0,0.0,0.0
4.249998202042304,-0.18333500699476793,0.5442998912425331,3.289858299771836,2.0569059091088073,-0.146857216938711,0.5500723774789568,0.7162048547839082,0.0,0.0,0.0,0.0,0.0,0.0,0.0
4.259998197811816,-0.18333500699476793,0.5442998912425331,3.289858299771836,2.0569059091088073,-0.146857216938711,0.5500723774789568,0.7162048547839082,0.0,0.0,0.0,0.0,0.0,0.0,0.0
4.269998193581327,-0.18333500699476793,0.5442998912425331,3.289858299771836,2.0569059091088073,-0.146857216938711,0.5500723774789568,0.7162048547839082,0.0,0.0,0.0,0.0,0.0,0.0,0.0
4.279998189350838,-0.18333500699476793,0.5442998912425331,3.289858299771836,2.0569059091088073,-0.146857216938711,0.5500723774789568,0.7162048547839082,0.0,0.0,0.0,0.0,0.0,0.0,0.0
4.28999818512035,-0.18333500699476793,0.5442998912425331,3.289858299771836,2.0569059091088073,-0.146857216938711,0.5500723774789568,0.7162048547839082,0.0,0.0,0.0,0.0,0.0,0.0,0.0
4.299998180889861,-0.18333500699476793,0.5442998912425331,3.289858299771836,2.0569059091088073,-0.146857216938711,0.5500723774789568,0.7162048547839082,0.0,0.0,0.0,0.0,0.0,0.0,0.0
4.309998176659373,-0.18333500699476793,0.5442998912425331,3.289858299771836,2.0569059091088073,-0.146857216938711,0.5500723774789568,0.7162048547839082,0.0,0.0,0.0,0.0,0.0,0.0,0.0
4.319998172428884,-0.18333500699476793,0.5442998912425331,3.289858299771836,2.0569059091088073,-0.146857216938711,0.5500723774789568,0.7162048547839082,0.0,0.0,0.0,0.0,0.0,0.0,0.0
4.329998168198395,-0.18333500699476793,0.5442998912425331,3.289858299771836,2.0569059091088073,-0.146857216938711,0.5500723774789568,0.7162048547839082,0.0,0.0,0.0,0.0,0.0,0.0,0.0
4.3399981639679055,-0.18333500699476793,0.5442998912425331,3.289858299771836,2.0569059091088073,-0.146857216938711,0.5500723774789568,0.7162048547839082,0.0,0.0,0.0,0.0,0.0,0.0,0.0
4.349998159737416,-0.18333500699476793,0.5442998912425331,3.289858299771836,2.0569059091088073,-0.146857216938711,0.5500723774789568,0.7162048547839082,0.0,0.0,0.0,0.0,0.0,0.0,0.0
4.359998155506929,-0.18333500699476793,0.5442998912425331,3.289858299771836,2.0569059091088073,-0.146857216938711,0.5500723774789568,0.7162048547839082,0.0,0.0,0.0,0.0,0.0,0.0,0.0
4.36999815127644,-0.18333500699476793,0.5442998912425331,3.289858299771836,2.0569059091088073,-0.146857216938711,0.5500723774789568,0.7162048547839082,0.0,0.0,0.0,0.0,0.0,0.0,0.0
4.379998147045952,-0.18333500699476793,0.5442998912425331,3.289858299771836,2.0569059091088073,-0.146857216938711,0.5500723774789568,0.7162048547839082,0.0,0.0,0.0,0.0,0.0,0.0,0.0
4.389998142815463,-0.18333500699476793,0.5442998912425331,3.289858299771836,2.0569059091088073,-0.146857216938711,0.5500723774789568,0.7162048547839082,0.0,0.0,0.0,0.0,0.0,0.0,0.0
4.399998138584974,-0.18333500699476793,0.5442998912425331,3.289858299771836,2.0569059091088073,-0.146857216938711,0.5500723774789568,0.7162048547839082,0.0,0.0,0.0,0.0,0.0,0.0,0.0
4.409998134354486,-0.18333500699476793,0.5442998912425331,3.289858299771836,2.0569059091088073,-0.146857216938711,0.5500723774789568,0.7162048547839082,0.0,0.0,0.0,0.0,0.0,0.0,0.0
4.419998130123997,-0.18333500699476793,0.5442998912425331,3.289858299771836,2.0569059091088073,-0.146857216938711,0.5500723774789568,0.7162048547839082,0.0,0.0,0.0,0.0,0.0,0.0,0.0
4.429998125893508,-0.18333500699476793,0.5442998912425331,3.289858299771836,2.0569059091088073,-0.146857216938711,0.5500723774789568,0.7162048547839082,0.0,0.0,0.0,0.0,0.0,0.0,0.0
4.439998121663019,-0.18333500699476793,0.5442998912425331,3.289858299771836,2.0569059091088073,-0.146857216938711,0.5500723774789568,0.7162048547839082,0.0,0.0,0.0,0.0,0.0,0.0,0.0
4.449998117432529,-0.18333500699476793,0.5442998912425331,3.289858299771836,2.0569059091088073,-0.146857216938711,0.5500723774789568,0.7162048547839082,0.0,0.0,0.0,0.0,0.0,0.0,0.0
4.459998113202041,-0.18333500699476793,0.5442998912425331,3.289858299771836,2.0569059091088073,-0.146857216938711,0.5500723774789568,0.7162048547839082,0.0,0.0,0.0,0.0,0.0,0.0,0.0
4.469998108971553,-0.18333500699476793,0.5442998912425331,3.289858299771836,2.0569059091088073,-0.146857216938711,0.5500723774789568,0.7162048547839082,0.0,0.0,0.0,0.0,0.0,0.0,0.0
4.479998104741065,-0.18333500699476793,0.5442998912425331,3.289858299771836,2.0569059091088073,-0.146857216938711,0.5500723774789568,0.7162048547839082,0.0,0.0,0.0,0.0,0.0,0.0,0.0
4.489998100510576,-0.18333500699476793,0.5442998912425331,3.289858299771836,2.0569059091088073,-0.146857216938711,0.5500723774789568,0.7162048547839082,0.0,0.0,0.0,0.0,0.0,0.0,0.0
4.499998096280088,-0.18333500699476793,0.5442998912425331,3.289858299771836,2.0569059091088073,-0.146857216938711,0.5500723774789568,0.7162048547839082,0.0,0.0,0.0,0.0,0.0,0.0,0.0
4.5099980920495994,-0.18333500699476793,0.5442998912425331,3.289858299771836,2.0569059091088073,-0.146857216938711,0.5500723774789568,0.7162048547839082,0.0,0.0,0.0,0.0,0.0,0.0,0.0
4.5199980878191095,-0.18333500699476793,0.5442998912425331,3.289858299771836,2.0569059091088073,-0.146857216938711,0.5500723774789568,0.7162048547839082,0.0,0.0,0.0,0.0,0.0,0.0,0.0
4.52999808358862,-0.18333500699476793,0.5442998912425331,3.289858299771836,2.0569059091088073,-0.146857216938711,0.5500723774789568,0.7162048547839082,0.0,0.0,0.0,0.0,0.0,0.0,0.0
4.539998079358132,-0.18333500699476793,0.5442998912425331,3.289858299771836,2.0569059091088073,-0.146857216938711,0.5500723774789568,0.7162048547839082,0.0,0.0,0.0,0.0,0.0,0.0,0.0
4.549998075127644,-0.18333500699476793,0.5442998912425331,3.289858299771836,2.0569059091088073,-0.146857216938711,0.5500723774789568,0.7162048547839082,0.0,0.0,0.0,0.0,0.0,0.0,0.0
4.559998070897155,-0.18333500699476793,0.5442998912425331,3.289858299771836,2.0569059091088073,-0.146857216938711,0.5500723774789568,0.7162048547839082,0.0,0.0,0.0,0.0,0.0,0.0,0.0
4.569998066666666,-0.18333500699476793,0.5442998912425331,3.289858299771836,2.0569059091088073,-0.146857216938711,0.5500723774789568,0.7162048547839082,0.0,0.0,0.0,0.0,0.0,0.0,0.0
4.579998062436178,-0.18333500699476793,0.5442998912425331,3.289858299771836,2.0569059091088073,-0.146857216938711,0.5500723774789568,0.7162048547839082,0.0,0.0,0.0,0.0,0.0,0.0,0.0
4.589998058205689,-0.18333500699476793,0.5442998912425331,3.289858299771836,2.0569059091088073,-0.146857216938711,0.5500723774789568,0.7162048547839082,0.0,0.0,0.0,0.0,0.0,0.0,0.0
4.599998053975201,-0.18333500699476793,0.5442998912425331,3.289858299771836,2.0569059091088073,-0.146857216938711,0.5500723774789568,0.7162048547839082,0.0,0.0,0.0,0.0,0.0,0.0,0.0
4.609998049744712,-0.18333500699476793,0.5442998912425331,3.289858299771836,2.0569059091088073,-0.146857216938711,0.5500723774789568,0.7162048547839082,0.0,0.0,0.0,0.0,0.0,0.0,0.0
4.619998045514222,-0.18333500699476793,0.5442998912425331,3.289858299771836,2.0569059091088073,-0.146857216938711,0.5500723774789568,0.7162048547839082,0.0,0.0,0.0,0.0,0.0,0.0,0.0
4.629998041283734,-0.18333500699476793,0.5442998912425331,3.289858299771836,2.0569059091088073,-0.146857216938711,0.5500723774789568,0.7162048547839082,0.0,0.0,0.0,0.0,0.0,0.0,0.0
4.639998037053245,-0.18333500699476793,0.5442998912425331,3.289858299771836,2.0569059091088073,-0.146857216938711,0.5500723774789568,0.7162048547839082,0.0,0.0,0.0,0.0,0.0,0.0,0.0
4.649998032822757,-0.18333500699476793,0.5442998912425331,3.289858299771836,2.0569059091088073,-0.146857216938711,0.5500723774789568,0.7162048547839082,0.0,0.0,0.0,0.0,0.0,0.0,0.0
4.659998028592268,-0.18333500699476793,0.5442998912425331,3.289858299771836,2.0569059091088073,-0.146857216938711,0.5500723774789568,0.7162048547839082,0.0,0.0,0.0,0.0,0.0,0.0,0.0
4.669998024361778,-0.18333500699476793,0.5442998912425331,3.289858299771836,2.0569059091088073,-0.146857216938711,0.5500723774789568,0.7162048547839082,0.0,0.0,0.0,0.0,0.0,0.0,0.0
4.679998020131291,-0.18333500699476793,0.5442998912425331,3.289858299771836,2.0569059091088073,-0.146857216938711,0.5500723774789568,0.7162048547839082,0.0,0.0,0.0,0.0,0.0,0.0,0.0
4.689998015900802,-0.18333500699476793,0.5442998912425331,3.289858299771836,2.0569059091088073,-0.146857216938711,0.5500723774789568,0.7162048547839082,0.0,0.0,0.0,0.0,0.0,0.0,0.0
4.6999980116703135,-0.18333500699476793,0.5442998912425331,3.289858299771836,2.0569059091088073,-0.146857216938711,0.5500723774789568,0.7162048547839082,0.0,0.0,0.0,0.0,0.0,0.0,0.0
4.709998007439824,-0.18333500699476793,0.5442998912425331,3.289858299771836,2.0569059091088073,-0.146857216938711,0.5500723774789568,0.7162048547839082,0.0,0.0,0.0,0.0,0.0,0.0,0.0
4.719998003209336,-0.18333500699476793,0.5442998912425331,3.289858299771836,2.0569059091088073,-0.146857216938711,0.5500723774789568,0.7162048547839082,0.0,0.0,0.0,0.0,0.0,0.0,0.0
4.729997998978847,-0.18333500699476793,0.5442998912425331,3.289858299771836,2.0569059091088073,-0.146857216938711,0.5500723774789568,0.7162048547839082,0.0,0.0,0.0,0.0,0.0,0.0,0.0
4.739997994748358,-0.18333500699476793,0.5442998912425331,3.289858299771836,2.0569059091088073,-0.146857216938711,0.5500723774789568,0.7162048547839082,0.0,0.0,0.0,0.0,0.0,0.0,0.0
4.74999799051787,-0.18333500699476793,0.5442998912425331,3.289858299771836,2.0569059091088073,-0.146857216938711,0.5500723774789568,0.7162048547839082,0.0,0.0,0.0,0.0,0.0,0.0,0.0
4.759997986287381,-0.18333500699476793,0.5442998912425331,3.289858299771836,2.0569059091088073,-0.146857216938711,0.5500723774789568,0.7162048547839082,0.0,0.0,0.0,0.0,0.0,0.0,0.0
4.769997982056893,-0.18333500699476793,0.5442998912425331,3.289858299771836,2.0569059091088073,-0.146857216938711,0.5500723774789568,0.7162048547839082,0.0,0.0,0.0,0.0,0.0,0.0,0.0
4.779997977826404,-0.18333500699476793,0.5442998912425331,3.289858299771836,2.0569059091088073,-0.146857216938711,0.5500723774789568,0.7162048547839082,0.0,0.0,0.0,0.0,0.0,0.0,0.0
4.789997973595915,-0.18333500699476793,0.5442998912425331,3.289858299771836,2.0569059091088073,-0.146857216938711,0.5500723774789568,0.7162048547839082,0.0,0.0,0.0,0.0,0.0,0.0,0.0
4.7999979693654256,-0.18333500699476793,0.5442998912425331,3.289858299771836,2.0569059091088073,-0.146857216938711,0.5500723774789568,0.7162048547839082,0.0,0.0,0.0,0.0,0.0,0.0,0.0
4.8099979651349365,-0.18333500699476793,0.5442998912425331,3.289858299771836,2.0569059091088073,-0.146857216938711,0.5500723774789568,0.7162048547839082,0.0,0.0,0.0,0.0,0.0,0.0,0.0
4.819997960904449,-0.18333500699476793,0.5442998912425331,3.289858299771836,2.0569059091088073,-0.146857216938711,0.5500723774789568,0.7162048547839082,0.0,0.0,0.0,0.0,0.0,0.0,0.0
4.82999795667396,-0.18333500699476793,0.5442998912425331,3.289858299771836,2.0569059091088073,-0.146857216938711,0.5500723774789568,0.7162048547839082,0.0,0.0,0.0,0.0,0.0,0.0,0.0
4.839997952443471,-0.18333500699476793,0.5442998912425331,3.289858299771836,2.0569059091088073,-0.146857216938711,0.5500723774789568,0.7162048547839082,0.0,0.0,0.0,0.0,0.0,0.0,0.0
4.849997948212983,-0.18333500699476793,0.5442998912425331,3.289858299771836,2.0569059091088073,-0.146857216938711,0.5500723774789568,0.7162048547839082,0.0,0.0,0.0,0.0,0.0,0.0,0.0
4.859997943982494,-0.18333500699476793,0.5442998912425331,3.289858299771836,2.0569059091088073,-0.146857216938711,0.5500723774789568,0.7162048547839082,0.0,0.0,0.0,0.0,0.0,0.0,0.0
4.869997939752006,-0.18333500699476793,0.5442998912425331,3.289858299771836,2.0569059091088073,-0.146857216938711,0.5500723774789568,0.7162048547839082,0.0,0.0,0.0,0.0,0.0,0.0,0.0
4.879997935521517,-0.18333500699476793,0.5442998912425331,3.289858299771836,2.0569059091088073,-0.146857216938711,0.5500723774789568,0.7162048547839082,0.0,0.0,0.0,0.0,0.0,0.0,0.0
4.889997931291028,-0.18333500699476793,0.5442998912425331,3.289858299771836,2.0569059091088073,-0.146857216938711,0.5500723774789568,0.7162048547839082,0.0,0.0,0.0,0.0,0.0,0.0,0.0
4.899997927060539,-0.18333500699476793,0.5442998912425331,3.289858299771836,2.0569059091088073,-0.146857216938711,0.5500723774789568,0.7162048547839082,0.0,0.0,0.0,0.0,0.0,0.0,0.0
4.909997922830049,-0.18333500699476793,0.5442998912425331,3.289858299771836,2.0569059091088073,-0.146857216938711,0.5500723774789568,0.7162048547839082,0.0,0.0,0.0,0.0,0.0,0.0,0.0
4.919997918599561,-0.18333500699476793,0.5442998912425331,3.289858299771836,2.0569059091088073,-0.146857216938711,0.5500723774789568,0.7162048547839082,0.0,0.0,0.0,0.0,0.0,0.0,0.0
4.929997914369073,-0.18333500699476793,0.5442998912425331,3.289858299771836,2.0569059091088073,-0.146857216938711,0.5500723774789568,0.7162048547839082,0.0,0.0,0.0,0.0,0.0,0.0,0.0
4.939997910138585,-0.18333500699476793,0.5442998912425331,3.289858299771836,2.0569059091088073,-0.146857216938711,0.5500723774789568,0.7162048547839082,0.0,0.0,0.0,0.0,0.0,0.0,0.0
4.949997905908096,-0.18333500699476793,0.5442998912425331,3.289858299771836,2.0569059091088073,-0.146857216938711,0.5500723774789568,0.7162048547839082,0.0,0.0,0.0,0.0,0.0,0.0,0.0
4.959997901677607,-0.18333500699476793,0.5442998912425331,3.289858299771836,2.0569059091088073,-0.146857216938711,0.5500723774789568,0.7162048547839082,0.0,0.0,0.0,0.0,0.0,0.0,0.0
4.9699978974471195,-0.18333500699476793,0.5442998912425331,3.289858299771836,2.0569059091088073,-0.146857216938711,0.5500723774789568,0.7162048547839082,0.0,0.0,0.0,0.0,0.0,0.0,0.0
4.97999789321663,-0.18333500699476793,0.5442998912425331,3.289858299771836,2.0569059091088073,-0.146857216938711,0.5500723774789568,0.7162048547839082,0.0,0.0,0.0,0.0,0.0,0.0,0.0
4.9899978889861405,-0.18333500699476793,0.5442998912425331,3.289858299771836,2.0569059091088073,-0.146857216938711,0.5500723774789568,0.7162048547839082,0.0,0.0,0.0,0.0,0.0,0.0,0.0
4.999997884755652,-0.18333500699476793,0.5442998912425331,3.289858299771836,2.0569059091088073,-0.146857216938711,0.5500723774789568,0.7162048547839082,0.0,0.0,0.0,0.0,0.0,0.0,0.0
5.009997880525163,-0.18333500699476793,0.5442998912425331,3.289858299771836,2.0569059091088073,-0.146857216938711,0.5500723774789568,0.7162048547839082,0.0,0.0,0.0,0.0,0.0,0.0,0.0
5.019997876294675,-0.18333500699476793,0.5442998912425331,3.289858299771836,2.0569059091088073,-0.146857216938711,0.5500723774789568,0.7162048547839082,0.0,0.0,0.0,0.0,0.0,0.0,0.0
5.029997872064186,-0.18333500699476793,0.5442998912425331,3.289858299771836,2.0569059091088073,-0.146857216938711,0.5500723774789568,0.7162048547839082,0.0,0.0,0.0,0.0,0.0,0.0,0.0
5.039997867833698,-0.18333500699476793,0.5442998912425331,3.289858299771836,2.0569059091088073,-0.146857216938711,0.5500723774789568,0.7162048547839082,0.0,0.0,0.0,0.0,0.0,0.0,0.0
5.049997863603209,-0.18333500699476793,0.5442998912425331,3.289858299771836,2.0569059091088073,-0.146857216938711,0.5500723774789568,0.7162048547839082,0.0,0.0,0.0,0.0,0.0,0.0,0.0
5.059997859372721,-0.18333500699476793,0.5442998912425331,3.289858299771836,2.0569059091088073,-0.146857216938711,0.5500723774789568,0.7162048547839082,0.0,0.0,0.0,0.0,0.0,0.0,0.0
5.069997855142232,-0.18333500699476793,0.5442998912425331,3.289858299771836,2.0569059091088073,-0.146857216938711,0.5500723774789568,0.7162048547839082,0.0,0.0,0.0,0.0,0.0,0.0,0.0
5.0799978509117425,-0.18333500699476793,0.5442998912425331,3.289858299771836,2.0569059091088073,-0.146857216938711,0.5500723774789568,0.7162048547839082,0.0,0.0,0.0,0.0,0.0,0.0,0.0
5.089997846681254,-0.18333500699476793,0.5442998912425331,3.289858299771836,2.0569059091088073,-0.146857216938711,0.5500723774789568,0.7162048547839082,0.0,0.0,0.0,0.0,0.0,0.0,0.0
5.099997842450764,-0.18333500699476793,0.5442998912425331,3.289858299771836,2.0569059091088073,-0.146857216938711,0.5500723774789568,0.7162048547839082,0.0,0.0,0.0,0.0,0.0,0.0,0.0
5.109997838220277,-0.18333500699476793,0.5442998912425331,3.289858299771836,2.0569059091088073,-0.146857216938711,0.5500723774789568,0.7162048547839082,0.0,0.0,0.0,0.0,0.0,0.0,0.0
5.119997833989788,-0.18333500699476793,0.5442998912425331,3.289858299771836,2.0569059091088073,-0.146857216938711,0.5500723774789568,0.7162048547839082,0.0,0.0,0.0,0.0,0.0,0.0,0.0
5.129997829759298,-0.18333500699476793,0.5442998912425331,3.289858299771836,2.0569059091088073,-0.146857216938711,0.5500723774789568,0.7162048547839082,0.0,0.0,0.0,0.0,0.0,0.0,0.0
5.139997825528811,-0.18333500699476793,0.5442998912425331,3.289858299771836,2.0569059091088073,-0.146857216938711,0.5500723774789568,0.7162048547839082,0.0,0.0,0.0,0.0,0.0,0.0,0.0
5.149997821298322,-0.18333500699476793,0.5442998912425331,3.289858299771836,2.0569059091088073,-0.146857216938711,0.5500723774789568,0.7162048547839082,0.0,0.0,0.0,0.0,0.0,0.0,0.0
5.159997817067834,-0.18333500699476793,0.5442998912425331,3.289858299771836,2.0569059091088073,-0.146857216938711,0.5500723774789568,0.7162048547839082,0.0,0.0,0.0,0.0,0.0,0.0,0.0
5.169997812837344,-0.18333500699476793,0.5442998912425331,3.289858299771836,2.0569059091088073,-0.146857216938711,0.5500723774789568,0.7162048547839082,0.0,0.0,0.0,0.0,0.0,0.0,0.0
5.179997808606856,-0.18333500699476793,0.5442998912425331,3.289858299771836,2.0569059091088073,-0.146857216938711,0.5500723774789568,0.7162048547839082,0.0,0.0,0.0,0.0,0.0,0.0,0.0
5.189997804376367,-0.18333500699476793,0.5442998912425331,3.289858299771836,2.0569059091088073,-0.146857216938711,0.5500723774789568,0.7162048547839082,0.0,0.0,0.0,0.0,0.0,0.0,0.0
5.199997800145878,-0.18333500699476793,0.5442998912425331,3.289858299771836,2.0569059091088073,-0.146857216938711,0.5500723774789568,0.7162048547839082,0.0,0.0,0.0,0.0,0.0,0.0,0.0
5.20999779591539,-0.18333500699476793,0.5442998912425331,3.289858299771836,2.0569059091088073,-0.146857216938711,0.5500723774789568,0.7162048547839082,0.0,0.0,0.0,0.0,0.0,0.0,0.0
5.219997791684901,-0.18333500699476793,0.5442998912425331,3.289858299771836,2.0569059091088073,-0.146857216938711,0.5500723774789568,0.7162048547839082,0.0,0.0,0.0,0.0,0.0,0.0,0.0
5.229997787454413,-0.18333500699476793,0.5442998912425331,3.289858299771836,2.0569059091088073,-0.146857216938711,0.5500723774789568,0.7162048547839082,0.0,0.0,0.0,0.0,0.0,0.0,0.0
5.239997783223924,-0.18333500699476793,0.5442998912425331,3.289858299771836,2.0569059091088073,-0.146857216938711,0.5500723774789568,0.7162048547839082,0.0,0.0,0.0,0.0,0.0,0.0,0.0
5.249997778993435,-0.18333500699476793,0.5442998912425331,3.289858299771836,2.0569059091088073,-0.146857216938711,0.5500723774789568,0.7162048547839082,0.0,0.0,0.0,0.0,0.0,0.0,0.0
5.259997774762946,-0.18333500699476793,0.5442998912425331,3.289858299771836,2.0569059091088073,-0.146857216938711,0.5500723774789568,0.7162048547839082,0.0,0.0,0.0,0.0,0.0,0.0,0.0
5.269997770532457,-0.18333500699476793,0.5442998912425331,3.289858299771836,2.0569059091088073,-0.146857216938711,0.5500723774789568,0.7162048547839082,0.0,0.0,0.0,0.0,0.0,0.0,0.0
5.279997766301968,-0.18333500699476793,0.5442998912425331,3.289858299771836,2.0569059091088073,-0.146857216938711,0.5500723774789568,0.7162048547839082,0.0,0.0,0.0,0.0,0.0,0.0,0.0
5.28999776207148,-0.18333500699476793,0.5442998912425331,3.289858299771836,2.0569059091088073,-0.146857216938711,0.5500723774789568,0.7162048547839082,0.0,0.0,0.0,0.0,0.0,0.0,0.0
5.299997757840991,-0.18333500699476793,0.5442998912425331,3.289858299771836,2.0569059091088073,-0.146857216938711,0.5500723774789568,0.7162048547839082,0.0,0.0,0.0,0.0,0.0,0.0,0.0
5.309997753610503,-0.18333500699476793,0.5442998912425331,3.289858299771836,2.0569059091088073,-0.146857216938711,0.5500723774789568,0.7162048547839082,0.0,0.0,0.0,0.0,0.0,0.0,0.0
5.319997749380014,-0.18333500699476793,0.5442998912425331,3.289858299771836,2.0569059091088073,-0.146857216938711,0.5500723774789568,0.7162048547839082,0.0,0.0,0.0,0.0,0.0,0.0,0.0
5.329997745149526,-0.18333500699476793,0.5442998912425331,3.289858299771836,2.0569059091088073,-0.146857216938711,0.5500723774789568,0.7162048547839082,0.0,0.0,0.0,0.0,0.0,0.0,0.0
5.339997740919037,-0.18333500699476793,0.5442998912425331,3.289858299771836,2.0569059091088073,-0.146857216938711,0.5500723774789568,0.7162048547839082,0.0,0.0,0.0,0.0,0.0,0.0,0.0
5.349997736688548,-0.18333500699476793,0.5442998912425331,3.289858299771836,2.0569059091088073,-0.146857216938711,0.5500723774789568,0.7162048547839082,0.0,0.0,0.0,0.0,0.0,0.0,0.0
5.359997732458059,-0.18333500699476793,0.5442998912425331,3.289858299771836,2.0569059091088073,-0.146857216938711,0.5500723774789568,0.7162048547839082,0.0,0.0,0.0,0.0,0.0,0.0,0.0
5.3699977282275695,-0.18333500699476793,0.5442998912425331,3.289858299771836,2.0569059091088073,-0.146857216938711,0.5500723774789568,0.7162048547839082,0.0,0.0,0.0,0.0,0.0,0.0,0.0
5.379997723997081,-0.18333500699476793,0.5442998912425331,3.289858299771836,2.0569059091088073,-0.146857216938711,0.5500723774789568,0.7162048547839082,0.0,0.0,0.0,0.0,0.0,0.0,0.0
5.389997719766593,-0.18333500699476793,0.5442998912425331,3.289858299771836,2.0569059091088073,-0.146857216938711,0.5500723774789568,0.7162048547839082,0.0,0.0,0.0,0.0,0.0,0.0,0.0
5.399997715536105,-0.18333500699476793,0.5442998912425331,3.289858299771836,2.0569059091088073,-0.146857216938711,0.5500723774789568,0.7162048547839082,0.0,0.0,0.0,0.0,0.0,0.0,0.0
5.409997711305616,-0.18333500699476793,0.5442998912425331,3.289858299771836,2.0569059091088073,-0.146857216938711,0.5500723774789568,0.7162048547839082,0.0,0.0,0.0,0.0,0.0,0.0,0.0
5.419997707075127,-0.18333500699476793,0.5442998912425331,3.289858299771836,2.0569059091088073,-0.146857216938711,0.5500723774789568,0.7162048547839082,0.010477484381738953,0.016247568275192255,-0.0015285032022681068,-0.0002199818409473479,-0.0062494983277158285,-0.015712215730286052,-0.014481290523342705
5.42999770284464,-0.1831254573957829,0.5446248424705666,3.2898277297207232,2.0569015094738496,-0.14698220685238847,0.5497581332972917,0.7159152290959672,0.01047748438173942,0.016247568275192976,-0.0015285032022681747,-0.00021998184094735768,-0.006249498327716106,-0.015712215730286753,-0.014481290523343349
5.43999769861415,-0.1831254573957829,0.5446248424705666,3.2898277297207232,2.0569015094738496,-0.14698220685238847,0.5497581332972917,0.7159152290959672,0.0,0.0,0.0,0.0,0.0,0.0,0.0
5.4499976943836606,-0.1831254573957829,0.5446248424705666,3.2898277297207232,2.0569015094738496,-0.14698220685238847,0.5497581332972917,0.7159152290959672,0.0,0.0,0.0,0.0,0.0,0.0,0.0
5.459997690153172,-0.1831254573957829,0.5446248424705666,3.2898277297207232,2.0569015094738496,-0.14698220685238847,0.5497581332972917,0.7159152290959672,0.0,0.0,0.0,0.0,0.0,0.0,0.0
5.469997685922683,-0.1831254573957829,0.5446248424705666,3.2898277297207232,2.0569015094738496,-0.14698220685238847,0.5497581332972917,0.7159152290959672,0.0,0.0,0.0,0.0,0.0,0.0,0.0
