VaruniBuereddy/DMP-LfD-MPC/C_results/franka_joint_positions.csv
time,q1,q2,q3,q4,q5,q6,q7
0.007436,-0.000001,-0.780865,0.000000,-2.442008,-0.000010,1.571040,0.785398
0.009348,-0.000001,-0.780865,0.000000,-2.442008,-0.000010,1.571040,0.785398
0.011313,-0.000001,-0.780865,0.000000,-2.442008,-0.000010,1.571051,0.785398
0.013366,-0.000001,-0.780865,0.000000,-2.442008,-0.000010,1.571106,0.785398
0.015349,-0.000001,-0.780864,0.000000,-2.442008,-0.000010,1.571204,0.785398
0.017349,-0.000001,-0.780863,0.000000,-2.442008,-0.000010,1.571344,0.785398
0.019322,-0.000001,-0.780862,0.000000,-2.442008,-0.000010,1.571526,0.785398
0.021332,-0.000001,-0.780861,0.000000,-2.442008,-0.000010,1.571747,0.785398
0.023339,-0.000001,-0.780859,0.000000,-2.442008,-0.000010,1.572007,0.785398
0.025396,-0.000001,-0.780857,0.000000,-2.442008,-0.000010,1.572304,0.785398
0.027405,-0.000001,-0.780855,0.000000,-2.442008,-0.000010,1.572639,0.785398
0.029302,-0.000001,-0.780854,0.000000,-2.442008,-0.000010,1.572820,0.785398
0.031357,-0.000001,-0.780851,0.000000,-2.442008,-0.000010,1.573208,0.785398
0.033382,-0.000001,-0.780849,0.000000,-2.442008,-0.000010,1.573630,0.785398
0.035386,-0.000001,-0.780847,0.000000,-2.442008,-0.000010,1.574086,0.785398
0.037376,-0.000001,-0.780844,0.000000,-2.442008,-0.000010,1.574575,0.785398
0.039357,-0.000001,-0.780841,0.000000,-2.442008,-0.000010,1.575095,0.785398
0.041389,-0.000001,-0.780839,0.000000,-2.442008,-0.000010,1.575645,0.785398
0.043382,-0.000001,-0.780836,0.000000,-2.442008,-0.000010,1.576225,0.785398
0.045381,-0.000001,-0.780834,0.000000,-2.442008,-0.000010,1.576833,0.785398
0.047381,-0.000001,-0.780832,0.000000,-2.442008,-0.000010,1.577468,0.785398
0.049359,-0.000001,-0.780829,0.000000,-2.442008,-0.000010,1.578128,0.785398
0.051374,-0.000001,-0.780827,0.000000,-2.442008,-0.000010,1.578814,0.785398
0.053412,-0.000001,-0.780826,0.000000,-2.442008,-0.000010,1.579524,0.785398
0.055399,-0.000001,-0.780824,0.000000,-2.442008,-0.000010,1.580256,0.785398
0.057395,-0.000001,-0.780823,0.000000,-2.442008,-0.000010,1.581010,0.785398
0.059389,-0.000001,-0.780822,0.000000,-2.442008,-0.000010,1.581784,0.785398
0.061350,-0.000001,-0.780821,0.000000,-2.442008,-0.000010,1.582578,0.785398
0.063386,-0.000001,-0.780821,0.000000,-2.442008,-0.000010,1.583390,0.785398
0.065385,-0.000001,-0.780821,0.000000,-2.442008,-0.000010,1.584219,0.785398
0.067388,-0.000001,-0.780821,0.000000,-2.442008,-0.000010,1.585064,0.785398
0.069389,-0.000001,-0.780821,0.000000,-2.442007,-0.000010,1.585924,0.785398
0.071408,-0.000001,-0.780821,0.000000,-2.442007,-0.000010,1.586797,0.785398
0.073358,-0.000001,-0.780821,0.000000,-2.442006,-0.000010,1.587683,0.785398
0.075359,-0.000001,-0.780821,0.000000,-2.442004,-0.000010,1.588580,0.785398
0.077354,-0.000001,-0.780821,0.000000,-2.442002,-0.000010,1.589487,0.785398
0.079387,-0.000001,-0.780821,0.000000,-2.441999,-0.000010,1.590402,0.785398
0.081355,-0.000001,-0.780821,0.000000,-2.441996,-0.000010,1.591325,0.785398
0.083351,-0.000001,-0.780821,0.000000,-2.441991,-0.000010,1.592254,0.785398
0.085351,-0.000001,-0.780821,0.000000,-2.441986,-0.000010,1.593188,0.785398
0.087360,-0.000001,-0.780821,0.000000,-2.441979,-0.000010,1.594126,0.785398
0.089347,-0.000001,-0.780821,0.000000,-2.441971,-0.000010,1.595068,0.785398
0.091348,-0.000001,-0.780821,0.000000,-2.441962,-0.000010,1.596011,0.785398
0.093314,-0.000001,-0.780821,0.000000,-2.441952,-0.000010,1.596955,0.785398
0.095347,-0.000001,-0.780821,0.000000,-2.441941,-0.000010,1.597900,0.785398
0.097352,-0.000001,-0.780821,0.000000,-2.441927,-0.000010,1.598843,0.785398
0.099304,-0.000001,-0.780821,0.000000,-2.441913,-0.000010,1.599784,0.785398
0.101350,-0.000001,-0.780821,0.000000,-2.441897,-0.000010,1.600722,0.785398
0.103325,-0.000001,-0.780821,0.000000,-2.441879,-0.000010,1.601657,0.785398
0.105345,-0.000001,-0.780821,0.000000,-2.441859,-0.000010,1.602586,0.785398
0.107394,-0.000001,-0.780821,0.000000,-2.441837,-0.000010,1.603510,0.785398
0.109430,-0.000001,-0.780821,0.000000,-2.441814,-0.000010,1.604428,0.785398
0.111314,-0.000001,-0.780821,0.000000,-2.441788,-0.000010,1.605338,0.785398
0.113406,-0.000001,-0.780821,0.000000,-2.441761,-0.000010,1.606240,0.785398
0.115377,-0.000001,-0.780821,0.000000,-2.441731,-0.000010,1.607134,0.785398
0.117394,-0.000001,-0.780821,0.000000,-2.441700,-0.000010,1.608018,0.785398
0.119389,-0.000001,-0.780821,0.000000,-2.441683,-0.000010,1.608456,0.785398
0.121431,-0.000001,-0.780821,0.000000,-2.441629,-0.000010,1.609754,0.785398
0.123384,-0.000001,-0.780821,0.000000,-2.441591,-0.000010,1.610605,0.785398
0.125301,-0.000001,-0.780821,0.000000,-2.441571,-0.000010,1.611026,0.785398
0.127352,-0.000001,-0.780821,0.000000,-2.441529,-0.000010,1.611858,0.785398
0.129372,-0.000001,-0.780821,0.000000,-2.441484,-0.000010,1.612677,0.785398
0.131408,-0.000001,-0.780821,0.000000,-2.441437,-0.000010,1.613483,0.785398
0.133380,-0.000001,-0.780821,0.000000,-2.441387,-0.000010,1.614274,0.785398
0.135382,-0.000001,-0.780821,0.000000,-2.441335,-0.000010,1.615051,0.785398
0.137548,-0.000001,-0.780821,0.000000,-2.441280,-0.000010,1.615813,0.785398
0.139376,-0.000001,-0.780821,0.000000,-2.441222,-0.000010,1.616559,0.785398
0.141367,-0.000001,-0.780821,0.000000,-2.441162,-0.000010,1.617288,0.785398
0.143371,-0.000001,-0.780821,0.000000,-2.441099,-0.000010,1.618001,0.785398
0.145395,-0.000001,-0.780821,0.000000,-2.441033,-0.000010,1.618697,0.785398
0.147368,-0.000001,-0.780821,0.000000,-2.440965,-0.000010,1.619376,0.785398
0.149351,-0.000001,-0.780821,0.000000,-2.440893,-0.000010,1.620036,0.785398
0.151393,-0.000001,-0.780821,0.000000,-2.440819,-0.000010,1.620679,0.785398
0.153386,-0.000001,-0.780821,0.000000,-2.440741,-0.000010,1.621302,0.785398
0.155377,-0.000001,-0.780821,0.000000,-2.440661,-0.000010,1.621907,0.785398
0.157396,-0.000001,-0.780821,0.000000,-2.440578,-0.000010,1.622493,0.785398
0.159400,-0.000001,-0.780821,0.000000,-2.440492,-0.000010,1.623060,0.785398
0.161390,-0.000001,-0.780821,0.000000,-2.440403,-0.000010,1.623607,0.785398
0.163388,-0.000001,-0.780821,0.000000,-2.440311,-0.000010,1.624134,0.785398
0.165375,-0.000001,-0.780821,0.000000,-2.440215,-0.000010,1.624641,0.785398
0.167443,-0.000001,-0.780821,0.000000,-2.440117,-0.000010,1.625127,0.785398
0.169425,-0.000001,-0.780821,0.000000,-2.440016,-0.000010,1.625594,0.785398
0.171352,-0.000001,-0.780821,0.000000,-2.439912,-0.000010,1.626040,0.785398
0.173374,-0.000001,-0.780821,0.000000,-2.439804,-0.000010,1.626465,0.785398
0.175415,-0.000001,-0.780821,0.000000,-2.439694,-0.000010,1.626870,0.785398
0.177373,-0.000001,-0.780821,0.000000,-2.439580,-0.000010,1.627254,0.785398
0.179437,-0.000001,-0.780821,0.000000,-2.439464,-0.000010,1.627618,0.785398
0.181390,-0.000001,-0.780821,0.000000,-2.439344,-0.000010,1.627961,0.785398
0.183384,-0.000001,-0.780821,0.000000,-2.439222,-0.000010,1.628283,0.785398
0.185387,-0.000001,-0.780821,0.000000,-2.439096,-0.000010,1.628584,0.785398
0.187386,-0.000001,-0.780821,0.000000,-2.438967,-0.000010,1.628865,0.785398
0.189385,-0.000001,-0.780821,0.000000,-2.438836,-0.000010,1.629125,0.785398
0.191384,-0.000001,-0.780821,0.000000,-2.438701,-0.000010,1.629364,0.785398
0.193381,-0.000001,-0.780821,0.000000,-2.438563,-0.000010,1.629583,0.785398
0.195382,-0.000001,-0.780821,0.000000,-2.438422,-0.000010,1.629782,0.785398
0.197375,-0.000001,-0.780821,0.000000,-2.438279,-0.000010,1.629961,0.785398
0.199395,-0.000001,-0.780821,0.000000,-2.438132,-0.000010,1.630119,0.785398
0.201397,-0.000001,-0.780821,0.000000,-2.437982,-0.000010,1.630258,0.785398
0.203388,-0.000001,-0.780821,0.000000,-2.437830,-0.000010,1.630377,0.785398
0.205394,-0.000001,-0.780821,0.000000,-2.437674,-0.000010,1.630476,0.785398
0.207388,-0.000001,-0.780821,0.000000,-2.437516,-0.000010,1.630556,0.785398
0.209384,-0.000001,-0.780821,0.000000,-2.437355,-0.000010,1.630617,0.785398
0.211383,-0.000001,-0.780821,0.000000,-2.437191,-0.000010,1.630659,0.785398
0.213371,-0.000001,-0.780821,0.000000,-2.437024,-0.000010,1.630682,0.785398
0.215408,-0.000001,-0.780821,0.000000,-2.436855,-0.000010,1.630687,0.785398
0.217383,-0.000001,-0.780821,0.000000,-2.436685,-0.000010,1.630687,0.785398
0.219382,-0.000001,-0.780821,0.000000,-2.436514,-0.000010,1.630687,0.785398
0.221398,-0.000001,-0.780821,0.000000,-2.436342,-0.000010,1.630687,0.785398
0.223381,-0.000001,-0.780821,0.000000,-2.436170,-0.000010,1.630687,0.785398
0.225382,-0.000001,-0.780821,0.000000,-2.435998,-0.000010,1.630687,0.785398
0.227380,-0.000001,-0.780821,0.000000,-2.435826,-0.000010,1.630687,0.785398
0.229382,-0.000001,-0.780821,0.000000,-2.435653,-0.000010,1.630687,0.785398
0.231382,-0.000001,-0.780821,0.000000,-2.435480,-0.000010,1.630687,0.785398
0.233384,-0.000001,-0.780821,0.000000,-2.435306,-0.000010,1.630687,0.785398
0.235379,-0.000001,-0.780821,0.000000,-2.435132,-0.000010,1.630687,0.785398
0.237330,-0.000001,-0.780821,0.000000,-2.434958,-0.000010,1.630687,0.785398
0.239381,-0.000001,-0.780821,0.000000,-2.434783,-0.000010,1.630687,0.785398
0.241383,-0.000001,-0.780821,0.000000,-2.434608,-0.000010,1.630687,0.785398
0.243384,-0.000001,-0.780821,0.000000,-2.434433,-0.000010,1.630687,0.785398
0.245520,-0.000001,-0.780821,0.000000,-2.434258,-0.000010,1.630687,0.785398
0.247496,-0.000001,-0.780821,0.000000,-2.434082,-0.000010,1.630687,0.785398
0.249387,-0.000001,-0.780821,0.000000,-2.433906,-0.000010,1.630687,0.785398
0.251387,-0.000001,-0.780821,0.000000,-2.433730,-0.000010,1.630687,0.785398
0.253381,-0.000001,-0.780821,0.000000,-2.433554,-0.000010,1.630687,0.785398
0.255383,-0.000001,-0.780821,0.000000,-2.433377,-0.000010,1.630687,0.785398
0.257355,-0.000001,-0.780821,0.000000,-2.433201,-0.000010,1.630687,0.785398
0.259385,-0.000001,-0.780821,0.000000,-2.433024,-0.000010,1.630687,0.785398
0.261362,-0.000001,-0.780821,0.000000,-2.432847,-0.000010,1.630687,0.785398
0.263358,-0.000001,-0.780821,0.000000,-2.432669,-0.000010,1.630687,0.785398
0.265380,-0.000001,-0.780821,0.000000,-2.432492,-0.000010,1.630687,0.785398
0.267350,-0.000001,-0.780821,0.000000,-2.432315,-0.000010,1.630687,0.785398
0.269351,-0.000001,-0.780821,0.000000,-2.432137,-0.000010,1.630687,0.785398
0.271350,-0.000001,-0.780821,0.000000,-2.431959,-0.000010,1.630687,0.785398
0.273353,-0.000001,-0.780821,0.000000,-2.431782,-0.000010,1.630687,0.785398
0.275393,-0.000001,-0.780821,0.000000,-2.431604,-0.000010,1.630687,0.785398
0.277473,-0.000001,-0.780821,0.000000,-2.431426,-0.000010,1.630687,0.785398
0.279329,-0.000001,-0.780821,0.000000,-2.431248,-0.000010,1.630687,0.785398
0.281432,-0.000001,-0.780821,0.000000,-2.431070,-0.000010,1.630687,0.785398
0.283475,-0.000001,-0.780821,0.000000,-2.430892,-0.000010,1.630687,0.785398
0.285366,-0.000001,-0.780821,0.000000,-2.430803,-0.000010,1.630687,0.785398
0.287467,-0.000001,-0.780821,0.000000,-2.430625,-0.000010,1.630687,0.785398
0.289324,-0.000001,-0.780821,0.000000,-2.430447,-0.000010,1.630687,0.785398
0.291397,-0.000001,-0.780821,0.000000,-2.430180,-0.000010,1.630687,0.785398
0.293378,-0.000001,-0.780821,0.000000,-2.430091,-0.000010,1.630687,0.785398
0.295372,-0.000001,-0.780821,0.000000,-2.429913,-0.000010,1.630687,0.785398
0.297380,-0.000001,-0.780821,0.000000,-2.429735,-0.000010,1.630687,0.785398
0.299410,-0.000001,-0.780821,0.000000,-2.429557,-0.000010,1.630687,0.785398
0.301390,-0.000001,-0.780821,0.000000,-2.429379,-0.000010,1.630687,0.785398
0.303395,-0.000001,-0.780821,0.000000,-2.429201,-0.000010,1.630687,0.785398
0.305400,-0.000001,-0.780821,0.000000,-2.429024,-0.000010,1.630687,0.785398
0.307357,-0.000001,-0.780821,0.000000,-2.428846,-0.000010,1.630687,0.785398
0.309373,-0.000001,-0.780821,0.000000,-2.428669,-0.000010,1.630687,0.785398
0.311401,-0.000001,-0.780821,0.000000,-2.428491,-0.000010,1.630687,0.785398
0.313384,-0.000001,-0.780821,0.000000,-2.428314,-0.000010,1.630687,0.785398
0.315378,-0.000001,-0.780821,0.000000,-2.428137,-0.000010,1.630687,0.785398
0.317376,-0.000001,-0.780821,0.000000,-2.427960,-0.000010,1.630687,0.785398
0.319425,-0.000001,-0.780821,0.000000,-2.427783,-0.000010,1.630687,0.785398
0.321358,-0.000001,-0.780821,0.000000,-2.427607,-0.000010,1.630687,0.785398
0.323394,-0.000001,-0.780821,0.000000,-2.427430,-0.000010,1.630687,0.785398
0.325396,-0.000001,-0.780821,0.000000,-2.427254,-0.000010,1.630687,0.785398
0.327388,-0.000001,-0.780821,0.000000,-2.427078,-0.000010,1.630687,0.785398
0.329388,-0.000001,-0.780821,0.000000,-2.426902,-0.000010,1.630687,0.785398
0.331388,-0.000001,-0.780821,0.000000,-2.426727,-0.000010,1.630687,0.785398
0.333356,-0.000001,-0.780821,0.000000,-2.426551,-0.000010,1.630687,0.785398
0.335397,-0.000001,-0.780821,0.000000,-2.426376,-0.000010,1.630687,0.785398
0.337295,-0.000001,-0.780821,0.000000,-2.426201,-0.000010,1.630687,0.785398
0.339390,-0.000001,-0.780821,0.000000,-2.426027,-0.000010,1.630687,0.785398
0.341383,-0.000001,-0.780821,0.000000,-2.425853,-0.000010,1.630687,0.785398
0.343384,-0.000001,-0.780821,0.000000,-2.425679,-0.000010,1.630687,0.785398
0.345365,-0.000001,-0.780821,0.000000,-2.425505,-0.000010,1.630687,0.785398
0.347349,-0.000001,-0.780821,0.000000,-2.425331,-0.000010,1.630687,0.785398
0.349379,-0.000001,-0.780821,0.000000,-2.425158,-0.000010,1.630687,0.785398
0.351394,-0.000001,-0.780821,0.000000,-2.424986,-0.000010,1.630687,0.785398
0.353395,-0.000001,-0.780821,0.000000,-2.424813,-0.000010,1.630687,0.785398
0.355395,-0.000001,-0.780821,0.000000,-2.424641,-0.000010,1.630687,0.785398
0.357378,-0.000001,-0.780821,0.000000,-2.424469,-0.000010,1.630687,0.785398
0.359412,-0.000001,-0.780821,0.000000,-2.424298,-0.000010,1.630687,0.785398
0.361381,-0.000001,-0.780821,0.000000,-2.424127,-0.000010,1.630687,0.785398
0.363495,-0.000001,-0.780821,0.000000,-2.423956,-0.000010,1.630687,0.785398
0.365407,-0.000001,-0.780821,0.000000,-2.423786,-0.000010,1.630687,0.785398
0.367571,-0.000001,-0.780821,0.000000,-2.423616,-0.000010,1.630687,0.785398
0.369375,-0.000001,-0.780821,0.000000,-2.423447,-0.000010,1.630687,0.785398
0.371368,-0.000001,-0.780821,0.000000,-2.423278,-0.000010,1.630687,0.785398
0.373367,-0.000001,-0.780822,0.000000,-2.423110,-0.000010,1.630687,0.785398
0.375356,-0.000001,-0.780822,0.000000,-2.422942,-0.000010,1.630687,0.785398
0.377376,-0.000001,-0.780822,0.000000,-2.422774,-0.000010,1.630687,0.785398
0.379393,-0.000001,-0.780823,0.000000,-2.422607,-0.000010,1.630687,0.785398
0.381382,-0.000001,-0.780823,0.000000,-2.422441,-0.000010,1.630687,0.785398
0.383379,-0.000001,-0.780824,0.000000,-2.422275,-0.000010,1.630687,0.785398
0.385420,-0.000001,-0.780825,0.000000,-2.422109,-0.000010,1.630687,0.785398
0.387372,-0.000001,-0.780825,0.000000,-2.421945,-0.000010,1.630687,0.785398
0.389376,-0.000001,-0.780826,0.000000,-2.421780,-0.000010,1.630687,0.785398
0.391386,-0.000001,-0.780827,0.000000,-2.421616,-0.000010,1.630687,0.785398
0.393370,-0.000001,-0.780828,0.000000,-2.421453,-0.000010,1.630687,0.785398
0.395375,-0.000001,-0.780829,0.000000,-2.421290,-0.000010,1.630687,0.785398
0.397372,-0.000001,-0.780830,0.000000,-2.421128,-0.000010,1.630687,0.785398
0.399369,-0.000001,-0.780832,0.000000,-2.420967,-0.000010,1.630687,0.785398
0.401368,-0.000001,-0.780833,0.000000,-2.420806,-0.000010,1.630687,0.785398
0.403367,-0.000001,-0.780835,0.000000,-2.420646,-0.000010,1.630687,0.785398
0.405367,-0.000001,-0.780836,0.000000,-2.420486,-0.000010,1.630687,0.785398
0.407422,-0.000001,-0.780838,0.000000,-2.420328,-0.000010,1.630687,0.785398
0.409354,-0.000001,-0.780840,0.000000,-2.420169,-0.000010,1.630687,0.785398
0.411529,-0.000001,-0.780842,0.000000,-2.420012,-0.000010,1.630687,0.785398
0.413365,-0.000001,-0.780844,0.000000,-2.419855,-0.000010,1.630687,0.785398
0.415308,-0.000001,-0.780847,0.000000,-2.419699,-0.000010,1.630687,0.785398
0.417403,-0.000001,-0.780849,0.000000,-2.419543,-0.000010,1.630687,0.785398
0.419485,-0.000001,-0.780852,0.000000,-2.419388,-0.000010,1.630687,0.785398
0.421455,-0.000001,-0.780855,0.000000,-2.419234,-0.000010,1.630687,0.785398
0.423379,-0.000001,-0.780858,0.000000,-2.419081,-0.000010,1.630687,0.785398
0.425384,-0.000001,-0.780861,0.000000,-2.418928,-0.000010,1.630687,0.785398
0.427460,-0.000001,-0.780864,0.000000,-2.418776,-0.000010,1.630687,0.785398
0.429412,-0.000001,-0.780868,0.000000,-2.418625,-0.000010,1.630687,0.785398
0.431341,-0.000001,-0.780869,0.000000,-2.418550,-0.000010,1.630687,0.785398
0.433353,-0.000001,-0.780873,0.000000,-2.418400,-0.000010,1.630687,0.785398
0.435405,-0.000001,-0.780877,0.000000,-2.418251,-0.000010,1.630687,0.785398
0.437349,-0.000001,-0.780881,0.000000,-2.418102,-0.000010,1.630687,0.785398
0.439397,-0.000001,-0.780885,0.000000,-2.417955,-0.000010,1.630687,0.785398
0.441381,-0.000001,-0.780890,0.000000,-2.417808,-0.000010,1.630687,0.785398
0.443386,-0.000001,-0.780895,0.000000,-2.417662,-0.000010,1.630687,0.785398
0.445390,-0.000001,-0.780899,0.000000,-2.417517,-0.000010,1.630687,0.785398
0.447394,-0.000001,-0.780904,0.000000,-2.417372,-0.000010,1.630687,0.785398
0.449388,-0.000001,-0.780910,-0.000000,-2.417229,-0.000010,1.630687,0.785398
0.451364,-0.000001,-0.780915,-0.000000,-2.417086,-0.000010,1.630687,0.785398
0.453359,-0.000001,-0.780921,-0.000000,-2.416944,-0.000010,1.630687,0.785398
0.455390,-0.000001,-0.780927,-0.000000,-2.416803,-0.000010,1.630687,0.785398
0.457376,-0.000001,-0.780933,-0.000000,-2.416663,-0.000010,1.630687,0.785398
0.459375,-0.000001,-0.780939,-0.000000,-2.416524,-0.000010,1.630687,0.785398
0.461372,-0.000001,-0.780946,-0.000000,-2.416386,-0.000010,1.630687,0.785398
0.463370,-0.000001,-0.780953,-0.000000,-2.416248,-0.000010,1.630687,0.785398
0.465415,-0.000001,-0.780960,-0.000000,-2.416111,-0.000010,1.630687,0.785398
0.467412,-0.000001,-0.780967,-0.000000,-2.415976,-0.000010,1.630687,0.785398
0.469383,-0.000001,-0.780974,-0.000000,-2.415841,-0.000010,1.630687,0.785398
0.471361,-0.000001,-0.780982,-0.000000,-2.415707,-0.000010,1.630687,0.785398
0.473394,-0.000001,-0.780990,-0.000000,-2.415574,-0.000010,1.630687,0.785398
0.475385,-0.000001,-0.780998,-0.000000,-2.415442,-0.000010,1.630687,0.785398
0.477709,-0.000001,-0.781007,-0.000000,-2.415311,-0.000010,1.630687,0.785398
0.479373,-0.000001,-0.781015,-0.000000,-2.415181,-0.000010,1.630687,0.785398
0.481366,-0.000001,-0.781024,-0.000000,-2.415052,-0.000010,1.630687,0.785398
0.483397,-0.000001,-0.781034,-0.000000,-2.414924,-0.000010,1.630687,0.785398
0.485403,-0.000001,-0.781043,-0.000000,-2.414796,-0.000010,1.630687,0.785398
0.487387,-0.000001,-0.781053,-0.000000,-2.414670,-0.000010,1.630687,0.785398
0.489451,-0.000001,-0.781063,-0.000000,-2.414545,-0.000010,1.630687,0.785398
0.491395,-0.000001,-0.781073,-0.000000,-2.414420,-0.000010,1.630687,0.785398
0.493387,-0.000001,-0.781084,-0.000000,-2.414297,-0.000010,1.630687,0.785398
0.495381,-0.000001,-0.781095,-0.000000,-2.414175,-0.000010,1.630687,0.785398
0.497391,-0.000001,-0.781106,-0.000000,-2.414053,-0.000010,1.630687,0.785398
0.499393,-0.000001,-0.781117,-0.000000,-2.413933,-0.000010,1.630687,0.785398
0.501385,-0.000001,-0.781129,-0.000000,-2.413813,-0.000010,1.630687,0.785398
0.503384,-0.000001,-0.781141,-0.000000,-2.413695,-0.000010,1.630687,0.785398
0.505369,-0.000001,-0.781153,-0.000000,-2.413578,-0.000010,1.630687,0.785398
0.507539,-0.000001,-0.781166,-0.000000,-2.413461,-0.000010,1.630687,0.785398
0.509387,-0.000001,-0.781179,-0.000000,-2.413346,-0.000010,1.630687,0.785398
0.511386,-0.000001,-0.781192,-0.000000,-2.413232,-0.000010,1.630687,0.785398
0.513383,-0.000001,-0.781205,-0.000000,-2.413118,-0.000010,1.630687,0.785398
0.515386,-0.000001,-0.781219,-0.000000,-2.413006,-0.000010,1.630687,0.785398
0.517386,-0.000001,-0.781233,-0.000000,-2.412895,-0.000010,1.630687,0.785398
0.519385,-0.000001,-0.781247,-0.000000,-2.412785,-0.000010,1.630687,0.785398
0.521382,-0.000001,-0.781262,-0.000000,-2.412676,-0.000010,1.630687,0.785398
0.523387,-0.000001,-0.781277,-0.000000,-2.412568,-0.000010,1.630687,0.785398
0.525391,-0.000001,-0.781292,-0.000000,-2.412461,-0.000010,1.630687,0.785398
0.527382,-0.000001,-0.781308,-0.000000,-2.412355,-0.000010,1.630687,0.785398
0.529385,-0.000001,-0.781324,-0.000000,-2.412250,-0.000010,1.630687,0.785398
0.531385,-0.000001,-0.781340,-0.000000,-2.412146,-0.000010,1.630687,0.785398
0.533384,-0.000001,-0.781356,-0.000000,-2.412044,-0.000010,1.630687,0.785398
0.535376,-0.000001,-0.781373,-0.000000,-2.411942,-0.000010,1.630687,0.785398
0.537359,-0.000001,-0.781390,-0.000000,-2.411842,-0.000010,1.630687,0.785398
0.539380,-0.000001,-0.781408,-0.000000,-2.411742,-0.000010,1.630687,0.785398
0.541401,-0.000001,-0.781426,-0.000000,-2.411644,-0.000010,1.630687,0.785398
0.543393,-0.000001,-0.781444,-0.000000,-2.411547,-0.000010,1.630687,0.785398
0.545384,-0.000001,-0.781462,-0.000000,-2.411450,-0.000010,1.630687,0.785398
0.547379,-0.000001,-0.781481,-0.000000,-2.411355,-0.000010,1.630687,0.785398
0.549384,-0.000001,-0.781500,-0.000000,-2.411261,-0.000010,1.630687,0.785398
0.551349,-0.000001,-0.781520,-0.000000,-2.411169,-0.000010,1.630687,0.785398
0.553385,-0.000001,-0.781539,-0.000000,-2.411077,-0.000010,1.630687,0.785398
0.555381,-0.000001,-0.781560,-0.000000,-2.410986,-0.000010,1.630687,0.785398
0.557380,-0.000001,-0.781580,-0.000000,-2.410897,-0.000010,1.630687,0.785398
0.559382,-0.000001,-0.781601,-0.000000,-2.410808,-0.000010,1.630687,0.785398
0.561383,-0.000001,-0.781622,-0.000000,-2.410721,-0.000010,1.630687,0.785398
0.563382,-0.000001,-0.781643,-0.000000,-2.410635,-0.000010,1.630687,0.785398
0.565382,-0.000001,-0.781665,-0.000000,-2.410549,-0.000010,1.630687,0.785398
0.567383,-0.000001,-0.781687,-0.000000,-2.410465,-0.000010,1.630687,0.785398
0.569381,-0.000001,-0.781710,-0.000000,-2.410383,-0.000010,1.630687,0.785398
0.571385,-0.000001,-0.781733,-0.000000,-2.410301,-0.000010,1.630687,0.785398
0.573385,-0.000001,-0.781756,-0.000000,-2.410220,-0.000010,1.630687,0.785398
0.575354,-0.000001,-0.781779,-0.000000,-2.410141,-0.000010,1.630687,0.785398
0.577350,-0.000001,-0.781803,-0.000000,-2.410062,-0.000010,1.630687,0.785398
0.579386,-0.000001,-0.781827,-0.000000,-2.409985,-0.000010,1.630687,0.785398
0.581509,-0.000001,-0.781852,-0.000000,-2.409909,-0.000010,1.630687,0.785398
0.583374,-0.000001,-0.781877,-0.000000,-2.409834,-0.000010,1.630687,0.785398
0.585352,-0.000001,-0.781902,-0.000000,-2.409760,-0.000010,1.630687,0.785398
0.587357,-0.000001,-0.781928,-0.000000,-2.409687,-0.000010,1.630687,0.785398
0.589390,-0.000001,-0.781954,-0.000000,-2.409616,-0.000010,1.630687,0.785398
0.591350,-0.000001,-0.781980,-0.000000,-2.409545,-0.000010,1.630687,0.785398
0.593374,-0.000001,-0.782007,-0.000000,-2.409476,-0.000010,1.630687,0.785398
0.595380,-0.000001,-0.782034,-0.000000,-2.409408,-0.000010,1.630687,0.785398
0.597488,-0.000001,-0.782061,-0.000000,-2.409341,-0.000010,1.630687,0.785398
0.599396,-0.000001,-0.782089,-0.000000,-2.409275,-0.000010,1.630687,0.785398
0.601391,-0.000001,-0.782117,-0.000000,-2.409210,-0.000010,1.630687,0.785398
0.603385,-0.000001,-0.782145,-0.000000,-2.409146,-0.000010,1.630687,0.785398
0.605384,-0.000001,-0.782174,-0.000000,-2.409084,-0.000010,1.630687,0.785398
0.607382,-0.000001,-0.782203,-0.000000,-2.409022,-0.000010,1.630687,0.785398
0.609382,-0.000001,-0.782232,-0.000000,-2.408962,-0.000010,1.630687,0.785398
0.611384,-0.000001,-0.782262,-0.000000,-2.408903,-0.000010,1.630687,0.785398
0.613383,-0.000001,-0.782292,-0.000000,-2.408845,-0.000010,1.630687,0.785398
0.615383,-0.000001,-0.782323,-0.000000,-2.408788,-0.000010,1.630687,0.785398
0.617380,-0.000001,-0.782354,-0.000000,-2.408732,-0.000010,1.630687,0.785398
0.619421,-0.000001,-0.782385,-0.000000,-2.408677,-0.000010,1.630687,0.785398
0.621403,-0.000001,-0.782416,-0.000000,-2.408624,-0.000010,1.630687,0.785398
0.623395,-0.000001,-0.782448,-0.000000,-2.408571,-0.000010,1.630687,0.785398
0.625387,-0.000001,-0.782481,-0.000000,-2.408520,-0.000010,1.630687,0.785398
0.627384,-0.000001,-0.782513,-0.000000,-2.408470,-0.000010,1.630687,0.785398
0.629387,-0.000001,-0.782546,-0.000000,-2.408421,-0.000010,1.630687,0.785398
0.631383,-0.000001,-0.782579,-0.000000,-2.408373,-0.000010,1.630687,0.785398
0.633357,-0.000001,-0.782613,-0.000000,-2.408326,-0.000010,1.630687,0.785398
0.635385,-0.000001,-0.782647,-0.000000,-2.408280,-0.000010,1.630687,0.785398
0.637347,-0.000001,-0.782682,-0.000000,-2.408236,-0.000010,1.630687,0.785398
0.639390,-0.000001,-0.782716,-0.000000,-2.408192,-0.000010,1.630687,0.785398
0.641370,-0.000001,-0.782751,-0.000000,-2.408150,-0.000010,1.630687,0.785398
0.643387,-0.000001,-0.782787,-0.000000,-2.408108,-0.000010,1.630687,0.785398
0.645386,-0.000001,-0.782823,-0.000000,-2.408068,-0.000010,1.630687,0.785398
0.647382,-0.000001,-0.782859,-0.000000,-2.408029,-0.000010,1.630687,0.785398
0.649383,-0.000001,-0.782895,-0.000000,-2.407991,-0.000010,1.630687,0.785398
0.651384,-0.000001,-0.782932,-0.000000,-2.407954,-0.000010,1.630687,0.785398
0.653376,-0.000001,-0.782969,-0.000000,-2.407919,-0.000010,1.630687,0.785398
0.655383,-0.000001,-0.783007,-0.000000,-2.407884,-0.000010,1.630687,0.785398
0.657384,-0.000001,-0.783044,-0.000000,-2.407850,-0.000010,1.630687,0.785398
0.659354,-0.000001,-0.783083,-0.000000,-2.407818,-0.000010,1.630687,0.785398
0.661383,-0.000001,-0.783121,-0.000000,-2.407786,-0.000010,1.630687,0.785398
0.663383,-0.000001,-0.783160,-0.000000,-2.407756,-0.000010,1.630687,0.785398
0.665384,-0.000001,-0.783199,-0.000000,-2.407727,-0.000010,1.630687,0.785398
0.667379,-0.000001,-0.783239,-0.000000,-2.407699,-0.000010,1.630687,0.785398
0.669354,-0.000001,-0.783279,-0.000000,-2.407672,-0.000010,1.630687,0.785398
0.671462,-0.000001,-0.783319,-0.000000,-2.407646,-0.000010,1.630687,0.785398
0.673385,-0.000001,-0.783359,-0.000000,-2.407621,-0.000010,1.630687,0.785398
0.675383,-0.000001,-0.783400,-0.000000,-2.407597,-0.000010,1.630687,0.785398
0.677381,-0.000001,-0.783441,-0.000000,-2.407574,-0.000010,1.630687,0.785398
0.679354,-0.000001,-0.783483,-0.000000,-2.407552,-0.000010,1.630687,0.785398
0.681381,-0.000001,-0.783525,-0.000000,-2.407531,-0.000010,1.630687,0.785398
0.683385,-0.000001,-0.783567,-0.000000,-2.407512,-0.000010,1.630687,0.785398
0.685375,-0.000001,-0.783610,-0.000000,-2.407493,-0.000010,1.630687,0.785398
0.687355,-0.000001,-0.783652,-0.000000,-2.407476,-0.000010,1.630687,0.785398
0.689408,-0.000001,-0.783696,-0.000000,-2.407459,-0.000010,1.630687,0.785398
0.691358,-0.000001,-0.783739,-0.000000,-2.407444,-0.000010,1.630687,0.785398
0.693478,-0.000001,-0.783783,-0.000000,-2.407429,-0.000010,1.630687,0.785398
0.695461,-0.000001,-0.783827,-0.000000,-2.407416,-0.000010,1.630687,0.785398
0.697338,-0.000001,-0.783849,-0.000000,-2.407409,-0.000010,1.630687,0.785398
0.699318,-0.000001,-0.783894,-0.000000,-2.407397,-0.000010,1.630687,0.785398
0.701322,-0.000001,-0.783939,-0.000000,-2.407386,-0.000010,1.630687,0.785398
0.703378,-0.000001,-0.783984,-0.000000,-2.407377,-0.000010,1.630687,0.785398
0.705395,-0.000001,-0.784030,-0.000000,-2.407368,-0.000010,1.630687,0.785398
0.707386,-0.000001,-0.784075,-0.000000,-2.407360,-0.000010,1.630687,0.785398
0.709387,-0.000001,-0.784122,-0.000000,-2.407353,-0.000010,1.630687,0.785398
0.711361,-0.000001,-0.784168,-0.000000,-2.407347,-0.000010,1.630687,0.785398
0.713384,-0.000001,-0.784215,-0.000000,-2.407342,-0.000010,1.630687,0.785398
0.715386,-0.000001,-0.784262,-0.000000,-2.407338,-0.000010,1.630687,0.785398
0.717381,-0.000001,-0.784309,-0.000000,-2.407336,-0.000010,1.630687,0.785398
0.719388,-0.000001,-0.784357,-0.000000,-2.407334,-0.000010,1.630687,0.785398
0.721382,-0.000001,-0.784405,-0.000000,-2.407333,-0.000010,1.630687,0.785398
0.723386,-0.000001,-0.784453,-0.000000,-2.407333,-0.000010,1.630687,0.785398
0.725381,-0.000001,-0.784502,-0.000000,-2.407333,-0.000010,1.630687,0.785398
0.727423,-0.000001,-0.784550,-0.000000,-2.407333,-0.000010,1.630687,0.785398
0.729420,-0.000001,-0.784597,-0.000000,-2.407333,-0.000010,1.630687,0.785398
0.731375,-0.000001,-0.784645,-0.000000,-2.407333,-0.000010,1.630687,0.785398
0.733387,-0.000001,-0.784693,-0.000000,-2.407333,-0.000010,1.630687,0.785398
0.735385,-0.000001,-0.784740,-0.000000,-2.407333,-0.000010,1.630687,0.785398
0.737296,-0.000001,-0.784787,-0.000000,-2.407333,-0.000010,1.630687,0.785398
0.739384,-0.000001,-0.784834,-0.000000,-2.407333,-0.000010,1.630687,0.785398
0.741393,-0.000001,-0.784881,-0.000000,-2.407333,-0.000010,1.630687,0.785398
0.743385,-0.000001,-0.784928,-0.000000,-2.407333,-0.000010,1.630687,0.785398
0.745390,-0.000001,-0.784975,-0.000000,-2.407333,-0.000010,1.630687,0.785398
0.747388,-0.000001,-0.785021,-0.000000,-2.407333,-0.000010,1.630687,0.785398
0.749351,-0.000001,-0.785068,-0.000000,-2.407333,-0.000010,1.630687,0.785398
0.751370,-0.000001,-0.785114,-0.000000,-2.407333,-0.000010,1.630687,0.785398
0.753368,-0.000001,-0.785160,-0.000000,-2.407333,-0.000010,1.630687,0.785398
0.755366,-0.000001,-0.785206,-0.000000,-2.407333,-0.000010,1.630687,0.785398
0.757442,-0.000001,-0.785252,-0.000000,-2.407333,-0.000010,1.630687,0.785398
0.759317,-0.000001,-0.785297,-0.000000,-2.407333,-0.000010,1.630687,0.785398
0.761412,-0.000001,-0.785343,-0.000000,-2.407333,-0.000010,1.630687,0.785398
0.763503,-0.000001,-0.785388,-0.000000,-2.407333,-0.000010,1.630687,0.785398
0.765406,-0.000001,-0.785433,-0.000000,-2.407333,-0.000010,1.630687,0.785398
0.767369,-0.000001,-0.785456,-0.000000,-2.407333,-0.000010,1.630687,0.785398
0.769401,-0.000001,-0.785501,-0.000000,-2.407333,-0.000010,1.630687,0.785398
0.771406,-0.000001,-0.785545,-0.000000,-2.407333,-0.000010,1.630687,0.785398
0.773405,-0.000001,-0.785590,-0.000000,-2.407333,-0.000010,1.630687,0.785398
0.775450,-0.000001,-0.785634,-0.000000,-2.407333,-0.000010,1.630687,0.785398
0.777388,-0.000001,-0.785679,-0.000000,-2.407333,-0.000010,1.630687,0.785398
0.779383,-0.000001,-0.785723,-0.000000,-2.407333,-0.000010,1.630687,0.785398
0.781348,-0.000001,-0.785767,-0.000000,-2.407333,-0.000010,1.630687,0.785398
0.783383,-0.000001,-0.785810,-0.000000,-2.407333,-0.000010,1.630687,0.785398
0.785381,-0.000001,-0.785854,-0.000000,-2.407333,-0.000010,1.630687,0.785398
0.787402,-0.000001,-0.785898,-0.000000,-2.407333,-0.000010,1.630687,0.785398
0.789414,-0.000001,-0.785941,-0.000000,-2.407333,-0.000010,1.630687,0.785398
0.791355,-0.000001,-0.785984,-0.000000,-2.407333,-0.000010,1.630687,0.785398
0.793353,-0.000001,-0.786027,-0.000000,-2.407333,-0.000010,1.630687,0.785398
0.795398,-0.000001,-0.786070,-0.000000,-2.407333,-0.000010,1.630687,0.785398
0.797358,-0.000001,-0.786112,-0.000000,-2.407333,-0.000010,1.630687,0.785398
0.799355,-0.000001,-0.786155,-0.000000,-2.407333,-0.000010,1.630687,0.785398
0.801364,-0.000001,-0.786197,-0.000000,-2.407333,-0.000010,1.630687,0.785398
0.803386,-0.000001,-0.786239,-0.000000,-2.407333,-0.000010,1.630687,0.785398
0.805352,-0.000001,-0.786281,-0.000000,-2.407333,-0.000010,1.630687,0.785398
0.807347,-0.000001,-0.786323,-0.000000,-2.407333,-0.000010,1.630687,0.785398
0.809347,-0.000001,-0.786365,-0.000000,-2.407333,-0.000010,1.630687,0.785398
0.811348,-0.000001,-0.786406,-0.000000,-2.407333,-0.000010,1.630687,0.785398
0.813346,-0.000001,-0.786447,-0.000000,-2.407333,-0.000010,1.630687,0.785398
0.815357,-0.000001,-0.786488,-0.000000,-2.407333,-0.000010,1.630687,0.785398
0.817350,-0.000001,-0.786529,-0.000000,-2.407333,-0.000010,1.630687,0.785398
0.819358,-0.000001,-0.786570,-0.000000,-2.407333,-0.000010,1.630687,0.785398
0.821312,-0.000001,-0.786611,-0.000000,-2.407333,-0.000010,1.630687,0.785398
0.823381,-0.000001,-0.786651,-0.000000,-2.407333,-0.000010,1.630687,0.785398
0.825313,-0.000001,-0.786691,-0.000000,-2.407333,-0.000010,1.630687,0.785398
0.827334,-0.000001,-0.786731,-0.000000,-2.407333,-0.000010,1.630687,0.785398
0.829358,-0.000001,-0.786771,-0.000000,-2.407333,-0.000010,1.630687,0.785398
0.831375,-0.000001,-0.786811,-0.000000,-2.407333,-0.000010,1.630687,0.785398
0.833389,-0.000001,-0.786831,-0.000000,-2.407333,-0.000010,1.630687,0.785398
0.835383,-0.000001,-0.786870,-0.000000,-2.407333,-0.000010,1.630687,0.785398
0.837315,-0.000001,-0.786910,-0.000000,-2.407333,-0.000010,1.630687,0.785398
0.839387,-0.000001,-0.786949,-0.000000,-2.407333,-0.000010,1.630687,0.785398
0.841370,-0.000001,-0.786988,-0.000000,-2.407333,-0.000010,1.630687,0.785398
0.843368,-0.000001,-0.787026,-0.000000,-2.407333,-0.000010,1.630687,0.785398
0.845395,-0.000001,-0.787065,-0.000000,-2.407333,-0.000010,1.630687,0.785398
0.847367,-0.000001,-0.787103,-0.000000,-2.407333,-0.000010,1.630687,0.785398
0.849427,-0.000001,-0.787141,-0.000000,-2.407333,-0.000010,1.630687,0.785398
0.851429,-0.000001,-0.787179,-0.000000,-2.407333,-0.000010,1.630687,0.785398
0.853369,-0.000001,-0.787217,-0.000000,-2.407333,-0.000010,1.630687,0.785398
0.855420,-0.000001,-0.787255,-0.000000,-2.407333,-0.000010,1.630687,0.785398
0.857408,-0.000001,-0.787292,-0.000000,-2.407333,-0.000010,1.630687,0.785398
0.859360,-0.000001,-0.787330,-0.000000,-2.407333,-0.000010,1.630687,0.785398
0.861384,-0.000001,-0.787367,-0.000000,-2.407333,-0.000010,1.630687,0.785398
0.863390,-0.000001,-0.787404,-0.000000,-2.407333,-0.000010,1.630687,0.785398
0.865387,-0.000001,-0.787441,-0.000000,-2.407333,-0.000010,1.630687,0.785398
0.867355,-0.000001,-0.787477,-0.000000,-2.407333,-0.000010,1.630687,0.785398
0.869409,-0.000001,-0.787514,-0.000000,-2.407333,-0.000010,1.630687,0.785398
0.871390,-0.000001,-0.787550,-0.000000,-2.407333,-0.000010,1.630687,0.785398
0.873428,-0.000001,-0.787586,-0.000000,-2.407333,-0.000010,1.630687,0.785398
0.875354,-0.000001,-0.787622,-0.000000,-2.407333,-0.000010,1.630687,0.785398
0.877383,-0.000001,-0.787657,-0.000000,-2.407333,-0.000010,1.630687,0.785398
0.879383,-0.000001,-0.787693,-0.000000,-2.407333,-0.000010,1.630687,0.785398
0.881384,-0.000001,-0.787728,-0.000000,-2.407333,-0.000010,1.630687,0.785398
0.883382,-0.000001,-0.787763,-0.000000,-2.407333,-0.000010,1.630687,0.785398
0.885349,-0.000001,-0.787798,-0.000000,-2.407333,-0.000010,1.630687,0.785398
0.887386,-0.000001,-0.787833,-0.000000,-2.407333,-0.000010,1.630687,0.785398
0.889388,-0.000001,-0.787867,-0.000000,-2.407333,-0.000010,1.630687,0.785398
0.891387,-0.000001,-0.787902,-0.000000,-2.407333,-0.000010,1.630687,0.785398
0.893390,-0.000001,-0.787936,-0.000000,-2.407333,-0.000010,1.630687,0.785398
0.895398,-0.000001,-0.787970,-0.000000,-2.407333,-0.000010,1.630687,0.785398
0.897395,-0.000001,-0.788004,-0.000000,-2.407333,-0.000010,1.630687,0.785398
0.899377,-0.000001,-0.788037,-0.000000,-2.407333,-0.000010,1.630687,0.785398
0.901367,-0.000001,-0.788071,-0.000000,-2.407333,-0.000010,1.630687,0.785398
0.903392,-0.000001,-0.788104,-0.000000,-2.407333,-0.000010,1.630687,0.785398
0.905352,-0.000001,-0.788137,-0.000000,-2.407333,-0.000010,1.630687,0.785398
0.907367,-0.000001,-0.788170,-0.000000,-2.407333,-0.000010,1.630687,0.785398
0.909358,-0.000001,-0.788203,-0.000000,-2.407333,-0.000010,1.630687,0.785398
0.911383,-0.000001,-0.788235,-0.000000,-2.407333,-0.000010,1.630687,0.785398
0.913386,-0.000001,-0.788268,-0.000000,-2.407333,-0.000010,1.630687,0.785398
0.915383,-0.000001,-0.788300,-0.000000,-2.407333,-0.000010,1.630687,0.785398
0.917363,-0.000001,-0.788332,-0.000000,-2.407333,-0.000010,1.630687,0.785398
0.919356,-0.000001,-0.788363,-0.000000,-2.407333,-0.000010,1.630687,0.785398
0.921349,-0.000001,-0.788395,-0.000000,-2.407333,-0.000010,1.630687,0.785398
0.923355,-0.000001,-0.788426,-0.000000,-2.407333,-0.000010,1.630687,0.785398
0.925352,-0.000001,-0.788457,-0.000000,-2.407333,-0.000010,1.630687,0.785398
0.927349,-0.000001,-0.788488,-0.000000,-2.407333,-0.000010,1.630687,0.785398
0.929359,-0.000001,-0.788519,-0.000000,-2.407333,-0.000010,1.630687,0.785398
0.931355,-0.000001,-0.788550,-0.000000,-2.407333,-0.000010,1.630687,0.785398
0.933321,-0.000001,-0.788580,-0.000000,-2.407333,-0.000010,1.630687,0.785398
0.935368,-0.000001,-0.788610,-0.000000,-2.407333,-0.000010,1.630687,0.785398
0.937443,-0.000001,-0.788625,-0.000000,-2.407333,-0.000010,1.630687,0.785398
0.939359,-0.000001,-0.788670,-0.000000,-2.407333,-0.000010,1.630687,0.785398
0.941368,-0.000001,-0.788700,-0.000000,-2.407333,-0.000010,1.630687,0.785398
0.943349,-0.000001,-0.788729,-0.000000,-2.407333,-0.000010,1.630687,0.785398
0.945372,-0.000001,-0.788758,-0.000000,-2.407333,-0.000010,1.630687,0.785398
0.947420,-0.000001,-0.788787,-0.000000,-2.407333,-0.000010,1.630687,0.785398
0.949404,-0.000001,-0.788802,-0.000000,-2.407333,-0.000010,1.630687,0.785398
0.951365,-0.000001,-0.788831,-0.000000,-2.407333,-0.000010,1.630687,0.785398
0.953375,-0.000001,-0.788859,-0.000000,-2.407333,-0.000010,1.630687,0.785398
0.955391,-0.000001,-0.788888,-0.000000,-2.407333,-0.000010,1.630687,0.785398
0.957405,-0.000001,-0.788916,-0.000000,-2.407333,-0.000010,1.630687,0.785398
0.959375,-0.000001,-0.788944,-0.000000,-2.407333,-0.000010,1.630687,0.785398
0.961400,-0.000001,-0.788972,-0.000000,-2.407333,-0.000010,1.630687,0.785398
0.963383,-0.000001,-0.788999,-0.000000,-2.407333,-0.000010,1.630687,0.785398
0.965430,-0.000001,-0.789027,-0.000000,-2.407333,-0.000010,1.630687,0.785398
0.967372,-0.000001,-0.789054,-0.000000,-2.407333,-0.000010,1.630687,0.785398
0.969443,-0.000001,-0.789081,-0.000000,-2.407333,-0.000010,1.630687,0.785398
0.971389,-0.000001,-0.789108,-0.000000,-2.407333,-0.000010,1.630687,0.785398
0.973373,-0.000001,-0.789134,-0.000000,-2.407333,-0.000010,1.630687,0.785398
0.975378,-0.000001,-0.789161,-0.000000,-2.407333,-0.000010,1.630687,0.785398
0.977359,-0.000001,-0.789187,-0.000000,-2.407333,-0.000010,1.630687,0.785398
0.979387,-0.000001,-0.789213,-0.000000,-2.407333,-0.000010,1.630687,0.785398
0.981384,-0.000001,-0.789239,-0.000000,-2.407333,-0.000010,1.630687,0.785398
0.983426,-0.000001,-0.789265,-0.000000,-2.407333,-0.000010,1.630687,0.785398
0.985388,-0.000001,-0.789290,-0.000000,-2.407333,-0.000010,1.630687,0.785398
0.987384,-0.000001,-0.789315,-0.000000,-2.407333,-0.000010,1.630687,0.785398
0.989354,-0.000001,-0.789340,-0.000000,-2.407333,-0.000010,1.630687,0.785398
0.991367,-0.000001,-0.789365,-0.000000,-2.407333,-0.000010,1.630687,0.785398
0.993379,-0.000001,-0.789390,-0.000000,-2.407333,-0.000010,1.630687,0.785398
0.995354,-0.000001,-0.789415,-0.000000,-2.407333,-0.000010,1.630687,0.785398
0.997385,-0.000001,-0.789439,-0.000000,-2.407333,-0.000010,1.630687,0.785398
0.999367,-0.000001,-0.789463,-0.000000,-2.407333,-0.000010,1.630687,0.785398
1.001393,-0.000001,-0.789487,-0.000000,-2.407333,-0.000010,1.630687,0.785398
1.003388,-0.000001,-0.789511,-0.000000,-2.407333,-0.000010,1.630687,0.785398
1.005529,-0.000001,-0.789534,-0.000000,-2.407333,-0.000010,1.630687,0.785398
1.007349,-0.000001,-0.789558,-0.000000,-2.407333,-0.000010,1.630687,0.785398
1.009421,-0.000001,-0.789581,-0.000000,-2.407333,-0.000010,1.630687,0.785398
1.011373,-0.000001,-0.789604,-0.000000,-2.407333,-0.000010,1.630687,0.785398
1.013435,-0.000001,-0.789626,-0.000000,-2.407333,-0.000010,1.630687,0.785398
1.015370,-0.000001,-0.789649,-0.000000,-2.407333,-0.000010,1.630687,0.785398
1.017350,-0.000001,-0.789671,-0.000000,-2.407333,-0.000010,1.630687,0.785398
1.019370,-0.000001,-0.789694,-0.000000,-2.407333,-0.000010,1.630687,0.785398
1.021349,-0.000001,-0.789716,-0.000000,-2.407333,-0.000010,1.630687,0.785398
1.023357,-0.000001,-0.789737,-0.000000,-2.407333,-0.000010,1.630687,0.785398
1.025365,-0.000001,-0.789759,-0.000000,-2.407333,-0.000010,1.630687,0.785398
1.027356,-0.000001,-0.789780,-0.000000,-2.407333,-0.000010,1.630687,0.785398
1.029393,-0.000001,-0.789802,-0.000000,-2.407333,-0.000010,1.630687,0.785398
1.031410,-0.000001,-0.789823,-0.000000,-2.407333,-0.000010,1.630687,0.785398
1.033348,-0.000001,-0.789843,-0.000000,-2.407333,-0.000010,1.630687,0.785398
1.035313,-0.000001,-0.789854,-0.000000,-2.407333,-0.000010,1.630687,0.785398
1.037460,-0.000001,-0.789874,-0.000000,-2.407333,-0.000010,1.630687,0.785398
1.039539,-0.000001,-0.789905,-0.000000,-2.407333,-0.000010,1.630687,0.785398
1.041488,-0.000001,-0.789925,-0.000000,-2.407333,-0.000010,1.630687,0.785398
1.043480,-0.000001,-0.789935,-0.000000,-2.407333,-0.000010,1.630687,0.785398
1.045366,-0.000001,-0.789954,-0.000000,-2.407333,-0.000010,1.630687,0.785398
1.047391,-0.000001,-0.789974,-0.000000,-2.407333,-0.000010,1.630687,0.785398
1.049388,-0.000001,-0.789993,-0.000000,-2.407333,-0.000010,1.630687,0.785398
1.051410,-0.000001,-0.790013,-0.000000,-2.407333,-0.000010,1.630687,0.785398
1.053383,-0.000001,-0.790032,-0.000000,-2.407333,-0.000010,1.630687,0.785398
1.055433,-0.000001,-0.790051,-0.000000,-2.407333,-0.000010,1.630687,0.785398
1.057394,-0.000001,-0.790069,-0.000000,-2.407333,-0.000010,1.630687,0.785398
1.059394,-0.000001,-0.790088,-0.000000,-2.407333,-0.000010,1.630687,0.785398
1.061446,-0.000001,-0.790106,-0.000000,-2.407333,-0.000010,1.630687,0.785398
1.063361,-0.000001,-0.790124,-0.000000,-2.407333,-0.000010,1.630687,0.785398
1.065396,-0.000001,-0.790142,-0.000000,-2.407333,-0.000010,1.630687,0.785398
1.067388,-0.000001,-0.790159,-0.000000,-2.407333,-0.000010,1.630687,0.785398
1.069352,-0.000001,-0.790177,-0.000000,-2.407333,-0.000010,1.630687,0.785398
1.071355,-0.000001,-0.790194,-0.000000,-2.407333,-0.000010,1.630687,0.785398
1.073352,-0.000001,-0.790211,-0.000000,-2.407333,-0.000010,1.630687,0.785398
1.075398,-0.000001,-0.790228,-0.000000,-2.407333,-0.000010,1.630687,0.785398
1.077382,-0.000001,-0.790245,-0.000000,-2.407333,-0.000010,1.630687,0.785398
1.079372,-0.000001,-0.790262,-0.000000,-2.407333,-0.000010,1.630687,0.785398
1.081385,-0.000001,-0.790278,-0.000000,-2.407333,-0.000010,1.630687,0.785398
1.083431,-0.000001,-0.790294,-0.000000,-2.407333,-0.000010,1.630687,0.785398
1.085412,-0.000001,-0.790310,-0.000000,-2.407333,-0.000010,1.630687,0.785398
1.087350,-0.000001,-0.790326,-0.000000,-2.407333,-0.000010,1.630687,0.785398
1.089353,-0.000001,-0.790342,-0.000000,-2.407333,-0.000010,1.630687,0.785398
1.091352,-0.000001,-0.790357,-0.000000,-2.407333,-0.000010,1.630687,0.785398
1.093305,-0.000001,-0.790372,-0.000000,-2.407333,-0.000010,1.630687,0.785398
1.095463,-0.000001,-0.790387,-0.000000,-2.407333,-0.000010,1.630687,0.785398
1.097448,-0.000001,-0.790402,-0.000000,-2.407333,-0.000010,1.630687,0.785398
1.099428,-0.000001,-0.790417,-0.000000,-2.407333,-0.000010,1.630687,0.785398
1.101383,-0.000001,-0.790424,-0.000000,-2.407333,-0.000010,1.630687,0.785398
1.103400,-0.000001,-0.790439,-0.000000,-2.407333,-0.000010,1.630687,0.785398
1.105375,-0.000001,-0.790453,-0.000000,-2.407333,-0.000010,1.630687,0.785398
1.107411,-0.000001,-0.790474,-0.000000,-2.407333,-0.000010,1.630687,0.785398
1.109328,-0.000001,-0.790481,-0.000000,-2.407333,-0.000010,1.630687,0.785398
1.111404,-0.000001,-0.790494,-0.000000,-2.407333,-0.000010,1.630687,0.785398
1.113386,-0.000001,-0.790508,-0.000000,-2.407333,-0.000010,1.630687,0.785398
1.115399,-0.000001,-0.790521,-0.000000,-2.407333,-0.000010,1.630687,0.785398
1.117402,-0.000001,-0.790534,-0.000000,-2.407333,-0.000010,1.630687,0.785398
1.119406,-0.000001,-0.790547,-0.000000,-2.407333,-0.000010,1.630687,0.785398
1.121385,-0.000001,-0.790560,-0.000000,-2.407333,-0.000010,1.630687,0.785398
1.123409,-0.000001,-0.790573,-0.000000,-2.407333,-0.000010,1.630687,0.785398
1.125356,-0.000001,-0.790585,-0.000000,-2.407333,-0.000010,1.630687,0.785398
1.127384,-0.000001,-0.790597,-0.000000,-2.407333,-0.000010,1.630687,0.785398
1.129350,-0.000001,-0.790609,-0.000000,-2.407333,-0.000010,1.630687,0.785398
1.131351,-0.000001,-0.790621,-0.000000,-2.407333,-0.000010,1.630687,0.785398
1.133350,-0.000001,-0.790633,-0.000000,-2.407333,-0.000010,1.630687,0.785398
1.135381,-0.000001,-0.790645,-0.000000,-2.407333,-0.000010,1.630687,0.785398
1.137454,-0.000001,-0.790656,-0.000000,-2.407333,-0.000010,1.630687,0.785398
1.139388,-0.000001,-0.790667,-0.000000,-2.407333,-0.000010,1.630687,0.785398
1.141385,-0.000001,-0.790678,-0.000000,-2.407333,-0.000010,1.630687,0.785398
1.143388,-0.000001,-0.790689,-0.000000,-2.407333,-0.000010,1.630687,0.785398
1.145382,-0.000001,-0.790700,-0.000000,-2.407333,-0.000010,1.630687,0.785398
1.147381,-0.000001,-0.790710,-0.000000,-2.407333,-0.000010,1.630687,0.785398
1.149393,-0.000001,-0.790720,-0.000000,-2.407333,-0.000010,1.630687,0.785398
1.151398,-0.000001,-0.790731,-0.000000,-2.407333,-0.000010,1.630687,0.785398
1.153408,-0.000001,-0.790741,-0.000000,-2.407333,-0.000010,1.630687,0.785398
1.155354,-0.000001,-0.790750,-0.000000,-2.407333,-0.000010,1.630687,0.785398
1.157390,-0.000001,-0.790760,-0.000000,-2.407333,-0.000010,1.630687,0.785398
1.159388,-0.000001,-0.790769,-0.000000,-2.407333,-0.000010,1.630687,0.785398
1.161349,-0.000001,-0.790779,-0.000000,-2.407333,-0.000010,1.630687,0.785398
1.163371,-0.000001,-0.790788,-0.000000,-2.407333,-0.000010,1.630687,0.785398
1.165386,-0.000001,-0.790797,-0.000000,-2.407333,-0.000010,1.630687,0.785398
1.167375,-0.000001,-0.790806,-0.000000,-2.407333,-0.000010,1.630687,0.785398
1.169369,-0.000001,-0.790814,-0.000000,-2.407333,-0.000010,1.630687,0.785398
1.171374,-0.000001,-0.790823,-0.000000,-2.407333,-0.000010,1.630687,0.785398
1.173369,-0.000001,-0.790831,-0.000000,-2.407333,-0.000010,1.630687,0.785398
1.175377,-0.000001,-0.790839,-0.000000,-2.407333,-0.000010,1.630687,0.785398
1.177374,-0.000001,-0.790847,-0.000000,-2.407333,-0.000010,1.630687,0.785398
1.179380,-0.000001,-0.790855,-0.000000,-2.407333,-0.000010,1.630687,0.785398
1.181373,-0.000001,-0.790863,-0.000000,-2.407333,-0.000010,1.630687,0.785398
1.183382,-0.000001,-0.790870,-0.000000,-2.407333,-0.000010,1.630687,0.785398
1.185364,-0.000001,-0.790877,-0.000000,-2.407333,-0.000010,1.630687,0.785398
1.187349,-0.000001,-0.790885,-0.000000,-2.407333,-0.000010,1.630687,0.785398
1.189352,-0.000001,-0.790892,-0.000000,-2.407333,-0.000010,1.630687,0.785398
1.191350,-0.000001,-0.790898,-0.000000,-2.407333,-0.000010,1.630687,0.785398
1.193396,-0.000001,-0.790905,-0.000000,-2.407333,-0.000010,1.630687,0.785398
1.195441,-0.000001,-0.790912,-0.000000,-2.407333,-0.000010,1.630687,0.785398
1.197331,-0.000001,-0.790918,-0.000000,-2.407333,-0.000010,1.630687,0.785398
1.199376,-0.000001,-0.790924,-0.000000,-2.407333,-0.000010,1.630687,0.785398
1.201392,-0.000001,-0.790930,-0.000000,-2.407333,-0.000010,1.630687,0.785398
1.203352,-0.000001,-0.790936,-0.000000,-2.407333,-0.000010,1.630687,0.785398
1.205351,-0.000001,-0.790942,-0.000000,-2.407333,-0.000010,1.630687,0.785398
1.207450,-0.000001,-0.790947,-0.000000,-2.407333,-0.000010,1.630687,0.785398
1.209367,-0.000001,-0.790950,-0.000000,-2.407333,-0.000010,1.630687,0.785398
1.211314,-0.000001,-0.790958,-0.000000,-2.407333,-0.000010,1.630687,0.785398
1.213365,-0.000001,-0.790963,-0.000000,-2.407333,-0.000010,1.630687,0.785398
1.215328,-0.000001,-0.790968,-0.000000,-2.407333,-0.000010,1.630687,0.785398
1.217549,-0.000001,-0.790973,-0.000000,-2.407333,-0.000010,1.630687,0.785398
1.219360,-0.000001,-0.790975,-0.000000,-2.407333,-0.000010,1.630687,0.785398
1.221389,-0.000001,-0.790980,-0.000000,-2.407333,-0.000010,1.630687,0.785398
1.223447,-0.000001,-0.790987,-0.000000,-2.407333,-0.000010,1.630687,0.785398
1.225330,-0.000001,-0.790989,-0.000000,-2.407333,-0.000010,1.630687,0.785398
1.227331,-0.000001,-0.790993,-0.000000,-2.407333,-0.000010,1.630687,0.785398
1.229339,-0.000001,-0.790997,-0.000000,-2.407333,-0.000010,1.630687,0.785398
1.231363,-0.000001,-0.791001,-0.000000,-2.407333,-0.000010,1.630687,0.785398
1.233366,-0.000001,-0.791005,-0.000000,-2.407333,-0.000010,1.630687,0.785398
1.235338,-0.000001,-0.791008,-0.000000,-2.407333,-0.000010,1.630687,0.785398
1.237358,-0.000001,-0.791012,-0.000000,-2.407333,-0.000010,1.630687,0.785398
1.239372,-0.000001,-0.791015,-0.000000,-2.407333,-0.000010,1.630687,0.785398
1.241412,-0.000001,-0.791018,-0.000000,-2.407333,-0.000010,1.630687,0.785398
1.243395,-0.000001,-0.791021,-0.000000,-2.407333,-0.000010,1.630687,0.785398
1.245394,-0.000001,-0.791024,-0.000000,-2.407333,-0.000010,1.630687,0.785398
1.247379,-0.000001,-0.791027,-0.000000,-2.407333,-0.000010,1.630687,0.785398
1.249395,-0.000001,-0.791029,-0.000000,-2.407333,-0.000010,1.630687,0.785398
1.251378,-0.000001,-0.791032,-0.000000,-2.407333,-0.000010,1.630687,0.785398
1.253426,-0.000001,-0.791034,-0.000000,-2.407333,-0.000010,1.630687,0.785398
1.255389,-0.000001,-0.791036,-0.000000,-2.407333,-0.000010,1.630687,0.785398
1.257386,-0.000001,-0.791038,-0.000000,-2.407333,-0.000010,1.630687,0.785398
1.259383,-0.000001,-0.791040,-0.000000,-2.407333,-0.000010,1.630687,0.785398
1.261379,-0.000001,-0.791042,-0.000000,-2.407333,-0.000010,1.630687,0.785398
1.263405,-0.000001,-0.791044,-0.000000,-2.407333,-0.000010,1.630687,0.785398
1.265381,-0.000001,-0.791045,-0.000000,-2.407333,-0.000010,1.630687,0.785398
1.267383,-0.000001,-0.791047,-0.000000,-2.407333,-0.000010,1.630687,0.785398
1.269392,-0.000001,-0.791048,-0.000000,-2.407333,-0.000010,1.630687,0.785398
1.271386,-0.000001,-0.791049,-0.000000,-2.407333,-0.000010,1.630687,0.785398
1.273395,-0.000001,-0.791050,-0.000000,-2.407333,-0.000010,1.630687,0.785398
1.275393,-0.000001,-0.791051,-0.000000,-2.407333,-0.000010,1.630687,0.785398
1.277397,-0.000001,-0.791051,-0.000000,-2.407333,-0.000010,1.630687,0.785398
1.279353,-0.000001,-0.791052,-0.000000,-2.407333,-0.000010,1.630687,0.785398
1.281383,-0.000001,-0.791053,-0.000000,-2.407333,-0.000010,1.630687,0.785398
1.283388,-0.000001,-0.791053,-0.000000,-2.407333,-0.000010,1.630687,0.785398
1.285382,-0.000001,-0.791053,-0.000000,-2.407333,-0.000010,1.630687,0.785398
1.287358,-0.000001,-0.791053,-0.000000,-2.407333,-0.000010,1.630687,0.785398
1.289382,-0.000001,-0.791053,-0.000000,-2.407333,-0.000010,1.630687,0.785398
1.291353,-0.000001,-0.791053,-0.000000,-2.407333,-0.000010,1.630687,0.785398
1.293385,-0.000001,-0.791053,-0.000000,-2.407333,-0.000010,1.630687,0.785398
1.295381,-0.000001,-0.791053,-0.000000,-2.407333,-0.000010,1.630687,0.785398
1.297348,-0.000001,-0.791053,-0.000000,-2.407333,-0.000010,1.630687,0.785398
1.299426,-0.000001,-0.791053,-0.000000,-2.407333,-0.000010,1.630687,0.785398
1.301389,-0.000001,-0.791053,-0.000000,-2.407333,-0.000010,1.630687,0.785398
1.303347,-0.000001,-0.791053,-0.000000,-2.407333,-0.000010,1.630687,0.785398
1.305381,-0.000001,-0.791053,-0.000000,-2.407333,-0.000010,1.630687,0.785398
1.307349,-0.000001,-0.791053,-0.000000,-2.407333,-0.000010,1.630687,0.785398
1.309369,-0.000001,-0.791053,-0.000000,-2.407333,-0.000010,1.630687,0.785398
1.311352,-0.000001,-0.791053,-0.000000,-2.407333,-0.000010,1.630687,0.785398
1.313337,-0.000001,-0.791053,-0.000000,-2.407333,-0.000010,1.630687,0.785398
1.315378,-0.000001,-0.791053,-0.000000,-2.407333,-0.000010,1.630687,0.785398
1.317350,-0.000001,-0.791053,-0.000000,-2.407333,-0.000010,1.630687,0.785398
1.319348,-0.000001,-0.791053,-0.000000,-2.407333,-0.000010,1.630687,0.785398
1.321352,-0.000001,-0.791053,-0.000000,-2.407333,-0.000010,1.630687,0.785398
1.323349,-0.000001,-0.791053,-0.000000,-2.407333,-0.000010,1.630687,0.785398
1.325409,-0.000001,-0.791053,-0.000000,-2.407333,-0.000010,1.630687,0.785398
1.327350,-0.000001,-0.791053,-0.000000,-2.407333,-0.000010,1.630687,0.785398
1.329349,-0.000001,-0.791053,-0.000000,-2.407333,-0.000010,1.630687,0.785398
1.331350,-0.000001,-0.791053,-0.000000,-2.407333,-0.000010,1.630687,0.785398
1.333349,-0.000001,-0.791053,-0.000000,-2.407333,-0.000010,1.630687,0.785398
1.335348,-0.000001,-0.791053,-0.000000,-2.407333,-0.000010,1.630687,0.785398
1.337403,-0.000001,-0.791053,-0.000000,-2.407333,-0.000010,1.630687,0.785398
1.339349,-0.000001,-0.791053,-0.000000,-2.407333,-0.000010,1.630687,0.785398
1.341348,-0.000001,-0.791053,-0.000000,-2.407333,-0.000010,1.630687,0.785398
1.343371,-0.000001,-0.791053,-0.000000,-2.407333,-0.000010,1.630687,0.785398
1.345369,-0.000001,-0.791053,-0.000000,-2.407333,-0.000010,1.630687,0.785398
1.347369,-0.000001,-0.791053,-0.000000,-2.407333,-0.000010,1.630687,0.785398
1.349368,-0.000001,-0.791053,-0.000000,-2.407333,-0.000010,1.630687,0.785398
1.351383,-0.000001,-0.791053,-0.000000,-2.407333,-0.000010,1.630687,0.785398
1.353372,-0.000001,-0.791053,-0.000000,-2.407333,-0.000010,1.630687,0.785398
1.355348,-0.000001,-0.791053,-0.000000,-2.407333,-0.000010,1.630687,0.785398
1.357348,-0.000001,-0.791053,-0.000000,-2.407333,-0.000010,1.630687,0.785398
1.359348,-0.000001,-0.791053,-0.000000,-2.407333,-0.000010,1.630687,0.785398
1.361346,-0.000001,-0.791053,-0.000000,-2.407333,-0.000010,1.630687,0.785398
1.363490,-0.000001,-0.791053,-0.000000,-2.407333,-0.000010,1.630687,0.785398
1.365350,-0.000001,-0.791053,-0.000000,-2.407333,-0.000010,1.630687,0.785398
1.367349,-0.000001,-0.791053,-0.000000,-2.407333,-0.000010,1.630687,0.785398
1.369356,-0.000001,-0.791053,-0.000000,-2.407333,-0.000010,1.630687,0.785398
1.371352,-0.000001,-0.791053,-0.000000,-2.407333,-0.000010,1.630687,0.785398
1.373365,-0.000001,-0.791053,-0.000000,-2.407333,-0.000010,1.630687,0.785398
1.375484,-0.000001,-0.791053,-0.000000,-2.407333,-0.000010,1.630687,0.785398
1.377506,-0.000001,-0.791053,-0.000000,-2.407333,-0.000010,1.630687,0.785398
1.379347,-0.000001,-0.791053,-0.000000,-2.407333,-0.000010,1.630687,0.785398
1.381372,-0.000001,-0.791053,-0.000000,-2.407333,-0.000010,1.630687,0.785398
1.383380,-0.000001,-0.791053,-0.000000,-2.407333,-0.000010,1.630687,0.785398
1.385403,-0.000001,-0.791053,-0.000000,-2.407333,-0.000010,1.630687,0.785398
1.387426,-0.000001,-0.791053,-0.000000,-2.407333,-0.000010,1.630687,0.785398
1.389399,-0.000001,-0.791053,-0.000000,-2.407333,-0.000010,1.630687,0.785398
1.391413,-0.000001,-0.791053,-0.000000,-2.407333,-0.000010,1.630687,0.785398
1.393354,-0.000001,-0.791053,-0.000000,-2.407333,-0.000010,1.630687,0.785398
1.395349,-0.000001,-0.791053,-0.000000,-2.407333,-0.000010,1.630687,0.785398
1.397395,-0.000001,-0.791053,-0.000000,-2.407333,-0.000010,1.630687,0.785398
1.399392,-0.000001,-0.791053,-0.000000,-2.407333,-0.000010,1.630687,0.785398
1.401387,-0.000001,-0.791053,-0.000000,-2.407333,-0.000010,1.630687,0.785398
1.403371,-0.000001,-0.791053,-0.000000,-2.407333,-0.000010,1.630687,0.785398
1.405365,-0.000001,-0.791053,-0.000000,-2.407333,-0.000010,1.630687,0.785398
1.407372,-0.000001,-0.791053,-0.000000,-2.407333,-0.000010,1.630687,0.785398
1.409381,-0.000001,-0.791053,-0.000000,-2.407333,-0.000010,1.630687,0.785398
1.411392,-0.000001,-0.791053,-0.000000,-2.407333,-0.000010,1.630687,0.785398
1.413357,-0.000001,-0.791053,-0.000000,-2.407333,-0.000010,1.630687,0.785398
1.415392,-0.000001,-0.791053,-0.000000,-2.407333,-0.000010,1.630687,0.785398
1.417389,-0.000001,-0.791053,-0.000000,-2.407333,-0.000010,1.630687,0.785398
1.419385,-0.000001,-0.791053,-0.000000,-2.407333,-0.000010,1.630687,0.785398
1.421400,-0.000001,-0.791053,-0.000000,-2.407333,-0.000010,1.630687,0.785398
1.423400,-0.000001,-0.791053,-0.000000,-2.407333,-0.000010,1.630687,0.785398
1.425390,-0.000001,-0.791053,-0.000000,-2.407333,-0.000010,1.630687,0.785398
1.427393,-0.000001,-0.791053,-0.000000,-2.407333,-0.000010,1.630687,0.785398
1.429384,-0.000001,-0.791053,-0.000000,-2.407333,-0.000010,1.630687,0.785398
1.431384,-0.000001,-0.791053,-0.000000,-2.407333,-0.000010,1.630687,0.785398
1.433384,-0.000001,-0.791053,-0.000000,-2.407333,-0.000010,1.630687,0.785398
1.435382,-0.000001,-0.791053,-0.000000,-2.407333,-0.000010,1.630687,0.785398
1.437347,-0.000001,-0.791053,-0.000000,-2.407333,-0.000010,1.630687,0.785398
1.439371,-0.000001,-0.791053,-0.000000,-2.407333,-0.000010,1.630687,0.785398
1.441392,-0.000001,-0.791053,-0.000000,-2.407333,-0.000010,1.630687,0.785398
1.443363,-0.000001,-0.791053,-0.000000,-2.407333,-0.000010,1.630687,0.785398
1.445387,-0.000001,-0.791053,-0.000000,-2.407333,-0.000010,1.630687,0.785398
1.447351,-0.000001,-0.791053,-0.000000,-2.407333,-0.000010,1.630687,0.785398
1.449376,-0.000001,-0.791053,-0.000000,-2.407333,-0.000010,1.630687,0.785398
1.451387,-0.000001,-0.791053,-0.000000,-2.407333,-0.000010,1.630687,0.785398
1.453391,-0.000001,-0.791053,-0.000000,-2.407333,-0.000010,1.630687,0.785398
1.455387,-0.000001,-0.791053,-0.000000,-2.407333,-0.000010,1.630687,0.785398
1.457386,-0.000001,-0.791053,-0.000000,-2.407333,-0.000010,1.630687,0.785398
1.459386,-0.000001,-0.791053,-0.000000,-2.407333,-0.000010,1.630687,0.785398
1.461381,-0.000001,-0.791053,-0.000000,-2.407333,-0.000010,1.630687,0.785398
1.463381,-0.000001,-0.791053,-0.000000,-2.407333,-0.000010,1.630687,0.785398
1.465368,-0.000001,-0.791053,-0.000000,-2.407333,-0.000010,1.630687,0.785398
1.467351,-0.000001,-0.791053,-0.000000,-2.407333,-0.000010,1.630687,0.785398
1.469382,-0.000001,-0.791053,-0.000000,-2.407333,-0.000010,1.630687,0.785398
1.471382,-0.000001,-0.791053,-0.000000,-2.407333,-0.000010,1.630687,0.785398
1.473392,-0.000001,-0.791053,-0.000000,-2.407333,-0.000010,1.630687,0.785398
1.475381,-0.000001,-0.791053,-0.000000,-2.407333,-0.000010,1.630687,0.785398
1.477389,-0.000001,-0.791053,-0.000000,-2.407333,-0.000010,1.630687,0.785398
1.479430,-0.000001,-0.791053,-0.000000,-2.407333,-0.000010,1.630687,0.785398
1.481375,-0.000001,-0.791053,-0.000000,-2.407333,-0.000010,1.630687,0.785398
1.483382,-0.000001,-0.791053,-0.000000,-2.407333,-0.000010,1.630687,0.785398
1.485382,-0.000001,-0.791053,-0.000000,-2.407333,-0.000010,1.630687,0.785398
1.487384,-0.000001,-0.791053,-0.000000,-2.407333,-0.000010,1.630687,0.785398
1.489382,-0.000001,-0.791053,-0.000000,-2.407333,-0.000010,1.630687,0.785398
1.491383,-0.000001,-0.791053,-0.000000,-2.407333,-0.000010,1.630687,0.785398
1.493382,-0.000001,-0.791053,-0.000000,-2.407333,-0.000010,1.630687,0.785398
1.495389,-0.000001,-0.791053,-0.000000,-2.407333,-0.000010,1.630687,0.785398
1.497383,-0.000001,-0.791053,-0.000000,-2.407333,-0.000010,1.630687,0.785398
1.499372,-0.000001,-0.791053,-0.000000,-2.407333,-0.000010,1.630687,0.785398
1.501390,-0.000001,-0.791053,-0.000000,-2.407333,-0.000010,1.630687,0.785398
1.503364,-0.000001,-0.791053,-0.000000,-2.407333,-0.000010,1.630687,0.785398
1.505384,-0.000001,-0.791053,-0.000000,-2.407333,-0.000010,1.630687,0.785398
1.507369,-0.000001,-0.791053,-0.000000,-2.407333,-0.000010,1.630687,0.785398
1.509385,-0.000001,-0.791053,-0.000000,-2.407333,-0.000010,1.630687,0.785398
1.511384,-0.000001,-0.791053,-0.000000,-2.407333,-0.000010,1.630687,0.785398
1.513376,-0.000001,-0.791053,-0.000000,-2.407333,-0.000010,1.630687,0.785398
1.515387,-0.000001,-0.791053,-0.000000,-2.407333,-0.000010,1.630687,0.785398
1.517388,-0.000001,-0.791053,-0.000000,-2.407333,-0.000010,1.630687,0.785398
1.519365,-0.000001,-0.791053,-0.000000,-2.407333,-0.000010,1.630687,0.785398
1.521400,-0.000001,-0.791053,-0.000000,-2.407333,-0.000010,1.630687,0.785398
1.523396,-0.000001,-0.791053,-0.000000,-2.407333,-0.000010,1.630687,0.785398
1.525377,-0.000001,-0.791053,-0.000000,-2.407333,-0.000010,1.630687,0.785398
1.527623,-0.000001,-0.791053,-0.000000,-2.407333,-0.000010,1.630687,0.785398
1.529352,-0.000001,-0.791053,-0.000000,-2.407333,-0.000010,1.630687,0.785398
1.531354,-0.000001,-0.791053,-0.000000,-2.407333,-0.000010,1.630687,0.785398
1.533384,-0.000001,-0.791053,-0.000000,-2.407333,-0.000010,1.630687,0.785398
1.535377,-0.000001,-0.791053,-0.000000,-2.407333,-0.000010,1.630687,0.785398
1.537452,-0.000001,-0.791053,-0.000000,-2.407333,-0.000010,1.630687,0.785398
1.539464,-0.000001,-0.791053,-0.000000,-2.407333,-0.000010,1.630687,0.785398
1.541357,-0.000001,-0.791053,-0.000000,-2.407333,-0.000010,1.630687,0.785398
1.543380,-0.000001,-0.791053,-0.000000,-2.407333,-0.000010,1.630687,0.785398
1.545523,-0.000001,-0.791053,-0.000000,-2.407333,-0.000010,1.630687,0.785398
1.547345,-0.000001,-0.791053,-0.000000,-2.407333,-0.000010,1.630687,0.785398
1.549353,-0.000001,-0.791053,-0.000000,-2.407333,-0.000010,1.630687,0.785398
1.551381,-0.000001,-0.791053,-0.000000,-2.407333,-0.000010,1.630687,0.785398
1.553363,-0.000001,-0.791053,-0.000000,-2.407333,-0.000010,1.630687,0.785398
1.555344,-0.000001,-0.791053,-0.000000,-2.407333,-0.000010,1.630687,0.785398
1.557607,-0.000001,-0.791053,-0.000000,-2.407333,-0.000010,1.630687,0.785398
1.559595,-0.000001,-0.791053,-0.000000,-2.407333,-0.000010,1.630687,0.785398
1.561360,-0.000001,-0.791053,-0.000000,-2.407333,-0.000010,1.630687,0.785398
1.563474,-0.000001,-0.791053,-0.000000,-2.407333,-0.000010,1.630687,0.785398
1.565394,-0.000001,-0.791053,-0.000000,-2.407333,-0.000010,1.630687,0.785398
1.567365,-0.000001,-0.791053,-0.000000,-2.407333,-0.000010,1.630687,0.785398
1.569380,-0.000001,-0.791053,-0.000000,-2.407333,-0.000010,1.630687,0.785398
1.571388,-0.000001,-0.791053,-0.000000,-2.407333,-0.000010,1.630687,0.785398
1.573410,-0.000001,-0.791053,-0.000000,-2.407333,-0.000010,1.630687,0.785398
1.575413,-0.000001,-0.791053,-0.000000,-2.407333,-0.000010,1.630687,0.785398
1.577411,-0.000001,-0.791053,-0.000000,-2.407333,-0.000010,1.630687,0.785398
1.579378,-0.000001,-0.791053,-0.000000,-2.407333,-0.000010,1.630687,0.785398
1.581411,-0.000001,-0.791053,-0.000000,-2.407333,-0.000010,1.630687,0.785398
1.583384,-0.000001,-0.791053,-0.000000,-2.407333,-0.000010,1.630687,0.785398
1.585387,-0.000001,-0.791053,-0.000000,-2.407333,-0.000010,1.630687,0.785398
1.587387,-0.000001,-0.791053,-0.000000,-2.407333,-0.000010,1.630687,0.785398
1.589380,-0.000001,-0.791053,-0.000000,-2.407333,-0.000010,1.630687,0.785398
1.591354,-0.000001,-0.791054,-0.000000,-2.407333,-0.000010,1.630687,0.785398
1.593378,-0.000001,-0.791054,-0.000000,-2.407333,-0.000010,1.630687,0.785398
1.595366,-0.000001,-0.791054,-0.000000,-2.407333,-0.000010,1.630687,0.785398
1.597362,-0.000001,-0.791054,-0.000000,-2.407333,-0.000010,1.630687,0.785398
1.599370,-0.000001,-0.791054,-0.000000,-2.407333,-0.000010,1.630687,0.785398
1.601371,-0.000001,-0.791054,-0.000000,-2.407333,-0.000010,1.630687,0.785398
1.603351,-0.000001,-0.791054,-0.000000,-2.407333,-0.000010,1.630687,0.785398
1.605387,-0.000001,-0.791055,-0.000000,-2.407333,-0.000010,1.630687,0.785398
1.607381,-0.000001,-0.791055,-0.000000,-2.407333,-0.000010,1.630687,0.785398
1.609382,-0.000001,-0.791055,-0.000000,-2.407333,-0.000010,1.630687,0.785398
1.611459,-0.000001,-0.791055,-0.000000,-2.407333,-0.000010,1.630687,0.785398
1.613386,-0.000001,-0.791056,-0.000000,-2.407333,-0.000010,1.630687,0.785398
1.615392,-0.000001,-0.791056,-0.000000,-2.407333,-0.000010,1.630687,0.785398
1.617366,-0.000001,-0.791056,-0.000000,-2.407333,-0.000010,1.630687,0.785398
1.619349,-0.000001,-0.791056,-0.000000,-2.407333,-0.000010,1.630687,0.785398
1.621351,-0.000001,-0.791057,-0.000000,-2.407333,-0.000010,1.630687,0.785398
1.623348,-0.000001,-0.791057,-0.000000,-2.407333,-0.000010,1.630687,0.785398
1.625348,-0.000001,-0.791058,-0.000000,-2.407333,-0.000010,1.630687,0.785398
1.627367,-0.000001,-0.791058,-0.000000,-2.407333,-0.000010,1.630687,0.785398
1.629370,-0.000001,-0.791059,-0.000000,-2.407333,-0.000010,1.630687,0.785398
1.631350,-0.000001,-0.791059,-0.000000,-2.407333,-0.000010,1.630687,0.785398
1.633350,-0.000001,-0.791060,-0.000000,-2.407333,-0.000010,1.630687,0.785398
1.635388,-0.000001,-0.791060,-0.000000,-2.407333,-0.000010,1.630687,0.785398
1.637351,-0.000001,-0.791061,-0.000000,-2.407333,-0.000010,1.630687,0.785398
1.639465,-0.000001,-0.791062,-0.000000,-2.407333,-0.000010,1.630687,0.785398
1.641344,-0.000001,-0.791062,-0.000000,-2.407333,-0.000010,1.630687,0.785398
1.643372,-0.000001,-0.791063,-0.000000,-2.407333,-0.000010,1.630687,0.785398
1.645361,-0.000001,-0.791064,-0.000000,-2.407333,-0.000010,1.630687,0.785398
1.647371,-0.000001,-0.791065,-0.000000,-2.407333,-0.000010,1.630687,0.785398
1.649327,-0.000001,-0.791065,-0.000000,-2.407333,-0.000010,1.630687,0.785398
1.651371,-0.000001,-0.791066,-0.000000,-2.407333,-0.000010,1.630687,0.785398
1.653376,-0.000001,-0.791067,-0.000000,-2.407333,-0.000010,1.630687,0.785398
1.655448,-0.000001,-0.791068,-0.000000,-2.407333,-0.000010,1.630687,0.785398
1.657411,-0.000001,-0.791069,-0.000000,-2.407333,-0.000010,1.630687,0.785398
1.659383,-0.000001,-0.791070,-0.000000,-2.407333,-0.000010,1.630687,0.785398
1.661366,-0.000001,-0.791071,-0.000000,-2.407333,-0.000010,1.630687,0.785398
1.663434,-0.000001,-0.791072,-0.000000,-2.407333,-0.000010,1.630687,0.785398
1.665400,-0.000001,-0.791073,-0.000000,-2.407333,-0.000010,1.630687,0.785398
1.667447,-0.000001,-0.791074,-0.000000,-2.407333,-0.000010,1.630687,0.785398
1.669376,-0.000001,-0.791075,-0.000000,-2.407333,-0.000010,1.630687,0.785398
1.671407,-0.000001,-0.791077,-0.000000,-2.407333,-0.000010,1.630687,0.785398
1.673488,-0.000001,-0.791078,-0.000000,-2.407333,-0.000010,1.630687,0.785398
1.675358,-0.000001,-0.791079,-0.000000,-2.407333,-0.000010,1.630687,0.785398
1.677384,-0.000001,-0.791081,-0.000000,-2.407333,-0.000010,1.630687,0.785398
1.679381,-0.000001,-0.791082,-0.000000,-2.407333,-0.000010,1.630687,0.785398
1.681384,-0.000001,-0.791084,-0.000000,-2.407333,-0.000010,1.630687,0.785398
1.683383,-0.000001,-0.791085,-0.000000,-2.407333,-0.000010,1.630687,0.785398
1.685389,-0.000001,-0.791087,-0.000000,-2.407333,-0.000010,1.630687,0.785398
1.687384,-0.000001,-0.791089,-0.000000,-2.407333,-0.000010,1.630687,0.785398
1.689381,-0.000001,-0.791090,-0.000000,-2.407333,-0.000010,1.630687,0.785398
1.691429,-0.000001,-0.791092,-0.000000,-2.407333,-0.000010,1.630687,0.785398
1.693353,-0.000001,-0.791094,-0.000000,-2.407333,-0.000010,1.630687,0.785398
1.695362,-0.000001,-0.791096,-0.000000,-2.407333,-0.000010,1.630687,0.785398
1.697368,-0.000001,-0.791098,-0.000000,-2.407333,-0.000010,1.630687,0.785398
1.699367,-0.000001,-0.791100,-0.000000,-2.407333,-0.000010,1.630687,0.785398
1.701351,-0.000001,-0.791102,-0.000000,-2.407333,-0.000010,1.630687,0.785398
1.703384,-0.000001,-0.791104,-0.000000,-2.407333,-0.000010,1.630687,0.785398
1.705383,-0.000001,-0.791106,-0.000000,-2.407333,-0.000010,1.630687,0.785398
1.707387,-0.000001,-0.791108,-0.000000,-2.407333,-0.000010,1.630687,0.785398
1.709384,-0.000001,-0.791110,-0.000000,-2.407333,-0.000010,1.630687,0.785398
1.711383,-0.000001,-0.791113,-0.000000,-2.407333,-0.000010,1.630687,0.785398
1.713386,-0.000001,-0.791115,-0.000000,-2.407333,-0.000010,1.630687,0.785398
1.715382,-0.000001,-0.791117,-0.000000,-2.407333,-0.000010,1.630687,0.785398
1.717394,-0.000001,-0.791120,-0.000000,-2.407333,-0.000010,1.630687,0.785398
1.719385,-0.000001,-0.791122,-0.000000,-2.407333,-0.000010,1.630687,0.785398
1.721383,-0.000001,-0.791125,-0.000000,-2.407333,-0.000010,1.630687,0.785398
1.723382,-0.000001,-0.791128,-0.000000,-2.407333,-0.000010,1.630687,0.785398
1.725383,-0.000001,-0.791130,-0.000000,-2.407333,-0.000010,1.630687,0.785398
1.727381,-0.000001,-0.791133,-0.000000,-2.407333,-0.000010,1.630687,0.785398
1.729383,-0.000001,-0.791136,-0.000000,-2.407333,-0.000010,1.630687,0.785398
1.731381,-0.000001,-0.791139,-0.000000,-2.407333,-0.000010,1.630687,0.785398
1.733380,-0.000001,-0.791142,-0.000000,-2.407333,-0.000010,1.630687,0.785398
1.735376,-0.000001,-0.791145,-0.000000,-2.407333,-0.000010,1.630687,0.785398
1.737368,-0.000001,-0.791148,-0.000000,-2.407333,-0.000010,1.630687,0.785398
1.739390,-0.000001,-0.791151,-0.000000,-2.407333,-0.000010,1.630687,0.785398
1.741368,-0.000001,-0.791155,-0.000000,-2.407333,-0.000010,1.630687,0.785398
1.743361,-0.000001,-0.791158,-0.000000,-2.407333,-0.000010,1.630687,0.785398
1.745352,-0.000001,-0.791161,-0.000000,-2.407333,-0.000010,1.630687,0.785398
1.747399,-0.000001,-0.791165,-0.000000,-2.407333,-0.000010,1.630687,0.785398
1.749398,-0.000001,-0.791168,-0.000000,-2.407333,-0.000010,1.630687,0.785398
1.751392,-0.000001,-0.791172,-0.000000,-2.407333,-0.000010,1.630687,0.785398
1.753384,-0.000001,-0.791175,-0.000000,-2.407333,-0.000010,1.630687,0.785398
1.755385,-0.000001,-0.791179,-0.000000,-2.407333,-0.000010,1.630687,0.785398
1.757385,-0.000001,-0.791183,-0.000000,-2.407333,-0.000010,1.630687,0.785398
1.759367,-0.000001,-0.791187,-0.000000,-2.407333,-0.000010,1.630687,0.785398
1.761385,-0.000001,-0.791191,-0.000000,-2.407333,-0.000010,1.630687,0.785398
1.763387,-0.000001,-0.791195,-0.000000,-2.407333,-0.000010,1.630687,0.785398
1.765382,-0.000001,-0.791199,-0.000000,-2.407333,-0.000010,1.630687,0.785398
1.767382,-0.000001,-0.791203,-0.000000,-2.407333,-0.000010,1.630687,0.785398
1.769354,-0.000001,-0.791207,-0.000000,-2.407333,-0.000010,1.630687,0.785398
1.771374,-0.000001,-0.791211,-0.000000,-2.407333,-0.000010,1.630687,0.785398
1.773351,-0.000001,-0.791216,-0.000000,-2.407333,-0.000010,1.630687,0.785398
1.775381,-0.000001,-0.791220,-0.000000,-2.407333,-0.000010,1.630687,0.785398
1.777379,-0.000001,-0.791225,-0.000000,-2.407333,-0.000010,1.630687,0.785398
1.779392,-0.000001,-0.791229,-0.000000,-2.407333,-0.000010,1.630687,0.785398
1.781404,-0.000001,-0.791234,-0.000000,-2.407333,-0.000010,1.630687,0.785398
1.783371,-0.000001,-0.791239,-0.000000,-2.407333,-0.000010,1.630687,0.785398
1.785386,-0.000001,-0.791243,-0.000000,-2.407333,-0.000010,1.630687,0.785398
1.787355,-0.000001,-0.791248,-0.000000,-2.407333,-0.000010,1.630687,0.785398
1.789389,-0.000001,-0.791253,-0.000000,-2.407333,-0.000010,1.630687,0.785398
1.791385,-0.000001,-0.791258,-0.000000,-2.407333,-0.000010,1.630687,0.785398
1.793351,-0.000001,-0.791263,-0.000000,-2.407333,-0.000010,1.630686,0.785398
1.795375,-0.000001,-0.791269,-0.000000,-2.407333,-0.000010,1.630686,0.785398
1.797351,-0.000001,-0.791274,-0.000000,-2.407333,-0.000010,1.630686,0.785398
1.799356,-0.000001,-0.791279,-0.000000,-2.407333,-0.000010,1.630685,0.785398
1.801382,-0.000001,-0.791285,-0.000000,-2.407333,-0.000010,1.630684,0.785398
1.803350,-0.000001,-0.791290,-0.000000,-2.407333,-0.000010,1.630683,0.785398
1.805383,-0.000001,-0.791296,-0.000000,-2.407333,-0.000010,1.630681,0.785398
1.807381,-0.000001,-0.791301,-0.000000,-2.407333,-0.000010,1.630679,0.785398
1.809384,-0.000001,-0.791307,-0.000000,-2.407333,-0.000010,1.630677,0.785398
1.811348,-0.000001,-0.791313,-0.000000,-2.407333,-0.000010,1.630675,0.785398
1.813348,-0.000001,-0.791319,-0.000000,-2.407333,-0.000010,1.630672,0.785398
1.815348,-0.000001,-0.791325,-0.000000,-2.407333,-0.000010,1.630668,0.785398
1.817387,-0.000001,-0.791331,-0.000000,-2.407333,-0.000010,1.630665,0.785398
1.819356,-0.000001,-0.791337,-0.000000,-2.407333,-0.000010,1.630660,0.785398
1.821370,-0.000001,-0.791344,-0.000000,-2.407333,-0.000010,1.630656,0.785398
1.823373,-0.000001,-0.791350,-0.000000,-2.407333,-0.000010,1.630651,0.785398
1.825348,-0.000001,-0.791357,-0.000000,-2.407333,-0.000010,1.630645,0.785398
1.827323,-0.000001,-0.791363,-0.000000,-2.407333,-0.000010,1.630639,0.785398
1.829343,-0.000001,-0.791370,-0.000000,-2.407333,-0.000010,1.630633,0.785398
1.831345,-0.000001,-0.791377,-0.000000,-2.407333,-0.000010,1.630626,0.785398
1.833336,-0.000001,-0.791384,-0.000000,-2.407333,-0.000010,1.630618,0.785398
1.835447,-0.000001,-0.791391,-0.000000,-2.407333,-0.000010,1.630610,0.785398
1.837347,-0.000001,-0.791398,-0.000000,-2.407333,-0.000010,1.630602,0.785398
1.839500,-0.000001,-0.791405,-0.000000,-2.407333,-0.000010,1.630593,0.785398
1.841432,-0.000001,-0.791412,-0.000000,-2.407333,-0.000010,1.630583,0.785398
1.843408,-0.000001,-0.791416,-0.000000,-2.407333,-0.000010,1.630579,0.785398
1.845457,-0.000001,-0.791423,-0.000000,-2.407333,-0.000010,1.630568,0.785398
1.847385,-0.000001,-0.791431,-0.000000,-2.407333,-0.000010,1.630557,0.785398
1.849385,-0.000001,-0.791438,-0.000000,-2.407333,-0.000010,1.630546,0.785398
1.851386,-0.000001,-0.791446,-0.000000,-2.407333,-0.000010,1.630534,0.785398
1.853385,-0.000001,-0.791453,-0.000000,-2.407333,-0.000010,1.630522,0.785398
1.855381,-0.000001,-0.791461,-0.000000,-2.407333,-0.000010,1.630509,0.785398
1.857385,-0.000001,-0.791469,-0.000000,-2.407333,-0.000010,1.630495,0.785398
1.859347,-0.000001,-0.791477,-0.000000,-2.407333,-0.000010,1.630481,0.785398
1.861430,-0.000001,-0.791485,-0.000000,-2.407333,-0.000010,1.630466,0.785398
1.863411,-0.000001,-0.791493,-0.000000,-2.407333,-0.000010,1.630451,0.785398
1.865370,-0.000001,-0.791502,-0.000000,-2.407333,-0.000010,1.630435,0.785398
1.867377,-0.000001,-0.791510,-0.000000,-2.407333,-0.000010,1.630418,0.785398
1.869393,-0.000001,-0.791518,-0.000000,-2.407333,-0.000010,1.630401,0.785398
1.871379,-0.000001,-0.791527,-0.000000,-2.407333,-0.000010,1.630384,0.785398
1.873408,-0.000001,-0.791536,-0.000000,-2.407333,-0.000010,1.630366,0.785398
1.875355,-0.000001,-0.791544,-0.000000,-2.407333,-0.000010,1.630347,0.785398
1.877376,-0.000001,-0.791553,-0.000000,-2.407333,-0.000010,1.630328,0.785398
1.879408,-0.000001,-0.791562,-0.000000,-2.407333,-0.000010,1.630308,0.785398
1.881406,-0.000001,-0.791571,-0.000000,-2.407333,-0.000010,1.630288,0.785398
1.883351,-0.000001,-0.791580,-0.000000,-2.407333,-0.000010,1.630267,0.785398
1.885372,-0.000001,-0.791589,-0.000000,-2.407333,-0.000010,1.630246,0.785398
1.887358,-0.000001,-0.791598,-0.000000,-2.407333,-0.000010,1.630224,0.785398
1.889370,-0.000001,-0.791608,-0.000000,-2.407333,-0.000010,1.630202,0.785398
1.891366,-0.000001,-0.791617,-0.000000,-2.407333,-0.000010,1.630179,0.785398
1.893373,-0.000001,-0.791626,-0.000000,-2.407333,-0.000010,1.630155,0.785398
1.895383,-0.000001,-0.791636,-0.000000,-2.407333,-0.000010,1.630131,0.785398
1.897389,-0.000001,-0.791645,-0.000000,-2.407333,-0.000010,1.630107,0.785398
1.899391,-0.000001,-0.791655,-0.000000,-2.407333,-0.000010,1.630082,0.785398
1.901390,-0.000001,-0.791665,-0.000000,-2.407333,-0.000010,1.630056,0.785398
1.903412,-0.000001,-0.791675,-0.000000,-2.407333,-0.000010,1.630030,0.785398
1.905387,-0.000001,-0.791685,-0.000000,-2.407333,-0.000010,1.630004,0.785398
1.907356,-0.000001,-0.791695,-0.000000,-2.407333,-0.000010,1.629977,0.785398
1.909399,-0.000001,-0.791705,-0.000000,-2.407333,-0.000010,1.629950,0.785398
1.911407,-0.000001,-0.791715,-0.000000,-2.407333,-0.000010,1.629922,0.785398
1.913357,-0.000001,-0.791725,-0.000000,-2.407333,-0.000010,1.629894,0.785398
1.915365,-0.000001,-0.791735,-0.000000,-2.407333,-0.000010,1.629865,0.785398
1.917356,-0.000001,-0.791746,-0.000000,-2.407333,-0.000010,1.629836,0.785398
1.919373,-0.000001,-0.791756,-0.000000,-2.407333,-0.000010,1.629807,0.785398
1.921384,-0.000001,-0.791767,-0.000000,-2.407333,-0.000010,1.629778,0.785398
1.923369,-0.000001,-0.791777,-0.000000,-2.407333,-0.000010,1.629748,0.785398
1.925467,-0.000001,-0.791788,-0.000000,-2.407333,-0.000010,1.629718,0.785398
1.927407,-0.000001,-0.791798,-0.000000,-2.407333,-0.000010,1.629687,0.785398
1.929393,-0.000001,-0.791809,-0.000000,-2.407333,-0.000010,1.629657,0.785398
1.931382,-0.000001,-0.791820,-0.000000,-2.407333,-0.000010,1.629626,0.785398
1.933442,-0.000001,-0.791831,-0.000000,-2.407333,-0.000010,1.629595,0.785398
1.935351,-0.000001,-0.791842,-0.000000,-2.407333,-0.000010,1.629564,0.785398
1.937311,-0.000001,-0.791852,-0.000000,-2.407333,-0.000010,1.629533,0.785398
1.939421,-0.000001,-0.791863,-0.000000,-2.407333,-0.000010,1.629502,0.785398
1.941403,-0.000001,-0.791874,-0.000000,-2.407333,-0.000010,1.629470,0.785398
1.943398,-0.000001,-0.791885,-0.000000,-2.407333,-0.000010,1.629439,0.785398
1.945376,-0.000001,-0.791896,-0.000000,-2.407333,-0.000010,1.629408,0.785398
1.947400,-0.000001,-0.791908,-0.000000,-2.407333,-0.000010,1.629376,0.785398
1.949363,-0.000001,-0.791919,-0.000000,-2.407333,-0.000010,1.629345,0.785398
1.951359,-0.000001,-0.791930,-0.000000,-2.407333,-0.000010,1.629314,0.785398
1.953399,-0.000001,-0.791941,-0.000000,-2.407333,-0.000010,1.629282,0.785398
1.955378,-0.000001,-0.791952,-0.000000,-2.407333,-0.000010,1.629251,0.785398
1.957380,-0.000001,-0.791964,-0.000000,-2.407333,-0.000010,1.629220,0.785398
1.959370,-0.000001,-0.791975,-0.000000,-2.407333,-0.000010,1.629189,0.785398
1.961376,-0.000001,-0.791986,-0.000000,-2.407333,-0.000010,1.629158,0.785398
1.963354,-0.000001,-0.791998,-0.000000,-2.407333,-0.000010,1.629128,0.785398
1.965350,-0.000001,-0.792009,-0.000000,-2.407333,-0.000010,1.629097,0.785398
1.967349,-0.000001,-0.792020,-0.000000,-2.407333,-0.000010,1.629067,0.785398
1.969420,-0.000001,-0.792032,-0.000000,-2.407333,-0.000010,1.629037,0.785398
1.971350,-0.000001,-0.792043,-0.000000,-2.407333,-0.000010,1.629007,0.785398
1.973347,-0.000001,-0.792055,-0.000000,-2.407333,-0.000010,1.628978,0.785398
1.975348,-0.000001,-0.792066,-0.000000,-2.407333,-0.000010,1.628948,0.785398
1.977411,-0.000001,-0.792078,-0.000000,-2.407333,-0.000010,1.628919,0.785398
1.979398,-0.000001,-0.792083,-0.000000,-2.407333,-0.000010,1.628905,0.785398
1.981432,-0.000001,-0.792095,-0.000000,-2.407333,-0.000010,1.628876,0.785398
1.983347,-0.000001,-0.792106,-0.000000,-2.407333,-0.000010,1.628848,0.785398
1.985436,-0.000001,-0.792118,-0.000000,-2.407333,-0.000010,1.628820,0.785398
1.987421,-0.000001,-0.792129,-0.000000,-2.407333,-0.000010,1.628792,0.785398
1.989431,-0.000001,-0.792141,-0.000000,-2.407333,-0.000010,1.628765,0.785398
1.991381,-0.000001,-0.792152,-0.000000,-2.407333,-0.000010,1.628738,0.785398
1.993397,-0.000001,-0.792164,-0.000000,-2.407333,-0.000010,1.628711,0.785398
1.995354,-0.000001,-0.792175,-0.000000,-2.407333,-0.000010,1.628685,0.785398
1.997350,-0.000001,-0.792187,-0.000000,-2.407333,-0.000010,1.628659,0.785398
1.999384,-0.000001,-0.792198,-0.000000,-2.407333,-0.000010,1.628633,0.785398
2.001388,-0.000001,-0.792210,-0.000000,-2.407333,-0.000010,1.628608,0.785398
2.003367,-0.000001,-0.792221,-0.000000,-2.407333,-0.000010,1.628584,0.785398
2.005358,-0.000001,-0.792227,-0.000000,-2.407333,-0.000010,1.628571,0.785398
2.007358,-0.000001,-0.792238,-0.000000,-2.407333,-0.000010,1.628547,0.785398
2.009356,-0.000001,-0.792250,-0.000000,-2.407333,-0.000010,1.628524,0.785398
2.011383,-0.000001,-0.792261,-0.000000,-2.407333,-0.000010,1.628500,0.785398
2.013401,-0.000001,-0.792272,-0.000000,-2.407333,-0.000010,1.628477,0.785398
2.015354,-0.000001,-0.792284,-0.000000,-2.407333,-0.000010,1.628455,0.785398
2.017354,-0.000001,-0.792295,-0.000000,-2.407333,-0.000010,1.628433,0.785398
2.019391,-0.000001,-0.792306,-0.000000,-2.407333,-0.000010,1.628412,0.785398
2.021388,-0.000001,-0.792318,-0.000000,-2.407333,-0.000010,1.628391,0.785398
2.023388,-0.000001,-0.792329,-0.000000,-2.407333,-0.000010,1.628371,0.785398
2.025381,-0.000001,-0.792340,-0.000000,-2.407333,-0.000010,1.628352,0.785398
2.027395,-0.000001,-0.792351,-0.000000,-2.407333,-0.000010,1.628333,0.785398
2.029391,-0.000001,-0.792363,-0.000000,-2.407333,-0.000010,1.628315,0.785398
2.031367,-0.000001,-0.792374,-0.000000,-2.407333,-0.000010,1.628297,0.785398
2.033404,-0.000001,-0.792385,-0.000000,-2.407333,-0.000010,1.628281,0.785398
2.035397,-0.000001,-0.792396,-0.000000,-2.407333,-0.000010,1.628265,0.785398
2.037391,-0.000001,-0.792407,-0.000000,-2.407333,-0.000010,1.628250,0.785398
2.039383,-0.000001,-0.792418,-0.000000,-2.407333,-0.000010,1.628235,0.785398
2.041393,-0.000001,-0.792428,-0.000000,-2.407333,-0.000010,1.628222,0.785398
2.043353,-0.000001,-0.792439,-0.000000,-2.407333,-0.000010,1.628209,0.785398
2.045388,-0.000001,-0.792450,-0.000000,-2.407333,-0.000010,1.628197,0.785398
2.047348,-0.000001,-0.792461,-0.000000,-2.407333,-0.000010,1.628186,0.785398
2.049355,-0.000001,-0.792471,-0.000000,-2.407333,-0.000010,1.628176,0.785398
2.051355,-0.000001,-0.792482,-0.000000,-2.407333,-0.000010,1.628166,0.785398
2.053349,-0.000001,-0.792492,-0.000000,-2.407333,-0.000010,1.628158,0.785398
2.055350,-0.000001,-0.792503,-0.000000,-2.407333,-0.000010,1.628150,0.785398
2.057422,-0.000001,-0.792513,-0.000000,-2.407333,-0.000010,1.628144,0.785398
2.059370,-0.000001,-0.792523,-0.000000,-2.407333,-0.000010,1.628138,0.785398
2.061413,-0.000001,-0.792533,-0.000000,-2.407333,-0.000010,1.628133,0.785398
2.063522,-0.000001,-0.792543,-0.000000,-2.407333,-0.000010,1.628130,0.785398
2.065322,-0.000001,-0.792553,-0.000000,-2.407333,-0.000010,1.628127,0.785398
2.067353,-0.000001,-0.792563,-0.000000,-2.407333,-0.000010,1.628125,0.785398
2.069377,-0.000001,-0.792573,-0.000000,-2.407333,-0.000010,1.628124,0.785398
2.071397,-0.000001,-0.792583,-0.000000,-2.407333,-0.000010,1.628124,0.785398
2.073390,-0.000001,-0.792592,-0.000000,-2.407333,-0.000010,1.628124,0.785398
2.075408,-0.000001,-0.792602,-0.000000,-2.407333,-0.000010,1.628124,0.785398
2.077437,-0.000001,-0.792612,-0.000000,-2.407333,-0.000010,1.628124,0.785398
2.079387,-0.000001,-0.792621,-0.000000,-2.407333,-0.000010,1.628124,0.785398
2.081436,-0.000001,-0.792630,-0.000000,-2.407333,-0.000010,1.628124,0.785398
2.083428,-0.000001,-0.792635,-0.000000,-2.407333,-0.000010,1.628124,0.785398
2.085460,-0.000001,-0.792644,-0.000000,-2.407333,-0.000010,1.628124,0.785398
2.087352,-0.000001,-0.792654,-0.000000,-2.407333,-0.000010,1.628124,0.785398
2.089388,-0.000001,-0.792663,-0.000000,-2.407333,-0.000010,1.628124,0.785398
2.091383,-0.000001,-0.792672,-0.000000,-2.407333,-0.000010,1.628124,0.785398
2.093370,-0.000001,-0.792681,-0.000000,-2.407333,-0.000010,1.628124,0.785398
2.095352,-0.000001,-0.792690,-0.000000,-2.407333,-0.000010,1.628124,0.785398
2.097390,-0.000001,-0.792698,-0.000000,-2.407333,-0.000010,1.628124,0.785398
2.099384,-0.000001,-0.792707,-0.000000,-2.407333,-0.000010,1.628124,0.785398
2.101382,-0.000001,-0.792716,-0.000000,-2.407333,-0.000010,1.628124,0.785398
2.103390,-0.000001,-0.792724,-0.000000,-2.407333,-0.000010,1.628124,0.785398
2.105385,-0.000001,-0.792733,-0.000000,-2.407333,-0.000010,1.628124,0.785398
2.107383,-0.000001,-0.792741,-0.000000,-2.407333,-0.000010,1.628124,0.785398
2.109383,-0.000001,-0.792749,-0.000000,-2.407333,-0.000010,1.628124,0.785398
2.111382,-0.000001,-0.792758,-0.000000,-2.407333,-0.000010,1.628124,0.785398
2.113355,-0.000001,-0.792766,-0.000000,-2.407333,-0.000010,1.628124,0.785398
2.115441,-0.000001,-0.792774,-0.000000,-2.407333,-0.000010,1.628124,0.785398
2.117387,-0.000001,-0.792781,-0.000000,-2.407333,-0.000010,1.628124,0.785398
2.119386,-0.000001,-0.792789,-0.000000,-2.407333,-0.000010,1.628124,0.785398
2.121392,-0.000001,-0.792797,-0.000000,-2.407333,-0.000010,1.628124,0.785398
2.123395,-0.000001,-0.792804,-0.000000,-2.407333,-0.000010,1.628124,0.785398
2.125387,-0.000001,-0.792812,-0.000000,-2.407333,-0.000010,1.628124,0.785398
2.127408,-0.000001,-0.792819,-0.000000,-2.407333,-0.000010,1.628124,0.785398
2.129383,-0.000001,-0.792826,-0.000000,-2.407333,-0.000010,1.628124,0.785398
2.131384,-0.000001,-0.792833,-0.000000,-2.407333,-0.000010,1.628124,0.785398
2.133353,-0.000001,-0.792840,-0.000000,-2.407333,-0.000010,1.628124,0.785398
2.135382,-0.000001,-0.792847,-0.000000,-2.407333,-0.000010,1.628124,0.785398
2.137303,-0.000001,-0.792854,-0.000000,-2.407333,-0.000010,1.628124,0.785398
2.139381,-0.000001,-0.792860,-0.000000,-2.407333,-0.000010,1.628124,0.785398
2.141367,-0.000001,-0.792867,-0.000000,-2.407333,-0.000010,1.628124,0.785398
2.143385,-0.000001,-0.792873,-0.000000,-2.407333,-0.000010,1.628124,0.785398
2.145382,-0.000001,-0.792879,-0.000000,-2.407333,-0.000010,1.628124,0.785398
2.147365,-0.000001,-0.792885,-0.000000,-2.407333,-0.000010,1.628124,0.785398
2.149414,-0.000001,-0.792891,-0.000000,-2.407333,-0.000010,1.628124,0.785398
2.151387,-0.000001,-0.792896,-0.000000,-2.407333,-0.000010,1.628124,0.785398
2.153385,-0.000001,-0.792902,-0.000000,-2.407333,-0.000010,1.628124,0.785398
2.155389,-0.000001,-0.792907,-0.000000,-2.407333,-0.000010,1.628124,0.785398
2.157387,-0.000001,-0.792912,-0.000000,-2.407333,-0.000010,1.628124,0.785398
2.159383,-0.000001,-0.792917,-0.000000,-2.407333,-0.000010,1.628124,0.785398
2.161384,-0.000001,-0.792922,-0.000000,-2.407333,-0.000010,1.628124,0.785398
2.163383,-0.000001,-0.792927,-0.000000,-2.407333,-0.000010,1.628124,0.785398
2.165367,-0.000001,-0.792931,-0.000000,-2.407333,-0.000010,1.628124,0.785398
2.167380,-0.000001,-0.792936,-0.000000,-2.407333,-0.000010,1.628124,0.785398
2.169384,-0.000001,-0.792940,-0.000000,-2.407333,-0.000010,1.628124,0.785398
2.171382,-0.000001,-0.792944,-0.000000,-2.407333,-0.000010,1.628124,0.785398
2.173407,-0.000001,-0.792948,-0.000000,-2.407333,-0.000010,1.628124,0.785398
2.175406,-0.000001,-0.792951,-0.000000,-2.407333,-0.000010,1.628124,0.785398
2.177349,-0.000001,-0.792955,-0.000000,-2.407333,-0.000010,1.628124,0.785398
2.179364,-0.000001,-0.792958,-0.000000,-2.407333,-0.000010,1.628124,0.785398
2.181372,-0.000001,-0.792961,-0.000000,-2.407333,-0.000010,1.628124,0.785398
2.183391,-0.000001,-0.792964,-0.000000,-2.407333,-0.000010,1.628124,0.785398
2.185397,-0.000001,-0.792967,-0.000000,-2.407333,-0.000010,1.628124,0.785398
2.187392,-0.000001,-0.792969,-0.000000,-2.407333,-0.000010,1.628124,0.785398
2.189353,-0.000001,-0.792971,-0.000000,-2.407333,-0.000010,1.628124,0.785398
2.191432,-0.000001,-0.792973,-0.000000,-2.407333,-0.000010,1.628124,0.785398
2.193351,-0.000001,-0.792975,-0.000000,-2.407333,-0.000010,1.628124,0.785398
2.195369,-0.000001,-0.792977,-0.000000,-2.407333,-0.000010,1.628124,0.785398
2.197352,-0.000001,-0.792978,-0.000000,-2.407333,-0.000010,1.628124,0.785398
2.199398,-0.000001,-0.792980,-0.000000,-2.407333,-0.000010,1.628124,0.785398
2.201395,-0.000001,-0.792981,-0.000000,-2.407333,-0.000010,1.628124,0.785398
2.203355,-0.000001,-0.792981,-0.000000,-2.407333,-0.000010,1.628124,0.785398
2.205373,-0.000001,-0.792982,-0.000000,-2.407333,-0.000010,1.628124,0.785398
2.207370,-0.000001,-0.792982,-0.000000,-2.407333,-0.000010,1.628124,0.785398
2.209383,-0.000001,-0.792982,-0.000000,-2.407333,-0.000010,1.628124,0.785398
2.211345,-0.000001,-0.792982,-0.000000,-2.407333,-0.000010,1.628124,0.785398
2.213415,-0.000001,-0.792982,-0.000000,-2.407333,-0.000010,1.628124,0.785398
2.215401,-0.000001,-0.792982,-0.000000,-2.407333,-0.000010,1.628124,0.785398
2.217403,-0.000001,-0.792982,-0.000000,-2.407333,-0.000010,1.628124,0.785398
2.219507,-0.000001,-0.792982,-0.000000,-2.407333,-0.000010,1.628124,0.785398
2.221473,-0.000001,-0.792982,-0.000000,-2.407333,-0.000010,1.628124,0.785398
2.223483,-0.000001,-0.792982,-0.000000,-2.407333,-0.000010,1.628124,0.785398
2.225331,-0.000001,-0.792982,-0.000000,-2.407333,-0.000010,1.628124,0.785398
2.227393,-0.000001,-0.792982,-0.000000,-2.407333,-0.000010,1.628124,0.785398
2.229403,-0.000001,-0.792982,-0.000000,-2.407333,-0.000010,1.628124,0.785398
2.231388,-0.000001,-0.792982,-0.000000,-2.407333,-0.000010,1.628124,0.785398
2.233386,-0.000001,-0.792982,-0.000000,-2.407333,-0.000010,1.628124,0.785398
2.235360,-0.000001,-0.792982,-0.000000,-2.407333,-0.000010,1.628124,0.785398
2.237413,-0.000001,-0.792982,-0.000000,-2.407333,-0.000010,1.628124,0.785398
2.239383,-0.000001,-0.792982,-0.000000,-2.407333,-0.000010,1.628124,0.785398
2.241386,-0.000001,-0.792982,-0.000000,-2.407333,-0.000010,1.628124,0.785398
2.243387,-0.000001,-0.792982,-0.000000,-2.407333,-0.000010,1.628124,0.785398
2.245356,-0.000001,-0.792982,-0.000000,-2.407333,-0.000010,1.628124,0.785398
2.247391,-0.000001,-0.792982,-0.000000,-2.407333,-0.000010,1.628124,0.785398
2.249389,-0.000001,-0.792982,-0.000000,-2.407333,-0.000010,1.628124,0.785398
2.251386,-0.000001,-0.792982,-0.000000,-2.407333,-0.000010,1.628124,0.785398
2.253383,-0.000001,-0.792982,-0.000000,-2.407333,-0.000010,1.628124,0.785398
2.255354,-0.000001,-0.792982,-0.000000,-2.407333,-0.000010,1.628124,0.785398
2.257355,-0.000001,-0.792982,-0.000000,-2.407333,-0.000010,1.628124,0.785398
2.259387,-0.000001,-0.792982,-0.000000,-2.407333,-0.000010,1.628124,0.785398
2.261387,-0.000001,-0.792982,-0.000000,-2.407333,-0.000010,1.628124,0.785398
2.263380,-0.000001,-0.792982,-0.000000,-2.407333,-0.000010,1.628124,0.785398
2.265351,-0.000001,-0.792982,-0.000000,-2.407333,-0.000010,1.628124,0.785398
2.267390,-0.000001,-0.792982,-0.000000,-2.407333,-0.000010,1.628124,0.785398
2.269353,-0.000001,-0.792982,-0.000000,-2.407333,-0.000010,1.628124,0.785398
2.271380,-0.000001,-0.792982,-0.000000,-2.407333,-0.000010,1.628124,0.785398
2.273382,-0.000001,-0.792982,-0.000000,-2.407333,-0.000010,1.628124,0.785398
2.275380,-0.000001,-0.792982,-0.000000,-2.407333,-0.000010,1.628124,0.785398
2.277355,-0.000001,-0.792982,-0.000000,-2.407333,-0.000010,1.628124,0.785398
2.279367,-0.000001,-0.792982,-0.000000,-2.407333,-0.000010,1.628124,0.785398
2.281352,-0.000001,-0.792982,-0.000000,-2.407333,-0.000010,1.628124,0.785398
2.283377,-0.000001,-0.792982,-0.000000,-2.407333,-0.000010,1.628124,0.785398
2.285383,-0.000001,-0.792982,-0.000000,-2.407333,-0.000010,1.628124,0.785398
2.287352,-0.000001,-0.792982,-0.000000,-2.407333,-0.000010,1.628124,0.785398
2.289380,-0.000001,-0.792982,-0.000000,-2.407333,-0.000010,1.628124,0.785398
2.291367,-0.000001,-0.792982,-0.000000,-2.407333,-0.000010,1.628124,0.785398
2.293318,-0.000001,-0.792982,-0.000000,-2.407333,-0.000010,1.628124,0.785398
2.295391,-0.000001,-0.792982,-0.000000,-2.407333,-0.000010,1.628124,0.785398
2.297414,-0.000001,-0.792982,-0.000000,-2.407333,-0.000010,1.628124,0.785398
2.299469,-0.000001,-0.792982,-0.000000,-2.407333,-0.000010,1.628124,0.785398
2.301353,-0.000001,-0.792982,-0.000000,-2.407333,-0.000010,1.628124,0.785398
2.303345,-0.000001,-0.792982,-0.000000,-2.407333,-0.000010,1.628124,0.785398
2.305357,-0.000001,-0.792982,-0.000000,-2.407333,-0.000010,1.628124,0.785398
2.307374,-0.000001,-0.792982,-0.000000,-2.407333,-0.000010,1.628124,0.785398
2.309410,-0.000001,-0.792982,-0.000000,-2.407333,-0.000010,1.628124,0.785398
2.311346,-0.000001,-0.792982,-0.000000,-2.407333,-0.000010,1.628124,0.785398
2.313381,-0.000001,-0.792982,-0.000000,-2.407333,-0.000010,1.628124,0.785398
2.315357,-0.000001,-0.792982,-0.000000,-2.407333,-0.000010,1.628124,0.785398
2.317388,-0.000001,-0.792982,-0.000000,-2.407333,-0.000010,1.628124,0.785398
2.319383,-0.000001,-0.792982,-0.000000,-2.407333,-0.000010,1.628124,0.785398
2.321376,-0.000001,-0.792982,-0.000000,-2.407333,-0.000010,1.628124,0.785398
2.323383,-0.000001,-0.792982,-0.000000,-2.407333,-0.000010,1.628124,0.785398
2.325382,-0.000001,-0.792982,-0.000000,-2.407333,-0.000010,1.628124,0.785398
2.327426,-0.000001,-0.792982,-0.000000,-2.407333,-0.000010,1.628124,0.785398
2.329487,-0.000001,-0.792982,-0.000000,-2.407333,-0.000010,1.628124,0.785398
2.331403,-0.000001,-0.792982,-0.000000,-2.407333,-0.000010,1.628124,0.785398
2.333350,-0.000001,-0.792982,-0.000000,-2.407333,-0.000010,1.628124,0.785398
2.335397,-0.000001,-0.792982,-0.000000,-2.407333,-0.000010,1.628124,0.785398
2.337297,-0.000001,-0.792982,-0.000000,-2.407333,-0.000010,1.628124,0.785398
2.339387,-0.000001,-0.792982,-0.000000,-2.407333,-0.000010,1.628124,0.785398
2.341385,-0.000001,-0.792982,-0.000000,-2.407333,-0.000010,1.628124,0.785398
2.343365,-0.000001,-0.792982,-0.000000,-2.407333,-0.000010,1.628124,0.785398
2.345384,-0.000001,-0.792982,-0.000000,-2.407333,-0.000010,1.628124,0.785398
2.347382,-0.000001,-0.792982,-0.000000,-2.407333,-0.000010,1.628124,0.785398
2.349356,-0.000001,-0.792982,-0.000000,-2.407333,-0.000010,1.628124,0.785398
2.351385,-0.000001,-0.792982,-0.000000,-2.407333,-0.000010,1.628124,0.785398
2.353380,-0.000001,-0.792982,-0.000000,-2.407333,-0.000010,1.628124,0.785398
2.355382,-0.000001,-0.792982,-0.000000,-2.407333,-0.000010,1.628124,0.785398
2.357382,-0.000001,-0.792982,-0.000000,-2.407333,-0.000010,1.628124,0.785398
2.359382,-0.000001,-0.792982,-0.000000,-2.407333,-0.000010,1.628124,0.785398
2.361354,-0.000001,-0.792982,-0.000000,-2.407333,-0.000010,1.628124,0.785398
2.363382,-0.000001,-0.792982,-0.000000,-2.407333,-0.000010,1.628124,0.785398
2.365385,-0.000001,-0.792982,-0.000000,-2.407333,-0.000010,1.628124,0.785398
2.367421,-0.000001,-0.792982,-0.000000,-2.407333,-0.000010,1.628124,0.785398
2.369368,-0.000001,-0.792982,-0.000000,-2.407333,-0.000010,1.628124,0.785398
2.371381,-0.000001,-0.792982,-0.000000,-2.407333,-0.000010,1.628124,0.785398
2.373348,-0.000001,-0.792982,-0.000000,-2.407333,-0.000010,1.628124,0.785398
2.375350,-0.000001,-0.792982,-0.000000,-2.407333,-0.000010,1.628124,0.785398
2.377350,-0.000001,-0.792982,-0.000000,-2.407333,-0.000010,1.628124,0.785398
2.379349,-0.000001,-0.792982,-0.000000,-2.407333,-0.000010,1.628124,0.785398
2.381348,-0.000001,-0.792982,-0.000000,-2.407333,-0.000010,1.628124,0.785398
2.383349,-0.000001,-0.792982,-0.000000,-2.407333,-0.000010,1.628124,0.785398
2.385348,-0.000001,-0.792982,-0.000000,-2.407333,-0.000010,1.628124,0.785398
2.387358,-0.000001,-0.792982,-0.000000,-2.407333,-0.000010,1.628124,0.785398
2.389458,-0.000001,-0.792982,-0.000000,-2.407333,-0.000010,1.628124,0.785398
2.391343,-0.000001,-0.792982,-0.000000,-2.407333,-0.000010,1.628124,0.785398
2.393353,-0.000001,-0.792982,-0.000000,-2.407333,-0.000010,1.628124,0.785398
2.395457,-0.000001,-0.792982,-0.000000,-2.407333,-0.000010,1.628124,0.785398
2.397328,-0.000001,-0.792982,-0.000000,-2.407333,-0.000010,1.628124,0.785398
2.399331,-0.000001,-0.792982,-0.000000,-2.407333,-0.000010,1.628124,0.785398
2.401469,-0.000001,-0.792982,-0.000000,-2.407333,-0.000010,1.628124,0.785398
2.403437,-0.000001,-0.792982,-0.000000,-2.407333,-0.000010,1.628124,0.785398
2.405419,-0.000001,-0.792982,-0.000000,-2.407333,-0.000010,1.628124,0.785398
2.407484,-0.000001,-0.792982,-0.000000,-2.407333,-0.000010,1.628124,0.785398
2.409317,-0.000001,-0.792982,-0.000000,-2.407333,-0.000010,1.628124,0.785398
2.411504,-0.000001,-0.792982,-0.000000,-2.407333,-0.000010,1.628124,0.785398
2.413545,-0.000001,-0.792982,-0.000000,-2.407333,-0.000010,1.628124,0.785398
2.415427,-0.000001,-0.792982,-0.000000,-2.407333,-0.000010,1.628124,0.785398
2.417388,-0.000001,-0.792982,-0.000000,-2.407333,-0.000010,1.628124,0.785398
2.419428,-0.000001,-0.792982,-0.000000,-2.407333,-0.000010,1.628124,0.785398
2.421433,-0.000001,-0.792982,-0.000000,-2.407333,-0.000010,1.628124,0.785398
2.423438,-0.000001,-0.792982,-0.000000,-2.407333,-0.000010,1.628124,0.785398
2.425396,-0.000001,-0.792982,-0.000000,-2.407333,-0.000010,1.628124,0.785398
2.427385,-0.000001,-0.792982,-0.000000,-2.407333,-0.000010,1.628124,0.785398
2.429382,-0.000001,-0.792982,-0.000000,-2.407333,-0.000010,1.628124,0.785398
2.431382,-0.000001,-0.792982,-0.000000,-2.407333,-0.000010,1.628124,0.785398
2.433380,-0.000001,-0.792982,-0.000000,-2.407333,-0.000010,1.628124,0.785398
2.435384,-0.000001,-0.792982,-0.000000,-2.407333,-0.000010,1.628124,0.785398
2.437349,-0.000001,-0.792982,-0.000000,-2.407333,-0.000010,1.628124,0.785398
2.439352,-0.000001,-0.792982,-0.000000,-2.407333,-0.000010,1.628124,0.785398
2.441382,-0.000001,-0.792982,-0.000000,-2.407333,-0.000010,1.628124,0.785398
2.443383,-0.000001,-0.792982,-0.000000,-2.407333,-0.000010,1.628124,0.785398
2.445379,-0.000001,-0.792982,-0.000000,-2.407333,-0.000010,1.628124,0.785398
2.447385,-0.000001,-0.792982,-0.000000,-2.407333,-0.000010,1.628124,0.785398
2.449385,-0.000001,-0.792982,-0.000000,-2.407333,-0.000010,1.628124,0.785398
2.451487,-0.000001,-0.792982,-0.000000,-2.407333,-0.000010,1.628124,0.785398
2.453389,-0.000001,-0.792982,-0.000000,-2.407333,-0.000010,1.628124,0.785398
2.455399,-0.000001,-0.792982,-0.000000,-2.407333,-0.000010,1.628124,0.785398
2.457384,-0.000001,-0.792982,-0.000000,-2.407333,-0.000010,1.628124,0.785398
2.459372,-0.000001,-0.792982,-0.000000,-2.407333,-0.000010,1.628124,0.785398
2.461408,-0.000001,-0.792982,-0.000000,-2.407333,-0.000010,1.628124,0.785398
2.463440,-0.000001,-0.792982,-0.000000,-2.407333,-0.000010,1.628124,0.785398
2.465373,-0.000001,-0.792982,-0.000000,-2.407333,-0.000010,1.628124,0.785398
2.467369,-0.000001,-0.792982,-0.000000,-2.407333,-0.000010,1.628124,0.785398
2.469368,-0.000001,-0.792982,-0.000000,-2.407333,-0.000010,1.628124,0.785398
2.471348,-0.000001,-0.792982,-0.000000,-2.407333,-0.000010,1.628124,0.785398
2.473394,-0.000001,-0.792982,-0.000000,-2.407333,-0.000010,1.628124,0.785398
2.475352,-0.000001,-0.792982,-0.000000,-2.407333,-0.000010,1.628124,0.785398
2.477386,-0.000001,-0.792982,-0.000000,-2.407333,-0.000010,1.628124,0.785398
2.479355,-0.000001,-0.792982,-0.000000,-2.407333,-0.000010,1.628124,0.785398
2.481383,-0.000001,-0.792982,-0.000000,-2.407333,-0.000010,1.628124,0.785398
2.483378,-0.000001,-0.792982,-0.000000,-2.407333,-0.000010,1.628124,0.785398
2.485414,-0.000001,-0.792982,-0.000000,-2.407333,-0.000010,1.628124,0.785398
2.487384,-0.000001,-0.792981,-0.000000,-2.407333,-0.000010,1.628124,0.785398
2.489382,-0.000001,-0.792981,-0.000000,-2.407333,-0.000010,1.628124,0.785398
2.491381,-0.000001,-0.792981,-0.000000,-2.407333,-0.000010,1.628124,0.785398
2.493358,-0.000001,-0.792980,-0.000000,-2.407333,-0.000010,1.628124,0.785398
2.495364,-0.000001,-0.792979,-0.000000,-2.407333,-0.000010,1.628124,0.785398
2.497452,-0.000001,-0.792979,-0.000000,-2.407333,-0.000010,1.628124,0.785398
2.499377,-0.000001,-0.792978,-0.000000,-2.407333,-0.000010,1.628124,0.785398
2.501350,-0.000001,-0.792977,-0.000000,-2.407333,-0.000010,1.628124,0.785398
2.503349,-0.000001,-0.792976,-0.000000,-2.407333,-0.000010,1.628124,0.785398
2.505347,-0.000001,-0.792974,-0.000000,-2.407333,-0.000010,1.628124,0.785398
2.507347,-0.000001,-0.792973,-0.000000,-2.407333,-0.000010,1.628124,0.785398
2.509347,-0.000001,-0.792972,-0.000000,-2.407333,-0.000010,1.628124,0.785398
2.511391,-0.000001,-0.792970,-0.000000,-2.407333,-0.000010,1.628124,0.785398
2.513514,-0.000001,-0.792968,-0.000000,-2.407333,-0.000010,1.628124,0.785398
2.515489,-0.000001,-0.792966,-0.000000,-2.407333,-0.000010,1.628124,0.785398
2.517350,-0.000001,-0.792964,-0.000000,-2.407333,-0.000010,1.628124,0.785398
2.519351,-0.000001,-0.792961,-0.000000,-2.407333,-0.000010,1.628124,0.785398
2.521349,-0.000001,-0.792959,-0.000000,-2.407333,-0.000010,1.628124,0.785398
2.523513,-0.000001,-0.792956,-0.000000,-2.407333,-0.000010,1.628124,0.785398
2.525336,-0.000001,-0.792953,-0.000000,-2.407333,-0.000010,1.628124,0.785398
2.527378,-0.000001,-0.792949,-0.000000,-2.407333,-0.000010,1.628124,0.785398
2.529379,-0.000001,-0.792946,-0.000000,-2.407333,-0.000010,1.628124,0.785398
2.531330,-0.000001,-0.792944,-0.000000,-2.407333,-0.000010,1.628124,0.785398
2.533325,-0.000001,-0.792940,-0.000000,-2.407333,-0.000010,1.628124,0.785398
2.535365,-0.000001,-0.792936,-0.000000,-2.407333,-0.000010,1.628124,0.785398
2.537307,-0.000001,-0.792931,-0.000000,-2.407333,-0.000010,1.628124,0.785398
2.539500,-0.000001,-0.792924,-0.000000,-2.407333,-0.000010,1.628124,0.785398
2.541355,-0.000001,-0.792921,-0.000000,-2.407333,-0.000010,1.628124,0.785398
2.543364,-0.000001,-0.792916,-0.000000,-2.407333,-0.000010,1.628124,0.785398
2.545360,-0.000001,-0.792910,-0.000000,-2.407333,-0.000010,1.628124,0.785398
2.547379,-0.000001,-0.792904,-0.000000,-2.407333,-0.000010,1.628124,0.785398
2.549395,-0.000001,-0.792897,-0.000000,-2.407333,-0.000010,1.628124,0.785398
2.551388,-0.000001,-0.792891,-0.000000,-2.407333,-0.000010,1.628124,0.785398
2.553381,-0.000001,-0.792883,-0.000000,-2.407333,-0.000010,1.628124,0.785398
2.555399,-0.000001,-0.792876,-0.000000,-2.407333,-0.000010,1.628124,0.785398
2.557431,-0.000001,-0.792868,-0.000000,-2.407333,-0.000010,1.628124,0.785398
2.559380,-0.000001,-0.792859,-0.000000,-2.407333,-0.000010,1.628124,0.785398
2.561412,-0.000001,-0.792851,-0.000000,-2.407333,-0.000010,1.628124,0.785398
2.563387,-0.000001,-0.792841,-0.000000,-2.407333,-0.000010,1.628126,0.785398
2.565385,-0.000001,-0.792832,-0.000000,-2.407333,-0.000010,1.628128,0.785398
2.567435,-0.000001,-0.792822,-0.000000,-2.407333,-0.000010,1.628131,0.785398
2.569414,-0.000001,-0.792811,-0.000000,-2.407333,-0.000010,1.628136,0.785398
2.571376,-0.000001,-0.792800,-0.000000,-2.407333,-0.000010,1.628143,0.785398
2.573385,-0.000001,-0.792788,-0.000000,-2.407333,-0.000010,1.628152,0.785398
2.575392,-0.000001,-0.792776,-0.000000,-2.407333,-0.000010,1.628163,0.785398
2.577385,-0.000001,-0.792764,-0.000000,-2.407333,-0.000010,1.628177,0.785398
2.579386,-0.000001,-0.792750,-0.000000,-2.407333,-0.000010,1.628193,0.785398
2.581395,-0.000001,-0.792736,-0.000000,-2.407333,-0.000010,1.628213,0.785398
2.583352,-0.000001,-0.792722,-0.000000,-2.407333,-0.000010,1.628235,0.785398
2.585367,-0.000001,-0.792707,-0.000000,-2.407333,-0.000010,1.628261,0.785398
2.587376,-0.000001,-0.792691,-0.000000,-2.407333,-0.000010,1.628291,0.785398
2.589380,-0.000001,-0.792675,-0.000000,-2.407333,-0.000010,1.628325,0.785398
2.591364,-0.000001,-0.792658,-0.000000,-2.407333,-0.000010,1.628363,0.785398
2.593415,-0.000001,-0.792640,-0.000000,-2.407333,-0.000010,1.628405,0.785398
2.595389,-0.000001,-0.792622,-0.000000,-2.407333,-0.000010,1.628451,0.785398
2.597375,-0.000001,-0.792602,-0.000000,-2.407333,-0.000010,1.628502,0.785398
2.599387,-0.000001,-0.792583,-0.000000,-2.407333,-0.000010,1.628557,0.785398
2.601385,-0.000001,-0.792562,-0.000000,-2.407333,-0.000010,1.628618,0.785398
2.603356,-0.000001,-0.792541,-0.000000,-2.407333,-0.000010,1.628683,0.785398
2.605370,-0.000001,-0.792519,-0.000000,-2.407333,-0.000010,1.628753,0.785398
2.607375,-0.000001,-0.792496,-0.000000,-2.407333,-0.000010,1.628829,0.785398
