VaruniBuereddy/DMP-LfD-MPC/V_results/franka_joint_positions.csv
time,q1,q2,q3,q4,q5,q6,q7
0.010730,-0.000001,-0.781054,0.000000,-2.434785,-0.000010,1.571040,0.785398
0.012749,-0.000001,-0.781054,0.000000,-2.434785,-0.000010,1.571040,0.785398
0.014662,-0.000001,-0.781054,0.000000,-2.434785,-0.000010,1.571050,0.785398
0.016717,-0.000001,-0.781054,0.000000,-2.434785,-0.000010,1.571098,0.785398
0.018849,-0.000001,-0.781053,0.000000,-2.434785,-0.000010,1.571184,0.785398
0.020700,-0.000001,-0.781052,0.000000,-2.434785,-0.000010,1.571307,0.785398
0.022617,-0.000001,-0.781051,0.000000,-2.434785,-0.000010,1.571466,0.785398
0.024853,-0.000001,-0.781049,0.000000,-2.434785,-0.000010,1.571660,0.785398
0.026693,-0.000001,-0.781049,0.000000,-2.434785,-0.000010,1.571770,0.785398
0.028666,-0.000001,-0.781047,0.000000,-2.434785,-0.000010,1.572015,0.785398
0.030739,-0.000001,-0.781045,0.000000,-2.434785,-0.000010,1.572294,0.785398
0.032707,-0.000001,-0.781043,0.000000,-2.434785,-0.000010,1.572604,0.785398
0.034729,-0.000001,-0.781041,0.000000,-2.434785,-0.000010,1.572946,0.785398
0.036750,-0.000001,-0.781039,0.000000,-2.434785,-0.000010,1.573319,0.785398
0.038725,-0.000001,-0.781036,0.000000,-2.434785,-0.000010,1.573721,0.785398
0.040710,-0.000001,-0.781034,0.000000,-2.434785,-0.000010,1.574151,0.785398
0.042708,-0.000001,-0.781032,0.000000,-2.434785,-0.000010,1.574610,0.785398
0.044793,-0.000001,-0.781029,0.000000,-2.434785,-0.000010,1.575094,0.785398
0.046710,-0.000001,-0.781027,0.000000,-2.434785,-0.000010,1.575605,0.785398
0.048711,-0.000001,-0.781025,0.000000,-2.434785,-0.000010,1.576140,0.785398
0.050704,-0.000001,-0.781023,0.000000,-2.434785,-0.000010,1.576699,0.785398
0.052699,-0.000001,-0.781021,0.000000,-2.434785,-0.000010,1.577281,0.785398
0.054701,-0.000001,-0.781019,0.000000,-2.434785,-0.000010,1.577884,0.785398
0.056699,-0.000001,-0.781017,0.000000,-2.434785,-0.000010,1.578509,0.785398
0.058721,-0.000001,-0.781015,0.000000,-2.434785,-0.000010,1.579153,0.785398
0.060685,-0.000001,-0.781014,0.000000,-2.434785,-0.000010,1.579816,0.785398
0.062701,-0.000001,-0.781013,0.000000,-2.434785,-0.000010,1.580498,0.785398
0.064670,-0.000001,-0.781012,0.000000,-2.434785,-0.000010,1.581196,0.785398
0.066664,-0.000001,-0.781012,0.000000,-2.434785,-0.000010,1.581910,0.785398
0.068663,-0.000001,-0.781012,0.000000,-2.434785,-0.000010,1.582639,0.785398
0.070705,-0.000001,-0.781012,0.000000,-2.434785,-0.000010,1.583383,0.785398
0.072705,-0.000001,-0.781012,0.000000,-2.434785,-0.000010,1.584139,0.785398
0.074678,-0.000001,-0.781012,0.000000,-2.434785,-0.000010,1.584907,0.785398
0.076661,-0.000001,-0.781012,0.000000,-2.434784,-0.000010,1.585686,0.785398
0.078662,-0.000001,-0.781012,-0.000000,-2.434783,-0.000010,1.586475,0.785398
0.080667,-0.000001,-0.781012,-0.000000,-2.434782,-0.000010,1.587272,0.785398
0.082670,-0.000001,-0.781012,-0.000000,-2.434780,-0.000010,1.588077,0.785398
0.084663,-0.000001,-0.781012,-0.000000,-2.434777,-0.000010,1.588889,0.785398
0.086663,-0.000001,-0.781012,-0.000000,-2.434774,-0.000010,1.589707,0.785398
0.088664,-0.000001,-0.781012,-0.000000,-2.434770,-0.000010,1.590530,0.785398
0.090664,-0.000001,-0.781012,-0.000000,-2.434765,-0.000010,1.591356,0.785398
0.092636,-0.000001,-0.781012,-0.000000,-2.434759,-0.000010,1.592185,0.785398
0.094721,-0.000001,-0.781012,-0.000000,-2.434752,-0.000010,1.593016,0.785398
0.096656,-0.000001,-0.781012,-0.000000,-2.434745,-0.000010,1.593848,0.785398
0.098662,-0.000001,-0.781012,-0.000000,-2.434736,-0.000010,1.594680,0.785398
0.100667,-0.000001,-0.781012,-0.000000,-2.434725,-0.000010,1.595511,0.785398
0.102845,-0.000001,-0.781012,-0.000000,-2.434714,-0.000010,1.596341,0.785398
0.104632,-0.000001,-0.781012,-0.000000,-2.434701,-0.000010,1.597168,0.785398
0.106819,-0.000001,-0.781012,-0.000000,-2.434687,-0.000010,1.597993,0.785398
0.108802,-0.000001,-0.781012,-0.000000,-2.434671,-0.000010,1.598813,0.785398
0.110703,-0.000001,-0.781012,-0.000000,-2.434654,-0.000010,1.599628,0.785398
0.112689,-0.000001,-0.781012,-0.000000,-2.434635,-0.000010,1.600437,0.785398
0.114711,-0.000001,-0.781012,-0.000000,-2.434614,-0.000010,1.601241,0.785398
0.116613,-0.000001,-0.781012,-0.000000,-2.434592,-0.000010,1.602037,0.785398
0.118732,-0.000001,-0.781012,-0.000000,-2.434568,-0.000010,1.602826,0.785398
0.120732,-0.000001,-0.781012,-0.000000,-2.434542,-0.000010,1.603606,0.785398
0.122756,-0.000001,-0.781012,-0.000000,-2.434514,-0.000010,1.604378,0.785398
0.124750,-0.000001,-0.781012,-0.000000,-2.434500,-0.000010,1.604760,0.785398
0.126750,-0.000001,-0.781012,-0.000000,-2.434469,-0.000010,1.605517,0.785398
0.128645,-0.000001,-0.781012,-0.000000,-2.434436,-0.000010,1.606264,0.785398
0.130746,-0.000001,-0.781012,-0.000000,-2.434401,-0.000010,1.607000,0.785398
0.132700,-0.000001,-0.781012,-0.000000,-2.434365,-0.000010,1.607724,0.785398
0.134706,-0.000001,-0.781012,-0.000000,-2.434326,-0.000010,1.608437,0.785398
0.136679,-0.000001,-0.781012,-0.000000,-2.434285,-0.000010,1.609137,0.785398
0.138712,-0.000001,-0.781012,-0.000000,-2.434241,-0.000010,1.609825,0.785398
0.140693,-0.000001,-0.781012,-0.000000,-2.434196,-0.000010,1.610499,0.785398
0.142688,-0.000001,-0.781012,-0.000000,-2.434148,-0.000010,1.611159,0.785398
0.144712,-0.000001,-0.781012,-0.000000,-2.434097,-0.000010,1.611806,0.785398
0.146719,-0.000001,-0.781012,-0.000000,-2.434045,-0.000010,1.612437,0.785398
0.148717,-0.000001,-0.781012,-0.000000,-2.433990,-0.000010,1.613054,0.785398
0.150716,-0.000001,-0.781012,-0.000000,-2.433933,-0.000010,1.613656,0.785398
0.152670,-0.000001,-0.781012,-0.000000,-2.433873,-0.000010,1.614241,0.785398
0.154702,-0.000001,-0.781012,-0.000000,-2.433810,-0.000010,1.614811,0.785398
0.156719,-0.000001,-0.781012,-0.000000,-2.433746,-0.000010,1.615365,0.785398
0.158698,-0.000001,-0.781012,-0.000000,-2.433678,-0.000010,1.615901,0.785398
0.160682,-0.000001,-0.781012,-0.000000,-2.433608,-0.000010,1.616421,0.785398
0.162662,-0.000001,-0.781012,-0.000000,-2.433536,-0.000010,1.616924,0.785398
0.164713,-0.000001,-0.781012,-0.000000,-2.433461,-0.000010,1.617410,0.785398
0.166673,-0.000001,-0.781012,-0.000000,-2.433383,-0.000010,1.617878,0.785398
0.168699,-0.000001,-0.781012,-0.000000,-2.433303,-0.000010,1.618328,0.785398
0.170699,-0.000001,-0.781012,-0.000000,-2.433220,-0.000010,1.618761,0.785398
0.172669,-0.000001,-0.781012,-0.000000,-2.433135,-0.000010,1.619176,0.785398
0.174701,-0.000001,-0.781012,-0.000000,-2.433047,-0.000010,1.619573,0.785398
0.176703,-0.000001,-0.781012,-0.000000,-2.432956,-0.000010,1.619952,0.785398
0.178703,-0.000001,-0.781012,-0.000000,-2.432863,-0.000010,1.620313,0.785398
0.180668,-0.000001,-0.781012,-0.000000,-2.432767,-0.000010,1.620656,0.785398
0.182686,-0.000001,-0.781012,-0.000000,-2.432668,-0.000010,1.620980,0.785398
0.184731,-0.000001,-0.781012,-0.000000,-2.432567,-0.000010,1.621287,0.785398
0.186694,-0.000001,-0.781012,-0.000000,-2.432463,-0.000010,1.621575,0.785398
0.188723,-0.000001,-0.781012,-0.000000,-2.432356,-0.000010,1.621845,0.785398
0.190728,-0.000001,-0.781012,-0.000000,-2.432247,-0.000010,1.622097,0.785398
0.192665,-0.000001,-0.781012,-0.000000,-2.432136,-0.000010,1.622331,0.785398
0.194698,-0.000001,-0.781012,-0.000000,-2.432021,-0.000010,1.622547,0.785398
0.196696,-0.000001,-0.781012,-0.000000,-2.431904,-0.000010,1.622745,0.785398
0.198722,-0.000001,-0.781012,-0.000000,-2.431785,-0.000010,1.622925,0.785398
0.200696,-0.000001,-0.781012,-0.000000,-2.431663,-0.000010,1.623088,0.785398
0.202697,-0.000001,-0.781012,-0.000000,-2.431538,-0.000010,1.623233,0.785398
0.204669,-0.000001,-0.781012,-0.000000,-2.431411,-0.000010,1.623361,0.785398
0.206695,-0.000001,-0.781012,-0.000000,-2.431282,-0.000010,1.623471,0.785398
0.208699,-0.000001,-0.781012,-0.000000,-2.431150,-0.000010,1.623564,0.785398
0.210664,-0.000001,-0.781012,-0.000000,-2.431015,-0.000010,1.623640,0.785398
0.212682,-0.000001,-0.781012,-0.000000,-2.430878,-0.000010,1.623700,0.785398
0.214664,-0.000001,-0.781012,-0.000000,-2.430739,-0.000010,1.623743,0.785398
0.216663,-0.000001,-0.781012,-0.000000,-2.430597,-0.000010,1.623769,0.785398
0.218746,-0.000001,-0.781012,-0.000000,-2.430453,-0.000010,1.623780,0.785398
0.220663,-0.000001,-0.781012,-0.000000,-2.430307,-0.000010,1.623780,0.785398
0.222686,-0.000001,-0.781012,-0.000000,-2.430161,-0.000010,1.623780,0.785398
0.224665,-0.000001,-0.781012,-0.000000,-2.430014,-0.000010,1.623780,0.785398
0.226663,-0.000001,-0.781012,-0.000000,-2.429868,-0.000010,1.623780,0.785398
0.228721,-0.000001,-0.781012,-0.000000,-2.429720,-0.000010,1.623780,0.785398
0.230687,-0.000001,-0.781012,-0.000000,-2.429573,-0.000010,1.623780,0.785398
0.232684,-0.000001,-0.781012,-0.000000,-2.429425,-0.000010,1.623780,0.785398
0.234665,-0.000001,-0.781012,-0.000000,-2.429277,-0.000010,1.623780,0.785398
0.236745,-0.000001,-0.781012,-0.000000,-2.429129,-0.000010,1.623780,0.785398
0.238643,-0.000001,-0.781012,-0.000000,-2.428980,-0.000010,1.623780,0.785398
0.240661,-0.000001,-0.781012,-0.000000,-2.428832,-0.000010,1.623780,0.785398
0.242694,-0.000001,-0.781012,-0.000000,-2.428683,-0.000010,1.623780,0.785398
0.244779,-0.000001,-0.781012,-0.000000,-2.428533,-0.000010,1.623780,0.785398
0.246671,-0.000001,-0.781012,-0.000000,-2.428384,-0.000010,1.623780,0.785398
0.248814,-0.000001,-0.781012,-0.000000,-2.428234,-0.000010,1.623780,0.785398
0.250755,-0.000001,-0.781012,-0.000000,-2.428159,-0.000010,1.623780,0.785398
0.252732,-0.000001,-0.781012,-0.000000,-2.428009,-0.000010,1.623780,0.785398
0.254674,-0.000001,-0.781012,-0.000000,-2.427859,-0.000010,1.623780,0.785398
0.256631,-0.000001,-0.781012,-0.000000,-2.427709,-0.000010,1.623780,0.785398
0.258719,-0.000001,-0.781012,-0.000000,-2.427558,-0.000010,1.623780,0.785398
0.260704,-0.000001,-0.781012,-0.000000,-2.427408,-0.000010,1.623780,0.785398
0.262702,-0.000001,-0.781012,-0.000000,-2.427332,-0.000010,1.623780,0.785398
0.264677,-0.000001,-0.781012,-0.000000,-2.427106,-0.000010,1.623780,0.785398
0.266690,-0.000001,-0.781012,-0.000000,-2.426955,-0.000010,1.623780,0.785398
0.268702,-0.000001,-0.781012,-0.000000,-2.426804,-0.000010,1.623780,0.785398
0.270670,-0.000001,-0.781012,-0.000000,-2.426653,-0.000010,1.623780,0.785398
0.272701,-0.000001,-0.781012,-0.000000,-2.426501,-0.000010,1.623780,0.785398
0.274699,-0.000001,-0.781012,-0.000000,-2.426350,-0.000010,1.623780,0.785398
0.276698,-0.000001,-0.781012,-0.000000,-2.426199,-0.000010,1.623780,0.785398
0.278738,-0.000001,-0.781012,-0.000000,-2.426047,-0.000010,1.623780,0.785398
0.280731,-0.000001,-0.781012,-0.000000,-2.425895,-0.000010,1.623780,0.785398
0.282699,-0.000001,-0.781012,-0.000000,-2.425744,-0.000010,1.623780,0.785398
0.284741,-0.000001,-0.781012,-0.000000,-2.425592,-0.000010,1.623780,0.785398
0.286702,-0.000001,-0.781012,-0.000000,-2.425440,-0.000010,1.623780,0.785398
0.288696,-0.000001,-0.781012,-0.000000,-2.425289,-0.000010,1.623780,0.785398
0.290669,-0.000001,-0.781012,-0.000000,-2.425137,-0.000010,1.623780,0.785398
0.292701,-0.000001,-0.781012,-0.000000,-2.424985,-0.000010,1.623780,0.785398
0.294695,-0.000001,-0.781012,-0.000000,-2.424834,-0.000010,1.623780,0.785398
0.296666,-0.000001,-0.781012,-0.000000,-2.424682,-0.000010,1.623780,0.785398
0.298700,-0.000001,-0.781012,-0.000000,-2.424531,-0.000010,1.623780,0.785398
0.300699,-0.000001,-0.781012,-0.000000,-2.424379,-0.000010,1.623780,0.785398
0.302706,-0.000001,-0.781012,-0.000000,-2.424228,-0.000010,1.623780,0.785398
0.304666,-0.000001,-0.781012,-0.000000,-2.424076,-0.000010,1.623780,0.785398
0.306686,-0.000001,-0.781012,-0.000000,-2.423925,-0.000010,1.623780,0.785398
0.308688,-0.000001,-0.781012,-0.000000,-2.423774,-0.000010,1.623780,0.785398
0.310706,-0.000001,-0.781012,-0.000000,-2.423623,-0.000010,1.623780,0.785398
0.312704,-0.000001,-0.781012,-0.000000,-2.423471,-0.000010,1.623780,0.785398
0.314699,-0.000001,-0.781012,-0.000000,-2.423321,-0.000010,1.623780,0.785398
0.316740,-0.000001,-0.781012,-0.000000,-2.423170,-0.000010,1.623780,0.785398
0.318709,-0.000001,-0.781012,-0.000000,-2.423019,-0.000010,1.623780,0.785398
0.320733,-0.000001,-0.781012,-0.000000,-2.422869,-0.000010,1.623780,0.785398
0.322713,-0.000001,-0.781012,-0.000000,-2.422718,-0.000010,1.623780,0.785398
0.324688,-0.000001,-0.781012,-0.000000,-2.422568,-0.000010,1.623780,0.785398
0.326687,-0.000001,-0.781012,-0.000000,-2.422418,-0.000010,1.623780,0.785398
0.328653,-0.000001,-0.781012,-0.000000,-2.422268,-0.000010,1.623780,0.785398
0.330689,-0.000001,-0.781012,-0.000000,-2.422118,-0.000010,1.623780,0.785398
0.332744,-0.000001,-0.781012,-0.000000,-2.421969,-0.000010,1.623780,0.785398
0.334686,-0.000001,-0.781012,-0.000000,-2.421820,-0.000010,1.623780,0.785398
0.336699,-0.000001,-0.781012,-0.000000,-2.421671,-0.000010,1.623780,0.785398
0.338724,-0.000001,-0.781012,-0.000000,-2.421522,-0.000010,1.623780,0.785398
0.340759,-0.000001,-0.781012,-0.000000,-2.421373,-0.000010,1.623780,0.785398
0.342728,-0.000001,-0.781012,-0.000000,-2.421225,-0.000010,1.623780,0.785398
0.344672,-0.000001,-0.781012,-0.000000,-2.421076,-0.000010,1.623780,0.785398
0.346702,-0.000001,-0.781012,-0.000000,-2.420929,-0.000010,1.623780,0.785398
0.348703,-0.000001,-0.781012,-0.000000,-2.420781,-0.000010,1.623780,0.785398
0.350710,-0.000001,-0.781012,-0.000000,-2.420634,-0.000010,1.623780,0.785398
0.352727,-0.000001,-0.781012,-0.000000,-2.420486,-0.000010,1.623780,0.785398
0.354686,-0.000001,-0.781012,-0.000000,-2.420340,-0.000010,1.623780,0.785398
0.356720,-0.000001,-0.781012,-0.000000,-2.420193,-0.000010,1.623780,0.785398
0.358665,-0.000001,-0.781012,-0.000000,-2.420047,-0.000010,1.623780,0.785398
0.360706,-0.000001,-0.781012,-0.000000,-2.419901,-0.000010,1.623780,0.785398
0.362723,-0.000001,-0.781012,-0.000000,-2.419755,-0.000010,1.623780,0.785398
0.364687,-0.000001,-0.781012,-0.000000,-2.419610,-0.000010,1.623780,0.785398
0.366699,-0.000001,-0.781012,-0.000000,-2.419465,-0.000010,1.623780,0.785398
0.368677,-0.000001,-0.781012,-0.000000,-2.419321,-0.000010,1.623780,0.785398
0.370667,-0.000001,-0.781012,-0.000000,-2.419176,-0.000010,1.623780,0.785398
0.372669,-0.000001,-0.781012,-0.000000,-2.419032,-0.000010,1.623780,0.785398
0.374689,-0.000001,-0.781012,-0.000000,-2.418889,-0.000010,1.623780,0.785398
0.376716,-0.000001,-0.781012,-0.000000,-2.418746,-0.000010,1.623780,0.785398
0.378696,-0.000001,-0.781012,-0.000000,-2.418603,-0.000010,1.623780,0.785398
0.380712,-0.000001,-0.781012,-0.000000,-2.418461,-0.000010,1.623780,0.785398
0.382669,-0.000001,-0.781012,-0.000000,-2.418319,-0.000010,1.623780,0.785398
0.384700,-0.000001,-0.781012,-0.000000,-2.418177,-0.000010,1.623780,0.785398
0.386673,-0.000001,-0.781012,-0.000000,-2.418036,-0.000010,1.623780,0.785398
0.388665,-0.000001,-0.781012,-0.000000,-2.417895,-0.000010,1.623780,0.785398
0.390700,-0.000001,-0.781012,-0.000000,-2.417755,-0.000010,1.623780,0.785398
0.392698,-0.000001,-0.781012,-0.000000,-2.417615,-0.000010,1.623780,0.785398
0.394741,-0.000001,-0.781012,-0.000000,-2.417475,-0.000010,1.623780,0.785398
0.396687,-0.000001,-0.781012,-0.000000,-2.417336,-0.000010,1.623780,0.785398
0.398684,-0.000001,-0.781012,-0.000000,-2.417197,-0.000010,1.623780,0.785398
0.400708,-0.000001,-0.781012,-0.000000,-2.417059,-0.000010,1.623780,0.785398
0.402664,-0.000001,-0.781012,-0.000000,-2.416922,-0.000010,1.623780,0.785398
0.404698,-0.000001,-0.781012,-0.000000,-2.416784,-0.000010,1.623780,0.785398
0.406696,-0.000001,-0.781012,-0.000000,-2.416647,-0.000010,1.623780,0.785398
0.408726,-0.000001,-0.781012,-0.000000,-2.416511,-0.000010,1.623780,0.785398
0.410698,-0.000001,-0.781012,-0.000000,-2.416375,-0.000010,1.623780,0.785398
0.412696,-0.000001,-0.781012,-0.000000,-2.416240,-0.000010,1.623780,0.785398
0.414698,-0.000001,-0.781012,-0.000000,-2.416105,-0.000010,1.623780,0.785398
0.416698,-0.000001,-0.781012,-0.000000,-2.415971,-0.000010,1.623780,0.785398
0.418697,-0.000001,-0.781012,-0.000000,-2.415837,-0.000010,1.623780,0.785398
0.420665,-0.000001,-0.781012,-0.000000,-2.415704,-0.000010,1.623780,0.785398
0.422684,-0.000001,-0.781012,-0.000000,-2.415571,-0.000010,1.623780,0.785398
0.424723,-0.000001,-0.781012,-0.000000,-2.415439,-0.000010,1.623780,0.785398
0.426696,-0.000001,-0.781012,-0.000000,-2.415307,-0.000010,1.623780,0.785398
0.428757,-0.000001,-0.781012,-0.000000,-2.415176,-0.000010,1.623780,0.785398
0.430682,-0.000001,-0.781012,-0.000000,-2.415045,-0.000010,1.623780,0.785398
0.432733,-0.000001,-0.781012,-0.000000,-2.414915,-0.000010,1.623780,0.785398
0.434686,-0.000001,-0.781012,-0.000000,-2.414786,-0.000010,1.623780,0.785398
0.436693,-0.000001,-0.781013,-0.000000,-2.414657,-0.000010,1.623780,0.785398
0.438696,-0.000001,-0.781013,-0.000000,-2.414529,-0.000010,1.623780,0.785398
0.440667,-0.000001,-0.781013,-0.000000,-2.414401,-0.000010,1.623780,0.785398
0.442688,-0.000001,-0.781013,-0.000000,-2.414274,-0.000010,1.623780,0.785398
0.444686,-0.000001,-0.781014,-0.000000,-2.414147,-0.000010,1.623780,0.785398
0.446690,-0.000001,-0.781014,-0.000000,-2.414022,-0.000010,1.623780,0.785398
0.448688,-0.000001,-0.781015,-0.000000,-2.413896,-0.000010,1.623780,0.785398
0.450725,-0.000001,-0.781015,-0.000000,-2.413772,-0.000010,1.623780,0.785398
0.452685,-0.000001,-0.781016,-0.000000,-2.413648,-0.000010,1.623780,0.785398
0.454684,-0.000001,-0.781016,-0.000000,-2.413525,-0.000010,1.623780,0.785398
0.456684,-0.000001,-0.781017,-0.000000,-2.413402,-0.000010,1.623780,0.785398
0.458694,-0.000001,-0.781018,-0.000000,-2.413280,-0.000010,1.623780,0.785398
0.460684,-0.000001,-0.781019,-0.000000,-2.413159,-0.000010,1.623780,0.785398
0.462682,-0.000001,-0.781020,-0.000000,-2.413038,-0.000010,1.623780,0.785398
0.464754,-0.000001,-0.781021,-0.000000,-2.412918,-0.000010,1.623780,0.785398
0.466665,-0.000001,-0.781022,-0.000000,-2.412799,-0.000010,1.623780,0.785398
0.468704,-0.000001,-0.781023,-0.000000,-2.412681,-0.000010,1.623780,0.785398
0.470702,-0.000001,-0.781025,-0.000000,-2.412563,-0.000010,1.623780,0.785398
0.472618,-0.000001,-0.781026,-0.000000,-2.412446,-0.000010,1.623780,0.785398
0.474686,-0.000001,-0.781028,-0.000000,-2.412329,-0.000010,1.623780,0.785398
0.476768,-0.000001,-0.781030,-0.000000,-2.412214,-0.000010,1.623780,0.785398
0.478656,-0.000001,-0.781031,-0.000000,-2.412156,-0.000010,1.623780,0.785398
0.480801,-0.000001,-0.781033,-0.000000,-2.411985,-0.000010,1.623780,0.785398
0.482712,-0.000001,-0.781034,-0.000000,-2.411928,-0.000010,1.623780,0.785398
0.484666,-0.000001,-0.781036,-0.000000,-2.411815,-0.000010,1.623780,0.785398
0.486717,-0.000001,-0.781039,-0.000000,-2.411703,-0.000010,1.623780,0.785398
0.488678,-0.000001,-0.781041,-0.000000,-2.411591,-0.000010,1.623780,0.785398
0.490698,-0.000001,-0.781044,-0.000000,-2.411481,-0.000010,1.623780,0.785398
0.492696,-0.000001,-0.781046,-0.000000,-2.411371,-0.000010,1.623780,0.785398
0.494672,-0.000001,-0.781049,-0.000000,-2.411262,-0.000010,1.623780,0.785398
0.496709,-0.000001,-0.781052,-0.000000,-2.411153,-0.000010,1.623780,0.785398
0.498703,-0.000001,-0.781055,-0.000000,-2.411046,-0.000010,1.623780,0.785398
0.500729,-0.000001,-0.781058,-0.000000,-2.410939,-0.000010,1.623780,0.785398
0.502702,-0.000001,-0.781061,-0.000000,-2.410833,-0.000010,1.623780,0.785398
0.504708,-0.000001,-0.781065,-0.000000,-2.410728,-0.000010,1.623780,0.785398
0.506705,-0.000001,-0.781068,-0.000000,-2.410623,-0.000010,1.623780,0.785398
0.508714,-0.000001,-0.781072,-0.000000,-2.410520,-0.000010,1.623780,0.785398
0.510698,-0.000001,-0.781076,-0.000000,-2.410417,-0.000010,1.623780,0.785398
0.512726,-0.000001,-0.781080,-0.000000,-2.410315,-0.000010,1.623780,0.785398
0.514698,-0.000001,-0.781085,-0.000000,-2.410214,-0.000010,1.623780,0.785398
0.516700,-0.000001,-0.781089,-0.000000,-2.410114,-0.000010,1.623780,0.785398
0.518718,-0.000001,-0.781094,-0.000000,-2.410014,-0.000010,1.623780,0.785398
0.520726,-0.000001,-0.781098,-0.000000,-2.409916,-0.000010,1.623780,0.785398
0.522693,-0.000001,-0.781103,-0.000000,-2.409818,-0.000010,1.623780,0.785398
0.524726,-0.000001,-0.781109,-0.000000,-2.409721,-0.000010,1.623780,0.785398
0.526666,-0.000001,-0.781114,-0.000000,-2.409625,-0.000010,1.623780,0.785398
0.528707,-0.000001,-0.781119,-0.000000,-2.409530,-0.000010,1.623780,0.785398
0.530684,-0.000001,-0.781125,-0.000000,-2.409436,-0.000010,1.623780,0.785398
0.532665,-0.000001,-0.781131,-0.000000,-2.409342,-0.000010,1.623780,0.785398
0.534677,-0.000001,-0.781137,-0.000000,-2.409250,-0.000010,1.623780,0.785398
0.536664,-0.000001,-0.781144,-0.000000,-2.409158,-0.000010,1.623780,0.785398
0.538662,-0.000001,-0.781150,-0.000000,-2.409068,-0.000010,1.623780,0.785398
0.540801,-0.000001,-0.781157,-0.000000,-2.408978,-0.000010,1.623780,0.785398
0.542678,-0.000001,-0.781164,-0.000000,-2.408889,-0.000010,1.623780,0.785398
0.544662,-0.000001,-0.781171,-0.000000,-2.408801,-0.000010,1.623780,0.785398
0.546829,-0.000001,-0.781178,-0.000000,-2.408714,-0.000010,1.623780,0.785398
0.548779,-0.000001,-0.781186,-0.000000,-2.408627,-0.000010,1.623780,0.785398
0.550737,-0.000001,-0.781194,-0.000000,-2.408542,-0.000010,1.623780,0.785398
0.552704,-0.000001,-0.781198,-0.000000,-2.408500,-0.000010,1.623780,0.785398
0.554696,-0.000001,-0.781206,-0.000000,-2.408416,-0.000010,1.623780,0.785398
0.556715,-0.000001,-0.781214,-0.000000,-2.408333,-0.000010,1.623780,0.785398
0.558699,-0.000001,-0.781223,-0.000000,-2.408251,-0.000010,1.623780,0.785398
0.560667,-0.000001,-0.781232,-0.000000,-2.408170,-0.000010,1.623780,0.785398
0.562694,-0.000001,-0.781236,-0.000000,-2.408129,-0.000010,1.623780,0.785398
0.564701,-0.000001,-0.781250,-0.000000,-2.408010,-0.000010,1.623780,0.785398
0.566689,-0.000001,-0.781259,-0.000000,-2.407932,-0.000010,1.623780,0.785398
0.568689,-0.000001,-0.781269,-0.000000,-2.407854,-0.000010,1.623780,0.785398
0.570705,-0.000001,-0.781279,-0.000000,-2.407778,-0.000010,1.623780,0.785398
0.572686,-0.000001,-0.781289,-0.000000,-2.407702,-0.000010,1.623780,0.785398
0.574683,-0.000001,-0.781300,-0.000000,-2.407628,-0.000010,1.623780,0.785398
0.576666,-0.000001,-0.781311,-0.000000,-2.407554,-0.000010,1.623780,0.785398
0.578676,-0.000001,-0.781322,-0.000000,-2.407481,-0.000010,1.623780,0.785398
0.580773,-0.000001,-0.781333,-0.000000,-2.407410,-0.000010,1.623780,0.785398
0.582711,-0.000001,-0.781344,-0.000000,-2.407339,-0.000010,1.623780,0.785398
0.584709,-0.000001,-0.781356,-0.000000,-2.407269,-0.000010,1.623780,0.785398
0.586668,-0.000001,-0.781368,-0.000000,-2.407200,-0.000010,1.623780,0.785398
0.588685,-0.000001,-0.781380,-0.000000,-2.407132,-0.000010,1.623780,0.785398
0.590688,-0.000001,-0.781393,-0.000000,-2.407065,-0.000010,1.623780,0.785398
0.592689,-0.000001,-0.781406,-0.000000,-2.406999,-0.000010,1.623780,0.785398
0.594687,-0.000001,-0.781419,-0.000000,-2.406934,-0.000010,1.623780,0.785398
0.596700,-0.000001,-0.781432,-0.000000,-2.406870,-0.000010,1.623780,0.785398
0.598701,-0.000001,-0.781446,-0.000000,-2.406807,-0.000010,1.623780,0.785398
0.600662,-0.000001,-0.781459,-0.000000,-2.406745,-0.000010,1.623780,0.785398
0.602731,-0.000001,-0.781474,-0.000000,-2.406683,-0.000010,1.623780,0.785398
0.604699,-0.000001,-0.781488,-0.000000,-2.406623,-0.000010,1.623780,0.785398
0.606709,-0.000001,-0.781503,-0.000000,-2.406564,-0.000010,1.623780,0.785398
0.608698,-0.000001,-0.781518,-0.000000,-2.406506,-0.000010,1.623780,0.785398
0.610700,-0.000001,-0.781533,-0.000000,-2.406448,-0.000010,1.623780,0.785398
0.612697,-0.000001,-0.781548,-0.000000,-2.406392,-0.000010,1.623780,0.785398
0.614701,-0.000001,-0.781564,-0.000000,-2.406337,-0.000010,1.623780,0.785398
0.616687,-0.000001,-0.781580,-0.000000,-2.406282,-0.000010,1.623780,0.785398
0.618726,-0.000001,-0.781597,-0.000000,-2.406229,-0.000010,1.623780,0.785398
0.620723,-0.000001,-0.781613,-0.000000,-2.406177,-0.000010,1.623780,0.785398
0.622668,-0.000001,-0.781630,-0.000000,-2.406125,-0.000010,1.623780,0.785398
0.624707,-0.000001,-0.781647,-0.000000,-2.406075,-0.000010,1.623780,0.785398
0.626687,-0.000001,-0.781665,-0.000000,-2.406025,-0.000010,1.623780,0.785398
0.628748,-0.000001,-0.781683,-0.000000,-2.405977,-0.000010,1.623780,0.785398
0.630690,-0.000001,-0.781701,-0.000000,-2.405929,-0.000010,1.623780,0.785398
0.632727,-0.000001,-0.781719,-0.000000,-2.405883,-0.000010,1.623780,0.785398
0.634725,-0.000001,-0.781738,-0.000000,-2.405837,-0.000010,1.623780,0.785398
0.636666,-0.000001,-0.781757,-0.000000,-2.405793,-0.000010,1.623780,0.785398
0.638699,-0.000001,-0.781776,-0.000000,-2.405749,-0.000010,1.623780,0.785398
0.640689,-0.000001,-0.781796,-0.000000,-2.405707,-0.000010,1.623780,0.785398
0.642704,-0.000001,-0.781816,-0.000000,-2.405665,-0.000010,1.623780,0.785398
0.644686,-0.000001,-0.781836,-0.000000,-2.405625,-0.000010,1.623780,0.785398
0.646695,-0.000001,-0.781857,-0.000000,-2.405585,-0.000010,1.623780,0.785398
0.648704,-0.000001,-0.781878,-0.000000,-2.405547,-0.000010,1.623780,0.785398
0.650667,-0.000001,-0.781899,-0.000000,-2.405509,-0.000010,1.623780,0.785398
0.652693,-0.000001,-0.781921,-0.000000,-2.405473,-0.000010,1.623780,0.785398
0.654699,-0.000001,-0.781942,-0.000000,-2.405437,-0.000010,1.623780,0.785398
0.656666,-0.000001,-0.781965,-0.000000,-2.405403,-0.000010,1.623780,0.785398
0.658696,-0.000001,-0.781987,-0.000000,-2.405369,-0.000010,1.623780,0.785398
0.660704,-0.000001,-0.782010,-0.000000,-2.405337,-0.000010,1.623780,0.785398
0.662669,-0.000001,-0.782033,-0.000000,-2.405305,-0.000010,1.623780,0.785398
0.664685,-0.000001,-0.782057,-0.000000,-2.405274,-0.000010,1.623780,0.785398
0.666699,-0.000001,-0.782080,-0.000000,-2.405245,-0.000010,1.623780,0.785398
0.668762,-0.000001,-0.782105,-0.000000,-2.405216,-0.000010,1.623780,0.785398
0.670664,-0.000001,-0.782129,-0.000000,-2.405189,-0.000010,1.623780,0.785398
0.672705,-0.000001,-0.782154,-0.000000,-2.405162,-0.000010,1.623780,0.785398
0.674664,-0.000001,-0.782179,-0.000000,-2.405136,-0.000010,1.623780,0.785398
0.676684,-0.000001,-0.782204,-0.000000,-2.405112,-0.000010,1.623780,0.785398
0.678684,-0.000001,-0.782230,-0.000000,-2.405088,-0.000010,1.623780,0.785398
0.680759,-0.000001,-0.782256,-0.000000,-2.405065,-0.000010,1.623780,0.785398
0.682670,-0.000001,-0.782283,-0.000000,-2.405044,-0.000010,1.623780,0.785398
0.684667,-0.000001,-0.782310,-0.000000,-2.405023,-0.000010,1.623780,0.785398
0.686665,-0.000001,-0.782337,-0.000000,-2.405003,-0.000010,1.623780,0.785398
0.688666,-0.000001,-0.782364,-0.000000,-2.404985,-0.000010,1.623780,0.785398
0.690633,-0.000001,-0.782392,-0.000000,-2.404967,-0.000010,1.623780,0.785398
0.692667,-0.000001,-0.782420,-0.000000,-2.404950,-0.000010,1.623780,0.785398
0.694694,-0.000001,-0.782449,-0.000000,-2.404934,-0.000010,1.623780,0.785398
0.696665,-0.000001,-0.782478,-0.000000,-2.404919,-0.000010,1.623780,0.785398
0.698874,-0.000001,-0.782507,-0.000000,-2.404905,-0.000010,1.623780,0.785398
0.700655,-0.000001,-0.782522,-0.000000,-2.404899,-0.000010,1.623780,0.785398
0.702893,-0.000001,-0.782566,-0.000000,-2.404881,-0.000010,1.623780,0.785398
0.704695,-0.000001,-0.782581,-0.000000,-2.404875,-0.000010,1.623780,0.785398
0.706700,-0.000001,-0.782612,-0.000000,-2.404864,-0.000010,1.623780,0.785398
0.708747,-0.000001,-0.782642,-0.000000,-2.404855,-0.000010,1.623780,0.785398
0.710683,-0.000001,-0.782673,-0.000000,-2.404846,-0.000010,1.623780,0.785398
0.712673,-0.000001,-0.782705,-0.000000,-2.404839,-0.000010,1.623780,0.785398
0.714713,-0.000001,-0.782737,-0.000000,-2.404832,-0.000010,1.623780,0.785398
0.716701,-0.000001,-0.782769,-0.000000,-2.404827,-0.000010,1.623780,0.785398
0.718678,-0.000001,-0.782801,-0.000000,-2.404822,-0.000010,1.623780,0.785398
0.720704,-0.000001,-0.782834,-0.000000,-2.404818,-0.000010,1.623780,0.785398
0.722709,-0.000001,-0.782867,-0.000000,-2.404815,-0.000010,1.623780,0.785398
0.724732,-0.000001,-0.782901,-0.000000,-2.404813,-0.000010,1.623780,0.785398
0.726667,-0.000001,-0.782935,-0.000000,-2.404813,-0.000010,1.623780,0.785398
0.728749,-0.000001,-0.782969,-0.000000,-2.404813,-0.000010,1.623780,0.785398
0.730690,-0.000001,-0.783003,-0.000000,-2.404813,-0.000010,1.623780,0.785398
0.732665,-0.000001,-0.783037,-0.000000,-2.404813,-0.000010,1.623780,0.785398
0.734819,-0.000001,-0.783071,-0.000000,-2.404813,-0.000010,1.623780,0.785398
0.736693,-0.000001,-0.783105,-0.000000,-2.404813,-0.000010,1.623780,0.785398
0.738667,-0.000001,-0.783139,-0.000000,-2.404813,-0.000010,1.623780,0.785398
0.740670,-0.000001,-0.783173,-0.000000,-2.404813,-0.000010,1.623780,0.785398
0.742674,-0.000001,-0.783206,-0.000000,-2.404813,-0.000010,1.623780,0.785398
0.744662,-0.000001,-0.783240,-0.000000,-2.404813,-0.000010,1.623780,0.785398
0.746713,-0.000001,-0.783274,-0.000000,-2.404813,-0.000010,1.623780,0.785398
0.748674,-0.000001,-0.783307,-0.000000,-2.404813,-0.000010,1.623780,0.785398
0.750663,-0.000001,-0.783341,-0.000000,-2.404813,-0.000010,1.623780,0.785398
0.752684,-0.000001,-0.783374,-0.000000,-2.404813,-0.000010,1.623780,0.785398
0.754681,-0.000001,-0.783407,-0.000000,-2.404813,-0.000010,1.623780,0.785398
0.756674,-0.000001,-0.783440,-0.000000,-2.404813,-0.000010,1.623780,0.785398
0.758669,-0.000001,-0.783474,-0.000000,-2.404813,-0.000010,1.623780,0.785398
0.760666,-0.000001,-0.783507,-0.000000,-2.404813,-0.000010,1.623780,0.785398
0.762669,-0.000001,-0.783540,-0.000000,-2.404813,-0.000010,1.623780,0.785398
0.764663,-0.000001,-0.783573,-0.000000,-2.404813,-0.000010,1.623780,0.785398
0.766678,-0.000001,-0.783606,-0.000000,-2.404813,-0.000010,1.623780,0.785398
0.768666,-0.000001,-0.783639,-0.000000,-2.404813,-0.000010,1.623780,0.785398
0.770745,-0.000001,-0.783671,-0.000000,-2.404813,-0.000010,1.623780,0.785398
0.772786,-0.000001,-0.783704,-0.000000,-2.404813,-0.000010,1.623780,0.785398
0.774656,-0.000001,-0.783720,-0.000000,-2.404813,-0.000010,1.623780,0.785398
0.776812,-0.000001,-0.783769,-0.000000,-2.404813,-0.000010,1.623780,0.785398
0.778769,-0.000001,-0.783802,-0.000000,-2.404813,-0.000010,1.623780,0.785398
0.780728,-0.000001,-0.783834,-0.000000,-2.404813,-0.000010,1.623780,0.785398
0.782743,-0.000001,-0.783851,-0.000000,-2.404813,-0.000010,1.623780,0.785398
0.784712,-0.000001,-0.783883,-0.000000,-2.404813,-0.000010,1.623780,0.785398
0.786619,-0.000001,-0.783916,-0.000000,-2.404813,-0.000010,1.623780,0.785398
0.788709,-0.000001,-0.783948,-0.000000,-2.404813,-0.000010,1.623780,0.785398
0.790705,-0.000001,-0.783980,-0.000000,-2.404813,-0.000010,1.623780,0.785398
0.792740,-0.000001,-0.784012,-0.000000,-2.404813,-0.000010,1.623780,0.785398
0.794692,-0.000001,-0.784044,-0.000000,-2.404813,-0.000010,1.623780,0.785398
0.796668,-0.000001,-0.784077,-0.000000,-2.404813,-0.000010,1.623780,0.785398
0.798704,-0.000001,-0.784109,-0.000000,-2.404813,-0.000010,1.623780,0.785398
0.800697,-0.000001,-0.784141,-0.000000,-2.404813,-0.000010,1.623780,0.785398
0.802690,-0.000001,-0.784173,-0.000000,-2.404813,-0.000010,1.623780,0.785398
0.804701,-0.000001,-0.784204,-0.000000,-2.404813,-0.000010,1.623780,0.785398
0.806703,-0.000001,-0.784236,-0.000000,-2.404813,-0.000010,1.623780,0.785398
0.808685,-0.000001,-0.784268,-0.000000,-2.404813,-0.000010,1.623780,0.785398
0.810718,-0.000001,-0.784300,-0.000000,-2.404813,-0.000010,1.623780,0.785398
0.812705,-0.000001,-0.784332,-0.000000,-2.404813,-0.000010,1.623780,0.785398
0.814699,-0.000001,-0.784363,-0.000000,-2.404813,-0.000010,1.623780,0.785398
0.816696,-0.000001,-0.784395,-0.000000,-2.404813,-0.000010,1.623780,0.785398
0.818695,-0.000001,-0.784426,-0.000000,-2.404813,-0.000010,1.623780,0.785398
0.820700,-0.000001,-0.784458,-0.000000,-2.404813,-0.000010,1.623780,0.785398
0.822729,-0.000001,-0.784489,-0.000000,-2.404813,-0.000010,1.623780,0.785398
0.824666,-0.000001,-0.784521,-0.000000,-2.404813,-0.000010,1.623780,0.785398
0.826685,-0.000001,-0.784552,-0.000000,-2.404813,-0.000010,1.623780,0.785398
0.828684,-0.000001,-0.784584,-0.000000,-2.404813,-0.000010,1.623780,0.785398
0.830665,-0.000001,-0.784615,-0.000000,-2.404813,-0.000010,1.623780,0.785398
0.832664,-0.000001,-0.784646,-0.000000,-2.404813,-0.000010,1.623780,0.785398
0.834698,-0.000001,-0.784678,-0.000000,-2.404813,-0.000010,1.623780,0.785398
0.836666,-0.000001,-0.784709,-0.000000,-2.404813,-0.000010,1.623780,0.785398
0.838664,-0.000001,-0.784740,-0.000000,-2.404813,-0.000010,1.623780,0.785398
0.840669,-0.000001,-0.784771,-0.000000,-2.404813,-0.000010,1.623780,0.785398
0.842662,-0.000001,-0.784802,-0.000000,-2.404813,-0.000010,1.623780,0.785398
0.844731,-0.000001,-0.784834,-0.000000,-2.404813,-0.000010,1.623780,0.785398
0.846662,-0.000001,-0.784865,-0.000000,-2.404813,-0.000010,1.623780,0.785398
0.848666,-0.000001,-0.784896,-0.000000,-2.404813,-0.000010,1.623780,0.785398
0.850665,-0.000001,-0.784927,-0.000000,-2.404813,-0.000010,1.623780,0.785398
0.852738,-0.000001,-0.784958,-0.000000,-2.404813,-0.000010,1.623780,0.785398
0.854653,-0.000001,-0.784989,-0.000000,-2.404813,-0.000010,1.623780,0.785398
0.856725,-0.000001,-0.785020,-0.000000,-2.404813,-0.000010,1.623780,0.785398
0.858665,-0.000001,-0.785051,-0.000000,-2.404813,-0.000010,1.623780,0.785398
0.860654,-0.000001,-0.785082,-0.000000,-2.404813,-0.000010,1.623780,0.785398
0.862674,-0.000001,-0.785113,-0.000000,-2.404813,-0.000010,1.623780,0.785398
0.864705,-0.000001,-0.785144,-0.000000,-2.404813,-0.000010,1.623780,0.785398
0.866685,-0.000001,-0.785174,-0.000000,-2.404813,-0.000010,1.623780,0.785398
0.868733,-0.000001,-0.785190,-0.000000,-2.404813,-0.000010,1.623780,0.785398
0.870656,-0.000001,-0.785221,-0.000000,-2.404813,-0.000010,1.623780,0.785398
0.872645,-0.000001,-0.785252,-0.000000,-2.404813,-0.000010,1.623780,0.785398
0.874714,-0.000001,-0.785282,-0.000000,-2.404813,-0.000010,1.623780,0.785398
0.876688,-0.000001,-0.785313,-0.000000,-2.404813,-0.000010,1.623780,0.785398
0.878705,-0.000001,-0.785344,-0.000000,-2.404813,-0.000010,1.623780,0.785398
0.880698,-0.000001,-0.785375,-0.000000,-2.404813,-0.000010,1.623780,0.785398
0.882686,-0.000001,-0.785406,-0.000000,-2.404813,-0.000010,1.623780,0.785398
0.884700,-0.000001,-0.785437,-0.000000,-2.404813,-0.000010,1.623780,0.785398
0.886715,-0.000001,-0.785467,-0.000000,-2.404813,-0.000010,1.623780,0.785398
0.888677,-0.000001,-0.785498,-0.000000,-2.404813,-0.000010,1.623780,0.785398
0.890704,-0.000001,-0.785529,-0.000000,-2.404813,-0.000010,1.623780,0.785398
0.892698,-0.000001,-0.785560,-0.000000,-2.404813,-0.000010,1.623780,0.785398
0.894694,-0.000001,-0.785590,-0.000000,-2.404813,-0.000010,1.623780,0.785398
0.896692,-0.000001,-0.785621,-0.000000,-2.404813,-0.000010,1.623780,0.785398
0.898703,-0.000001,-0.785652,-0.000000,-2.404813,-0.000010,1.623780,0.785398
0.900784,-0.000001,-0.785683,-0.000000,-2.404813,-0.000010,1.623780,0.785398
0.902664,-0.000001,-0.785714,-0.000000,-2.404813,-0.000010,1.623780,0.785398
0.904753,-0.000001,-0.785744,-0.000000,-2.404813,-0.000010,1.623780,0.785398
0.906664,-0.000001,-0.785775,-0.000000,-2.404813,-0.000010,1.623780,0.785398
0.908674,-0.000001,-0.785806,-0.000000,-2.404813,-0.000010,1.623780,0.785398
0.910718,-0.000001,-0.785837,-0.000000,-2.404813,-0.000010,1.623780,0.785398
0.912685,-0.000001,-0.785868,-0.000000,-2.404813,-0.000010,1.623780,0.785398
0.914691,-0.000001,-0.785898,-0.000000,-2.404813,-0.000010,1.623780,0.785398
0.916716,-0.000001,-0.785929,-0.000000,-2.404813,-0.000010,1.623780,0.785398
0.918710,-0.000001,-0.785960,-0.000000,-2.404813,-0.000010,1.623780,0.785398
0.920700,-0.000001,-0.785991,-0.000000,-2.404813,-0.000010,1.623780,0.785398
0.922663,-0.000001,-0.786022,-0.000000,-2.404813,-0.000010,1.623780,0.785398
0.924697,-0.000001,-0.786053,-0.000000,-2.404813,-0.000010,1.623780,0.785398
0.926695,-0.000001,-0.786084,-0.000000,-2.404813,-0.000010,1.623780,0.785398
0.928687,-0.000001,-0.786115,-0.000000,-2.404813,-0.000010,1.623780,0.785398
0.930694,-0.000001,-0.786146,-0.000000,-2.404813,-0.000010,1.623780,0.785398
0.932662,-0.000001,-0.786177,-0.000000,-2.404813,-0.000010,1.623780,0.785398
0.934662,-0.000001,-0.786208,-0.000000,-2.404813,-0.000010,1.623780,0.785398
0.936661,-0.000001,-0.786239,-0.000000,-2.404813,-0.000010,1.623780,0.785398
0.938661,-0.000001,-0.786270,-0.000000,-2.404813,-0.000010,1.623780,0.785398
0.940669,-0.000001,-0.786301,-0.000000,-2.404813,-0.000010,1.623780,0.785398
0.942696,-0.000001,-0.786332,-0.000000,-2.404813,-0.000010,1.623780,0.785398
0.944661,-0.000001,-0.786363,-0.000000,-2.404813,-0.000010,1.623780,0.785398
0.946661,-0.000001,-0.786395,-0.000000,-2.404813,-0.000010,1.623780,0.785398
0.948661,-0.000001,-0.786426,-0.000000,-2.404813,-0.000010,1.623780,0.785398
0.950684,-0.000001,-0.786457,-0.000000,-2.404813,-0.000010,1.623780,0.785398
0.952661,-0.000001,-0.786488,-0.000000,-2.404813,-0.000010,1.623780,0.785398
0.954660,-0.000001,-0.786520,-0.000000,-2.404813,-0.000010,1.623780,0.785398
0.956665,-0.000001,-0.786551,-0.000000,-2.404813,-0.000010,1.623780,0.785398
0.958663,-0.000001,-0.786582,-0.000000,-2.404813,-0.000010,1.623780,0.785398
0.960693,-0.000001,-0.786614,-0.000000,-2.404813,-0.000010,1.623780,0.785398
0.962738,-0.000001,-0.786645,-0.000000,-2.404813,-0.000010,1.623780,0.785398
0.964677,-0.000001,-0.786677,-0.000000,-2.404813,-0.000010,1.623780,0.785398
0.966639,-0.000001,-0.786709,-0.000000,-2.404813,-0.000010,1.623780,0.785398
0.968668,-0.000001,-0.786740,-0.000000,-2.404813,-0.000010,1.623780,0.785398
0.970730,-0.000001,-0.786772,-0.000000,-2.404813,-0.000010,1.623780,0.785398
0.972645,-0.000001,-0.786804,-0.000000,-2.404813,-0.000010,1.623780,0.785398
0.974648,-0.000001,-0.786835,-0.000000,-2.404813,-0.000010,1.623780,0.785398
0.976762,-0.000001,-0.786867,-0.000000,-2.404813,-0.000010,1.623780,0.785398
0.978827,-0.000001,-0.786899,-0.000000,-2.404813,-0.000010,1.623780,0.785398
0.980831,-0.000001,-0.786931,-0.000000,-2.404813,-0.000010,1.623780,0.785398
0.982756,-0.000001,-0.786963,-0.000000,-2.404813,-0.000010,1.623780,0.785398
0.984654,-0.000001,-0.786995,-0.000000,-2.404813,-0.000010,1.623780,0.785398
0.986673,-0.000001,-0.787011,-0.000000,-2.404813,-0.000010,1.623780,0.785398
0.988789,-0.000001,-0.787060,-0.000000,-2.404813,-0.000010,1.623780,0.785398
0.990710,-0.000001,-0.787092,-0.000000,-2.404813,-0.000010,1.623780,0.785398
0.992735,-0.000001,-0.787124,-0.000000,-2.404813,-0.000010,1.623779,0.785398
0.994753,-0.000001,-0.787157,-0.000000,-2.404813,-0.000010,1.623779,0.785398
0.996639,-0.000001,-0.787173,-0.000000,-2.404813,-0.000010,1.623778,0.785398
0.998726,-0.000001,-0.787205,-0.000000,-2.404813,-0.000010,1.623777,0.785398
1.000672,-0.000001,-0.787238,-0.000000,-2.404813,-0.000010,1.623776,0.785398
1.002700,-0.000001,-0.787271,-0.000000,-2.404813,-0.000010,1.623774,0.785398
1.004728,-0.000001,-0.787303,-0.000000,-2.404813,-0.000010,1.623771,0.785398
1.006672,-0.000001,-0.787336,-0.000000,-2.404813,-0.000010,1.623768,0.785398
1.008697,-0.000001,-0.787369,-0.000000,-2.404813,-0.000010,1.623764,0.785398
1.010692,-0.000001,-0.787402,-0.000000,-2.404813,-0.000010,1.623760,0.785398
1.012705,-0.000001,-0.787435,-0.000000,-2.404813,-0.000010,1.623755,0.785398
1.014728,-0.000001,-0.787468,-0.000000,-2.404813,-0.000010,1.623749,0.785398
1.016690,-0.000001,-0.787502,-0.000000,-2.404813,-0.000010,1.623742,0.785398
1.018708,-0.000001,-0.787535,-0.000000,-2.404813,-0.000010,1.623734,0.785398
1.020674,-0.000001,-0.787569,-0.000000,-2.404813,-0.000010,1.623725,0.785398
1.022728,-0.000001,-0.787602,-0.000000,-2.404813,-0.000010,1.623715,0.785398
1.024803,-0.000001,-0.787636,-0.000000,-2.404813,-0.000010,1.623704,0.785398
1.026709,-0.000001,-0.787670,-0.000000,-2.404813,-0.000010,1.623692,0.785398
1.028649,-0.000001,-0.787704,-0.000000,-2.404813,-0.000010,1.623678,0.785398
1.030678,-0.000001,-0.787738,-0.000000,-2.404813,-0.000010,1.623664,0.785398
1.032703,-0.000001,-0.787772,-0.000000,-2.404813,-0.000010,1.623648,0.785398
1.034669,-0.000001,-0.787807,-0.000000,-2.404813,-0.000010,1.623630,0.785398
1.036669,-0.000001,-0.787841,-0.000000,-2.404813,-0.000010,1.623612,0.785398
1.038665,-0.000001,-0.787876,-0.000000,-2.404813,-0.000010,1.623592,0.785398
1.040666,-0.000001,-0.787911,-0.000000,-2.404813,-0.000010,1.623570,0.785398
1.042705,-0.000001,-0.787945,-0.000000,-2.404813,-0.000010,1.623547,0.785398
1.044665,-0.000001,-0.787980,-0.000000,-2.404813,-0.000010,1.623523,0.785398
1.046719,-0.000001,-0.788016,-0.000000,-2.404813,-0.000010,1.623497,0.785398
1.048691,-0.000001,-0.788051,-0.000000,-2.404813,-0.000010,1.623469,0.785398
1.050687,-0.000001,-0.788086,-0.000000,-2.404813,-0.000010,1.623440,0.785398
1.052711,-0.000001,-0.788122,-0.000000,-2.404813,-0.000010,1.623409,0.785398
1.054681,-0.000001,-0.788158,-0.000000,-2.404813,-0.000010,1.623377,0.785398
1.056698,-0.000001,-0.788194,-0.000000,-2.404813,-0.000010,1.623343,0.785398
1.058699,-0.000001,-0.788230,-0.000000,-2.404813,-0.000010,1.623307,0.785398
1.060709,-0.000001,-0.788266,-0.000000,-2.404813,-0.000010,1.623270,0.785398
1.062668,-0.000001,-0.788302,-0.000000,-2.404813,-0.000010,1.623231,0.785398
1.064687,-0.000001,-0.788339,-0.000000,-2.404813,-0.000010,1.623190,0.785398
1.066669,-0.000001,-0.788357,-0.000000,-2.404813,-0.000010,1.623169,0.785398
1.068714,-0.000001,-0.788394,-0.000000,-2.404813,-0.000010,1.623126,0.785398
1.070620,-0.000001,-0.788449,-0.000000,-2.404813,-0.000010,1.623058,0.785398
1.072691,-0.000001,-0.788486,-0.000000,-2.404813,-0.000010,1.623010,0.785398
1.074688,-0.000001,-0.788523,-0.000000,-2.404813,-0.000010,1.622961,0.785398
1.076722,-0.000001,-0.788561,-0.000000,-2.404813,-0.000010,1.622910,0.785398
1.078789,-0.000001,-0.788598,-0.000000,-2.404813,-0.000010,1.622857,0.785398
1.080746,-0.000001,-0.788636,-0.000000,-2.404813,-0.000010,1.622802,0.785398
1.082729,-0.000001,-0.788674,-0.000000,-2.404813,-0.000010,1.622746,0.785398
1.084638,-0.000001,-0.788712,-0.000000,-2.404813,-0.000010,1.622688,0.785398
1.086817,-0.000001,-0.788750,-0.000000,-2.404813,-0.000010,1.622629,0.785398
1.088754,-0.000001,-0.788788,-0.000000,-2.404813,-0.000010,1.622567,0.785398
1.090870,-0.000001,-0.788827,-0.000000,-2.404813,-0.000010,1.622504,0.785398
1.092817,-0.000001,-0.788865,-0.000000,-2.404813,-0.000010,1.622439,0.785398
1.094852,-0.000001,-0.788904,-0.000000,-2.404813,-0.000010,1.622373,0.785398
1.096696,-0.000001,-0.788943,-0.000000,-2.404813,-0.000010,1.622305,0.785398
1.098630,-0.000001,-0.788963,-0.000000,-2.404813,-0.000010,1.622270,0.785398
1.100798,-0.000001,-0.789022,-0.000000,-2.404813,-0.000010,1.622163,0.785398
1.102722,-0.000001,-0.789061,-0.000000,-2.404813,-0.000010,1.622090,0.785398
1.104664,-0.000001,-0.789081,-0.000000,-2.404813,-0.000010,1.622053,0.785398
1.106684,-0.000001,-0.789120,-0.000000,-2.404813,-0.000010,1.621978,0.785398
1.108656,-0.000001,-0.789160,-0.000000,-2.404813,-0.000010,1.621900,0.785398
1.110657,-0.000001,-0.789200,-0.000000,-2.404813,-0.000010,1.621822,0.785398
1.112675,-0.000001,-0.789240,-0.000000,-2.404813,-0.000010,1.621741,0.785398
1.114727,-0.000001,-0.789301,-0.000000,-2.404813,-0.000010,1.621618,0.785398
1.116717,-0.000001,-0.789321,-0.000000,-2.404813,-0.000010,1.621576,0.785398
1.118708,-0.000001,-0.789362,-0.000000,-2.404813,-0.000010,1.621491,0.785398
1.120673,-0.000001,-0.789403,-0.000000,-2.404813,-0.000010,1.621404,0.785398
1.122723,-0.000001,-0.789444,-0.000000,-2.404813,-0.000010,1.621316,0.785398
1.124704,-0.000001,-0.789485,-0.000000,-2.404813,-0.000010,1.621227,0.785398
1.126705,-0.000001,-0.789526,-0.000000,-2.404813,-0.000010,1.621136,0.785398
1.128676,-0.000001,-0.789567,-0.000000,-2.404813,-0.000010,1.621044,0.785398
1.130666,-0.000001,-0.789609,-0.000000,-2.404813,-0.000010,1.620950,0.785398
1.132703,-0.000001,-0.789651,-0.000000,-2.404813,-0.000010,1.620855,0.785398
1.134693,-0.000001,-0.789692,-0.000000,-2.404813,-0.000010,1.620759,0.785398
1.136700,-0.000001,-0.789734,-0.000000,-2.404813,-0.000010,1.620661,0.785398
1.138699,-0.000001,-0.789777,-0.000000,-2.404813,-0.000010,1.620563,0.785398
1.140664,-0.000001,-0.789819,-0.000000,-2.404813,-0.000010,1.620463,0.785398
1.142678,-0.000001,-0.789861,-0.000000,-2.404813,-0.000010,1.620361,0.785398
1.144720,-0.000001,-0.789904,-0.000000,-2.404813,-0.000010,1.620259,0.785398
1.146693,-0.000001,-0.789947,-0.000000,-2.404813,-0.000010,1.620156,0.785398
1.148729,-0.000001,-0.789989,-0.000000,-2.404813,-0.000010,1.620051,0.785398
1.150698,-0.000001,-0.790032,-0.000000,-2.404813,-0.000010,1.619946,0.785398
1.152716,-0.000001,-0.790076,-0.000000,-2.404813,-0.000010,1.619839,0.785398
1.154704,-0.000001,-0.790119,-0.000000,-2.404813,-0.000010,1.619732,0.785398
1.156698,-0.000001,-0.790162,-0.000000,-2.404813,-0.000010,1.619623,0.785398
1.158697,-0.000001,-0.790206,-0.000000,-2.404813,-0.000010,1.619514,0.785398
1.160706,-0.000001,-0.790250,-0.000000,-2.404813,-0.000010,1.619404,0.785398
1.162686,-0.000001,-0.790293,-0.000000,-2.404813,-0.000010,1.619293,0.785398
1.164686,-0.000001,-0.790337,-0.000000,-2.404813,-0.000010,1.619181,0.785398
1.166688,-0.000001,-0.790381,-0.000000,-2.404813,-0.000010,1.619068,0.785398
1.168692,-0.000001,-0.790426,-0.000000,-2.404813,-0.000010,1.618955,0.785398
1.170683,-0.000001,-0.790470,-0.000000,-2.404813,-0.000010,1.618841,0.785398
1.172723,-0.000001,-0.790514,-0.000000,-2.404813,-0.000010,1.618726,0.785398
1.174669,-0.000001,-0.790559,-0.000000,-2.404813,-0.000010,1.618610,0.785398
1.176689,-0.000001,-0.790604,-0.000000,-2.404813,-0.000010,1.618494,0.785398
1.178723,-0.000001,-0.790649,-0.000000,-2.404813,-0.000010,1.618377,0.785398
1.180701,-0.000001,-0.790694,-0.000000,-2.404813,-0.000010,1.618260,0.785398
1.182688,-0.000001,-0.790739,-0.000000,-2.404813,-0.000010,1.618142,0.785398
1.184749,-0.000001,-0.790784,-0.000000,-2.404813,-0.000010,1.618024,0.785398
1.186779,-0.000001,-0.790829,-0.000000,-2.404813,-0.000010,1.617905,0.785398
1.188668,-0.000001,-0.790875,-0.000000,-2.404813,-0.000010,1.617786,0.785398
1.190686,-0.000001,-0.790920,-0.000000,-2.404813,-0.000010,1.617667,0.785398
1.192681,-0.000001,-0.790966,-0.000000,-2.404813,-0.000010,1.617547,0.785398
1.194680,-0.000001,-0.791011,-0.000000,-2.404813,-0.000010,1.617427,0.785398
1.196685,-0.000001,-0.791057,-0.000000,-2.404813,-0.000010,1.617306,0.785398
1.198683,-0.000001,-0.791103,-0.000000,-2.404813,-0.000010,1.617185,0.785398
1.200702,-0.000001,-0.791149,-0.000000,-2.404813,-0.000010,1.617064,0.785398
1.202666,-0.000001,-0.791196,-0.000000,-2.404813,-0.000010,1.616943,0.785398
1.204664,-0.000001,-0.791242,-0.000000,-2.404813,-0.000010,1.616821,0.785398
1.206664,-0.000001,-0.791288,-0.000000,-2.404813,-0.000010,1.616700,0.785398
1.208664,-0.000001,-0.791335,-0.000000,-2.404813,-0.000010,1.616578,0.785398
1.210662,-0.000001,-0.791381,-0.000000,-2.404813,-0.000010,1.616456,0.785398
1.212664,-0.000001,-0.791428,-0.000000,-2.404813,-0.000010,1.616334,0.785398
1.214629,-0.000001,-0.791475,-0.000000,-2.404813,-0.000010,1.616212,0.785398
1.216662,-0.000001,-0.791522,-0.000000,-2.404813,-0.000010,1.616091,0.785398
1.218663,-0.000001,-0.791569,-0.000000,-2.404813,-0.000010,1.615969,0.785398
1.220693,-0.000001,-0.791616,-0.000000,-2.404813,-0.000010,1.615847,0.785398
1.222693,-0.000001,-0.791663,-0.000000,-2.404813,-0.000010,1.615726,0.785398
1.224739,-0.000001,-0.791710,-0.000000,-2.404813,-0.000010,1.615605,0.785398
1.226657,-0.000001,-0.791758,-0.000000,-2.404813,-0.000010,1.615484,0.785398
1.228726,-0.000001,-0.791805,-0.000000,-2.404813,-0.000010,1.615363,0.785398
1.230633,-0.000001,-0.791853,-0.000000,-2.404813,-0.000010,1.615243,0.785398
1.232659,-0.000001,-0.791900,-0.000000,-2.404813,-0.000010,1.615123,0.785398
1.234624,-0.000001,-0.791948,-0.000000,-2.404813,-0.000010,1.615003,0.785398
1.236742,-0.000001,-0.791995,-0.000000,-2.404813,-0.000010,1.614884,0.785398
1.238679,-0.000001,-0.792019,-0.000000,-2.404813,-0.000010,1.614825,0.785398
1.240679,-0.000001,-0.792067,-0.000000,-2.404813,-0.000010,1.614706,0.785398
1.242689,-0.000001,-0.792115,-0.000000,-2.404813,-0.000010,1.614588,0.785398
1.244689,-0.000001,-0.792163,-0.000000,-2.404813,-0.000010,1.614471,0.785398
1.246687,-0.000001,-0.792211,-0.000000,-2.404813,-0.000010,1.614354,0.785398
1.248688,-0.000001,-0.792259,-0.000000,-2.404813,-0.000010,1.614237,0.785398
1.250700,-0.000001,-0.792307,-0.000000,-2.404813,-0.000010,1.614121,0.785398
1.252723,-0.000001,-0.792355,-0.000000,-2.404813,-0.000010,1.614006,0.785398
1.254713,-0.000001,-0.792404,-0.000000,-2.404813,-0.000010,1.613891,0.785398
1.256708,-0.000001,-0.792452,-0.000000,-2.404813,-0.000010,1.613777,0.785398
1.258767,-0.000001,-0.792500,-0.000000,-2.404813,-0.000010,1.613664,0.785398
1.260740,-0.000001,-0.792549,-0.000000,-2.404813,-0.000010,1.613551,0.785398
1.262664,-0.000001,-0.792597,-0.000000,-2.404813,-0.000010,1.613439,0.785398
1.264723,-0.000001,-0.792646,-0.000000,-2.404813,-0.000010,1.613328,0.785398
1.266681,-0.000001,-0.792694,-0.000000,-2.404813,-0.000010,1.613217,0.785398
1.268689,-0.000001,-0.792743,-0.000000,-2.404813,-0.000010,1.613107,0.785398
1.270727,-0.000001,-0.792792,-0.000000,-2.404813,-0.000010,1.612998,0.785398
1.272691,-0.000001,-0.792841,-0.000000,-2.404813,-0.000010,1.612890,0.785398
1.274684,-0.000001,-0.792889,-0.000000,-2.404813,-0.000010,1.612783,0.785398
1.276702,-0.000001,-0.792938,-0.000000,-2.404813,-0.000010,1.612676,0.785398
1.278711,-0.000001,-0.792987,-0.000000,-2.404813,-0.000010,1.612571,0.785398
1.280700,-0.000001,-0.793036,-0.000000,-2.404813,-0.000010,1.612466,0.785398
1.282696,-0.000001,-0.793085,-0.000000,-2.404813,-0.000010,1.612362,0.785398
1.284663,-0.000001,-0.793134,-0.000000,-2.404813,-0.000010,1.612259,0.785398
1.286687,-0.000001,-0.793183,-0.000000,-2.404813,-0.000010,1.612157,0.785398
1.288686,-0.000001,-0.793232,-0.000000,-2.404813,-0.000010,1.612055,0.785398
1.290670,-0.000001,-0.793281,-0.000000,-2.404813,-0.000010,1.611955,0.785398
1.292700,-0.000001,-0.793331,-0.000000,-2.404813,-0.000010,1.611855,0.785398
1.294696,-0.000001,-0.793380,-0.000000,-2.404813,-0.000010,1.611757,0.785398
1.296702,-0.000001,-0.793429,-0.000000,-2.404813,-0.000010,1.611659,0.785398
1.298702,-0.000001,-0.793478,-0.000000,-2.404813,-0.000010,1.611563,0.785398
1.300667,-0.000001,-0.793528,-0.000000,-2.404813,-0.000010,1.611467,0.785398
1.302699,-0.000001,-0.793577,-0.000000,-2.404813,-0.000010,1.611372,0.785398
1.304694,-0.000001,-0.793626,-0.000000,-2.404813,-0.000010,1.611278,0.785398
1.306697,-0.000001,-0.793676,-0.000000,-2.404813,-0.000010,1.611185,0.785398
1.308703,-0.000001,-0.793725,-0.000000,-2.404813,-0.000010,1.611093,0.785398
1.310695,-0.000001,-0.793775,-0.000000,-2.404813,-0.000010,1.611002,0.785398
1.312681,-0.000001,-0.793824,-0.000000,-2.404813,-0.000010,1.610912,0.785398
1.314699,-0.000001,-0.793874,-0.000000,-2.404813,-0.000010,1.610823,0.785398
1.316703,-0.000001,-0.793923,-0.000000,-2.404813,-0.000010,1.610736,0.785398
1.318667,-0.000001,-0.793973,-0.000000,-2.404813,-0.000010,1.610649,0.785398
1.320715,-0.000001,-0.794022,-0.000000,-2.404813,-0.000010,1.610563,0.785398
1.322709,-0.000001,-0.794072,-0.000000,-2.404813,-0.000010,1.610479,0.785398
1.324709,-0.000001,-0.794122,-0.000000,-2.404813,-0.000010,1.610396,0.785398
1.326669,-0.000001,-0.794171,-0.000000,-2.404813,-0.000010,1.610314,0.785398
1.328698,-0.000001,-0.794221,-0.000000,-2.404813,-0.000010,1.610233,0.785398
1.330674,-0.000001,-0.794271,-0.000000,-2.404813,-0.000010,1.610154,0.785398
1.332666,-0.000001,-0.794320,-0.000000,-2.404813,-0.000010,1.610075,0.785398
1.334663,-0.000001,-0.794370,-0.000000,-2.404813,-0.000010,1.609999,0.785398
1.336662,-0.000001,-0.794420,-0.000000,-2.404813,-0.000010,1.609923,0.785398
1.338676,-0.000001,-0.794469,-0.000000,-2.404813,-0.000010,1.609849,0.785398
1.340663,-0.000001,-0.794519,-0.000000,-2.404813,-0.000010,1.609776,0.785398
1.342668,-0.000001,-0.794569,-0.000000,-2.404813,-0.000010,1.609705,0.785398
1.344670,-0.000001,-0.794618,-0.000000,-2.404813,-0.000010,1.609635,0.785398
1.346697,-0.000001,-0.794668,-0.000000,-2.404813,-0.000010,1.609566,0.785398
1.348662,-0.000001,-0.794717,-0.000000,-2.404813,-0.000010,1.609499,0.785398
1.350665,-0.000001,-0.794767,-0.000000,-2.404813,-0.000010,1.609433,0.785398
1.352666,-0.000001,-0.794817,-0.000000,-2.404813,-0.000010,1.609369,0.785398
1.354664,-0.000001,-0.794866,-0.000000,-2.404813,-0.000010,1.609306,0.785398
1.356751,-0.000001,-0.794916,-0.000000,-2.404813,-0.000010,1.609244,0.785398
1.358731,-0.000001,-0.794965,-0.000000,-2.404813,-0.000010,1.609184,0.785398
1.360735,-0.000001,-0.795015,-0.000000,-2.404813,-0.000010,1.609125,0.785398
1.362663,-0.000001,-0.795064,-0.000000,-2.404813,-0.000010,1.609068,0.785398
1.364656,-0.000001,-0.795114,-0.000000,-2.404813,-0.000010,1.609012,0.785398
1.366671,-0.000001,-0.795163,-0.000000,-2.404813,-0.000010,1.608958,0.785398
1.368679,-0.000001,-0.795188,-0.000000,-2.404813,-0.000010,1.608931,0.785398
1.370748,-0.000001,-0.795262,-0.000000,-2.404813,-0.000010,1.608854,0.785398
1.372667,-0.000001,-0.795287,-0.000000,-2.404813,-0.000010,1.608828,0.785398
1.374639,-0.000001,-0.795336,-0.000000,-2.404813,-0.000010,1.608779,0.785398
1.376721,-0.000001,-0.795410,-0.000000,-2.404813,-0.000010,1.608707,0.785398
1.378672,-0.000001,-0.795435,-0.000000,-2.404813,-0.000010,1.608684,0.785398
1.380763,-0.000001,-0.795509,-0.000000,-2.404813,-0.000010,1.608617,0.785398
1.382639,-0.000001,-0.795534,-0.000000,-2.404813,-0.000010,1.608595,0.785398
1.384710,-0.000001,-0.795583,-0.000000,-2.404813,-0.000010,1.608553,0.785398
1.386716,-0.000001,-0.795632,-0.000000,-2.404813,-0.000010,1.608512,0.785398
1.388716,-0.000001,-0.795682,-0.000000,-2.404813,-0.000010,1.608472,0.785398
1.390671,-0.000001,-0.795731,-0.000000,-2.404813,-0.000010,1.608434,0.785398
1.392709,-0.000001,-0.795780,-0.000000,-2.404813,-0.000010,1.608397,0.785398
1.394697,-0.000001,-0.795829,-0.000000,-2.404813,-0.000010,1.608361,0.785398
1.396694,-0.000001,-0.795878,-0.000000,-2.404813,-0.000010,1.608326,0.785398
1.398751,-0.000001,-0.795927,-0.000000,-2.404813,-0.000010,1.608293,0.785398
1.400708,-0.000001,-0.795976,-0.000000,-2.404813,-0.000010,1.608261,0.785398
1.402693,-0.000001,-0.796026,-0.000000,-2.404813,-0.000010,1.608231,0.785398
1.404747,-0.000001,-0.796075,-0.000000,-2.404813,-0.000010,1.608201,0.785398
1.406728,-0.000001,-0.796124,-0.000000,-2.404813,-0.000010,1.608173,0.785398
1.408728,-0.000001,-0.796172,-0.000000,-2.404813,-0.000010,1.608146,0.785398
1.410673,-0.000001,-0.796221,-0.000000,-2.404813,-0.000010,1.608120,0.785398
1.412685,-0.000001,-0.796270,-0.000000,-2.404813,-0.000010,1.608095,0.785398
1.414676,-0.000001,-0.796319,-0.000000,-2.404813,-0.000010,1.608072,0.785398
1.416690,-0.000001,-0.796368,-0.000000,-2.404813,-0.000010,1.608050,0.785398
1.418728,-0.000001,-0.796417,-0.000000,-2.404813,-0.000010,1.608029,0.785398
1.420727,-0.000001,-0.796465,-0.000000,-2.404813,-0.000010,1.608010,0.785398
1.422711,-0.000001,-0.796514,-0.000000,-2.404813,-0.000010,1.607992,0.785398
1.424745,-0.000001,-0.796563,-0.000000,-2.404813,-0.000010,1.607976,0.785398
1.426713,-0.000001,-0.796611,-0.000000,-2.404813,-0.000010,1.607961,0.785398
1.428726,-0.000001,-0.796660,-0.000000,-2.404813,-0.000010,1.607948,0.785398
1.430668,-0.000001,-0.796708,-0.000000,-2.404813,-0.000010,1.607936,0.785398
1.432663,-0.000001,-0.796757,-0.000000,-2.404813,-0.000010,1.607925,0.785398
1.434695,-0.000001,-0.796805,-0.000000,-2.404813,-0.000010,1.607917,0.785398
1.436664,-0.000001,-0.796853,-0.000000,-2.404813,-0.000010,1.607909,0.785398
1.438667,-0.000001,-0.796901,-0.000000,-2.404813,-0.000010,1.607904,0.785398
1.440696,-0.000001,-0.796949,-0.000000,-2.404813,-0.000010,1.607900,0.785398
1.442664,-0.000001,-0.796997,-0.000000,-2.404813,-0.000010,1.607898,0.785398
1.444671,-0.000001,-0.797045,-0.000000,-2.404813,-0.000010,1.607897,0.785398
1.446679,-0.000001,-0.797093,-0.000000,-2.404813,-0.000010,1.607897,0.785398
1.448667,-0.000001,-0.797141,-0.000000,-2.404813,-0.000010,1.607897,0.785398
1.450721,-0.000001,-0.797189,-0.000000,-2.404813,-0.000010,1.607897,0.785398
1.452680,-0.000001,-0.797237,-0.000000,-2.404813,-0.000010,1.607897,0.785398
1.454666,-0.000001,-0.797284,-0.000000,-2.404813,-0.000010,1.607897,0.785398
1.456667,-0.000001,-0.797332,-0.000000,-2.404813,-0.000010,1.607897,0.785398
1.458663,-0.000001,-0.797380,-0.000000,-2.404813,-0.000010,1.607897,0.785398
1.460623,-0.000001,-0.797427,-0.000000,-2.404813,-0.000010,1.607897,0.785398
1.462661,-0.000001,-0.797475,-0.000000,-2.404813,-0.000010,1.607897,0.785398
1.464626,-0.000001,-0.797522,-0.000000,-2.404813,-0.000010,1.607897,0.785398
1.466662,-0.000001,-0.797570,-0.000000,-2.404813,-0.000010,1.607897,0.785398
1.468665,-0.000001,-0.797617,-0.000000,-2.404813,-0.000010,1.607897,0.785398
1.470684,-0.000001,-0.797664,-0.000000,-2.404813,-0.000010,1.607897,0.785398
1.472679,-0.000001,-0.797712,-0.000000,-2.404813,-0.000010,1.607897,0.785398
1.474661,-0.000001,-0.797759,-0.000000,-2.404813,-0.000010,1.607897,0.785398
1.476615,-0.000001,-0.797806,-0.000000,-2.404813,-0.000010,1.607897,0.785398
1.478684,-0.000001,-0.797853,-0.000000,-2.404813,-0.000010,1.607897,0.785398
1.480636,-0.000001,-0.797900,-0.000000,-2.404813,-0.000010,1.607897,0.785398
1.482710,-0.000001,-0.797924,-0.000000,-2.404813,-0.000010,1.607897,0.785398
1.484826,-0.000001,-0.797994,-0.000000,-2.404813,-0.000010,1.607897,0.785398
1.486639,-0.000001,-0.798041,-0.000000,-2.404813,-0.000010,1.607897,0.785398
1.488706,-0.000001,-0.798087,-0.000000,-2.404813,-0.000010,1.607897,0.785398
1.490693,-0.000001,-0.798111,-0.000000,-2.404813,-0.000010,1.607897,0.785398
1.492757,-0.000001,-0.798157,-0.000000,-2.404813,-0.000010,1.607897,0.785398
1.494731,-0.000001,-0.798204,-0.000000,-2.404813,-0.000010,1.607897,0.785398
1.496784,-0.000001,-0.798250,-0.000000,-2.404813,-0.000010,1.607897,0.785398
1.498712,-0.000001,-0.798297,-0.000000,-2.404813,-0.000010,1.607897,0.785398
1.500692,-0.000001,-0.798343,-0.000000,-2.404813,-0.000010,1.607897,0.785398
1.502738,-0.000001,-0.798389,-0.000000,-2.404813,-0.000010,1.607897,0.785398
1.504714,-0.000001,-0.798435,-0.000000,-2.404813,-0.000010,1.607897,0.785398
1.506684,-0.000001,-0.798481,-0.000000,-2.404813,-0.000010,1.607897,0.785398
1.508701,-0.000001,-0.798527,-0.000000,-2.404813,-0.000010,1.607897,0.785398
1.510670,-0.000001,-0.798573,-0.000000,-2.404813,-0.000010,1.607897,0.785398
1.512745,-0.000001,-0.798619,-0.000000,-2.404813,-0.000010,1.607897,0.785398
1.514726,-0.000001,-0.798665,-0.000000,-2.404813,-0.000010,1.607897,0.785398
1.516704,-0.000001,-0.798710,-0.000000,-2.404813,-0.000010,1.607897,0.785398
1.518687,-0.000001,-0.798756,-0.000000,-2.404813,-0.000010,1.607897,0.785398
1.520668,-0.000001,-0.798801,-0.000000,-2.404813,-0.000010,1.607897,0.785398
1.522667,-0.000001,-0.798846,-0.000000,-2.404813,-0.000010,1.607897,0.785398
1.524705,-0.000001,-0.798891,-0.000000,-2.404813,-0.000010,1.607897,0.785398
1.526743,-0.000001,-0.798936,-0.000000,-2.404813,-0.000010,1.607897,0.785398
1.528761,-0.000001,-0.798981,-0.000000,-2.404813,-0.000010,1.607897,0.785398
1.530702,-0.000001,-0.799026,-0.000000,-2.404813,-0.000010,1.607897,0.785398
1.532724,-0.000001,-0.799070,-0.000000,-2.404813,-0.000010,1.607897,0.785398
1.534692,-0.000001,-0.799115,-0.000000,-2.404813,-0.000010,1.607897,0.785398
1.536705,-0.000001,-0.799159,-0.000000,-2.404813,-0.000010,1.607897,0.785398
1.538693,-0.000001,-0.799203,-0.000000,-2.404813,-0.000010,1.607897,0.785398
1.540689,-0.000001,-0.799247,-0.000000,-2.404813,-0.000010,1.607897,0.785398
1.542678,-0.000001,-0.799291,-0.000000,-2.404813,-0.000010,1.607897,0.785398
1.544683,-0.000001,-0.799335,-0.000000,-2.404813,-0.000010,1.607897,0.785398
1.546713,-0.000001,-0.799378,-0.000000,-2.404813,-0.000010,1.607897,0.785398
1.548708,-0.000001,-0.799422,-0.000000,-2.404813,-0.000010,1.607897,0.785398
1.550672,-0.000001,-0.799465,-0.000000,-2.404813,-0.000010,1.607897,0.785398
1.552700,-0.000001,-0.799508,-0.000000,-2.404813,-0.000010,1.607897,0.785398
1.554669,-0.000001,-0.799551,-0.000000,-2.404813,-0.000010,1.607897,0.785398
1.556668,-0.000001,-0.799593,-0.000000,-2.404813,-0.000010,1.607897,0.785398
1.558711,-0.000001,-0.799636,-0.000000,-2.404813,-0.000010,1.607897,0.785398
1.560712,-0.000001,-0.799678,-0.000000,-2.404813,-0.000010,1.607897,0.785398
1.562709,-0.000001,-0.799720,-0.000000,-2.404813,-0.000010,1.607897,0.785398
1.564678,-0.000001,-0.799762,-0.000000,-2.404813,-0.000010,1.607897,0.785398
1.566740,-0.000001,-0.799804,-0.000000,-2.404813,-0.000010,1.607897,0.785398
1.568755,-0.000001,-0.799846,-0.000000,-2.404813,-0.000010,1.607897,0.785398
1.570804,-0.000001,-0.799887,-0.000000,-2.404813,-0.000010,1.607897,0.785398
1.572710,-0.000001,-0.799928,-0.000000,-2.404813,-0.000010,1.607897,0.785398
1.574670,-0.000001,-0.799969,-0.000000,-2.404813,-0.000010,1.607897,0.785398
1.576682,-0.000001,-0.800010,-0.000000,-2.404813,-0.000010,1.607897,0.785398
1.578693,-0.000001,-0.800050,-0.000000,-2.404813,-0.000010,1.607897,0.785398
1.580664,-0.000001,-0.800090,-0.000000,-2.404813,-0.000010,1.607897,0.785398
1.582690,-0.000001,-0.800130,-0.000000,-2.404813,-0.000010,1.607897,0.785398
1.584663,-0.000001,-0.800170,-0.000000,-2.404813,-0.000010,1.607897,0.785398
1.586662,-0.000001,-0.800210,-0.000000,-2.404813,-0.000010,1.607897,0.785398
1.588664,-0.000001,-0.800249,-0.000000,-2.404813,-0.000010,1.607897,0.785398
1.590665,-0.000001,-0.800288,-0.000000,-2.404813,-0.000010,1.607897,0.785398
1.592663,-0.000001,-0.800327,-0.000000,-2.404813,-0.000010,1.607897,0.785398
1.594664,-0.000001,-0.800366,-0.000000,-2.404813,-0.000010,1.607897,0.785398
1.596663,-0.000001,-0.800404,-0.000000,-2.404813,-0.000010,1.607897,0.785398
1.598756,-0.000001,-0.800442,-0.000000,-2.404813,-0.000010,1.607897,0.785398
1.600667,-0.000001,-0.800480,-0.000000,-2.404813,-0.000010,1.607897,0.785398
1.602718,-0.000001,-0.800518,-0.000000,-2.404813,-0.000010,1.607897,0.785398
1.604732,-0.000001,-0.800555,-0.000000,-2.404813,-0.000010,1.607897,0.785398
1.606704,-0.000001,-0.800573,-0.000000,-2.404813,-0.000010,1.607897,0.785398
1.608749,-0.000001,-0.800629,-0.000000,-2.404813,-0.000010,1.607897,0.785398
1.610735,-0.000001,-0.800665,-0.000000,-2.404813,-0.000010,1.607897,0.785398
1.612613,-0.000001,-0.800683,-0.000000,-2.404813,-0.000010,1.607897,0.785398
1.614836,-0.000001,-0.800737,-0.000000,-2.404813,-0.000010,1.607897,0.785398
1.616785,-0.000001,-0.800773,-0.000000,-2.404813,-0.000010,1.607897,0.785398
1.618664,-0.000001,-0.800791,-0.000000,-2.404813,-0.000010,1.607897,0.785398
1.620693,-0.000001,-0.800826,-0.000000,-2.404813,-0.000010,1.607897,0.785398
1.622710,-0.000001,-0.800861,-0.000000,-2.404813,-0.000010,1.607897,0.785398
1.624707,-0.000001,-0.800895,-0.000000,-2.404813,-0.000010,1.607897,0.785398
1.626669,-0.000001,-0.800930,-0.000000,-2.404813,-0.000010,1.607897,0.785398
1.628721,-0.000001,-0.800964,-0.000000,-2.404813,-0.000010,1.607897,0.785398
1.630680,-0.000001,-0.800997,-0.000000,-2.404813,-0.000010,1.607897,0.785398
1.632671,-0.000001,-0.801030,-0.000000,-2.404813,-0.000010,1.607897,0.785398
1.634701,-0.000001,-0.801063,-0.000000,-2.404813,-0.000010,1.607897,0.785398
1.636699,-0.000001,-0.801096,-0.000000,-2.404813,-0.000010,1.607897,0.785398
1.638747,-0.000001,-0.801128,-0.000000,-2.404813,-0.000010,1.607897,0.785398
1.640699,-0.000001,-0.801160,-0.000000,-2.404813,-0.000010,1.607897,0.785398
1.642705,-0.000001,-0.801191,-0.000000,-2.404813,-0.000010,1.607897,0.785398
1.644696,-0.000001,-0.801222,-0.000000,-2.404813,-0.000010,1.607897,0.785398
1.646733,-0.000001,-0.801253,-0.000000,-2.404813,-0.000010,1.607897,0.785398
1.648674,-0.000001,-0.801283,-0.000000,-2.404813,-0.000010,1.607897,0.785398
1.650700,-0.000001,-0.801313,-0.000000,-2.404813,-0.000010,1.607897,0.785398
1.652703,-0.000001,-0.801342,-0.000000,-2.404813,-0.000010,1.607897,0.785398
1.654724,-0.000001,-0.801371,-0.000000,-2.404813,-0.000010,1.607897,0.785398
1.656729,-0.000001,-0.801400,-0.000000,-2.404813,-0.000010,1.607897,0.785398
1.658746,-0.000001,-0.801428,-0.000000,-2.404813,-0.000010,1.607897,0.785398
1.660667,-0.000001,-0.801456,-0.000000,-2.404813,-0.000010,1.607897,0.785398
1.662698,-0.000001,-0.801483,-0.000000,-2.404813,-0.000010,1.607897,0.785398
1.664696,-0.000001,-0.801510,-0.000000,-2.404813,-0.000010,1.607897,0.785398
1.666667,-0.000001,-0.801537,-0.000000,-2.404813,-0.000010,1.607897,0.785398
1.668668,-0.000001,-0.801563,-0.000000,-2.404813,-0.000010,1.607897,0.785398
1.670678,-0.000001,-0.801588,-0.000000,-2.404813,-0.000010,1.607897,0.785398
1.672672,-0.000001,-0.801613,-0.000000,-2.404813,-0.000010,1.607897,0.785398
1.674684,-0.000001,-0.801638,-0.000000,-2.404813,-0.000010,1.607897,0.785398
1.676670,-0.000001,-0.801662,-0.000000,-2.404813,-0.000010,1.607897,0.785398
1.678668,-0.000001,-0.801686,-0.000000,-2.404813,-0.000010,1.607897,0.785398
1.680675,-0.000001,-0.801709,-0.000000,-2.404813,-0.000010,1.607897,0.785398
1.682667,-0.000001,-0.801731,-0.000000,-2.404813,-0.000010,1.607897,0.785398
1.684678,-0.000001,-0.801754,-0.000000,-2.404813,-0.000010,1.607897,0.785398
1.686692,-0.000001,-0.801775,-0.000000,-2.404813,-0.000010,1.607897,0.785398
1.688736,-0.000001,-0.801796,-0.000000,-2.404813,-0.000010,1.607897,0.785398
1.690737,-0.000001,-0.801817,-0.000000,-2.404813,-0.000010,1.607897,0.785398
1.692665,-0.000001,-0.801837,-0.000000,-2.404813,-0.000010,1.607897,0.785398
1.694669,-0.000001,-0.801856,-0.000000,-2.404813,-0.000010,1.607897,0.785398
1.696639,-0.000001,-0.801876,-0.000000,-2.404813,-0.000010,1.607897,0.785398
1.698665,-0.000001,-0.801894,-0.000000,-2.404813,-0.000010,1.607897,0.785398
1.700710,-0.000001,-0.801912,-0.000000,-2.404813,-0.000010,1.607897,0.785398
1.702667,-0.000001,-0.801929,-0.000000,-2.404813,-0.000010,1.607897,0.785398
1.704745,-0.000001,-0.801946,-0.000000,-2.404813,-0.000010,1.607897,0.785398
1.706755,-0.000001,-0.801962,-0.000000,-2.404813,-0.000010,1.607897,0.785398
1.708662,-0.000001,-0.801978,-0.000000,-2.404813,-0.000010,1.607897,0.785398
1.710661,-0.000001,-0.801993,-0.000000,-2.404813,-0.000010,1.607897,0.785398
1.712627,-0.000001,-0.802008,-0.000000,-2.404813,-0.000010,1.607897,0.785398
1.714684,-0.000001,-0.802021,-0.000000,-2.404813,-0.000010,1.607897,0.785398
1.716750,-0.000001,-0.802035,-0.000000,-2.404813,-0.000010,1.607897,0.785398
1.718818,-0.000001,-0.802047,-0.000000,-2.404813,-0.000010,1.607897,0.785398
1.720829,-0.000001,-0.802059,-0.000000,-2.404813,-0.000010,1.607897,0.785398
1.722664,-0.000001,-0.802071,-0.000000,-2.404813,-0.000010,1.607897,0.785398
1.724692,-0.000001,-0.802082,-0.000000,-2.404813,-0.000010,1.607897,0.785398
1.726612,-0.000001,-0.802092,-0.000000,-2.404813,-0.000010,1.607897,0.785398
1.728676,-0.000001,-0.802101,-0.000000,-2.404813,-0.000010,1.607897,0.785398
1.730662,-0.000001,-0.802110,-0.000000,-2.404813,-0.000010,1.607897,0.785398
1.732758,-0.000001,-0.802119,-0.000000,-2.404813,-0.000010,1.607897,0.785398
1.734665,-0.000001,-0.802122,-0.000000,-2.404813,-0.000010,1.607897,0.785398
1.736771,-0.000001,-0.802133,-0.000000,-2.404813,-0.000010,1.607897,0.785398
1.738812,-0.000001,-0.802139,-0.000000,-2.404813,-0.000010,1.607897,0.785398
1.740647,-0.000001,-0.802142,-0.000000,-2.404813,-0.000010,1.607897,0.785398
1.742651,-0.000001,-0.802147,-0.000000,-2.404813,-0.000010,1.607897,0.785398
1.744649,-0.000001,-0.802151,-0.000000,-2.404813,-0.000010,1.607897,0.785398
1.746703,-0.000001,-0.802155,0.000000,-2.404813,-0.000010,1.607897,0.785398
1.748706,-0.000001,-0.802158,0.000000,-2.404813,-0.000010,1.607897,0.785398
1.750678,-0.000001,-0.802160,0.000000,-2.404813,-0.000010,1.607897,0.785398
1.752699,-0.000001,-0.802162,0.000000,-2.404812,-0.000010,1.607897,0.785398
1.754741,-0.000001,-0.802162,0.000000,-2.404812,-0.000010,1.607897,0.785398
1.756721,-0.000001,-0.802162,0.000000,-2.404812,-0.000010,1.607897,0.785398
1.758709,-0.000001,-0.802162,0.000001,-2.404812,-0.000010,1.607897,0.785398
1.760698,-0.000001,-0.802162,0.000001,-2.404812,-0.000010,1.607897,0.785398
1.762702,-0.000000,-0.802162,0.000001,-2.404812,-0.000010,1.607897,0.785398
1.764702,-0.000000,-0.802162,0.000002,-2.404812,-0.000010,1.607897,0.785398
1.766703,0.000000,-0.802162,0.000002,-2.404812,-0.000010,1.607897,0.785398
1.768704,0.000001,-0.802162,0.000002,-2.404812,-0.000010,1.607897,0.785398
1.770709,0.000001,-0.802162,0.000003,-2.404812,-0.000010,1.607897,0.785398
1.772694,0.000002,-0.802162,0.000004,-2.404812,-0.000010,1.607897,0.785398
1.774706,0.000003,-0.802162,0.000004,-2.404812,-0.000010,1.607897,0.785398
1.776702,0.000004,-0.802162,0.000005,-2.404812,-0.000010,1.607897,0.785398
1.778700,0.000005,-0.802162,0.000006,-2.404812,-0.000010,1.607897,0.785398
1.780700,0.000007,-0.802162,0.000007,-2.404812,-0.000010,1.607897,0.785398
1.782739,0.000008,-0.802162,0.000008,-2.404812,-0.000010,1.607897,0.785398
1.784692,0.000010,-0.802162,0.000009,-2.404812,-0.000010,1.607897,0.785398
1.786666,0.000012,-0.802162,0.000010,-2.404812,-0.000010,1.607897,0.785398
1.788688,0.000015,-0.802162,0.000011,-2.404812,-0.000010,1.607897,0.785398
1.790671,0.000017,-0.802162,0.000012,-2.404812,-0.000010,1.607897,0.785398
1.792710,0.000020,-0.802162,0.000014,-2.404812,-0.000010,1.607897,0.785398
1.794698,0.000024,-0.802162,0.000015,-2.404812,-0.000010,1.607898,0.785398
1.796703,0.000027,-0.802162,0.000017,-2.404812,-0.000010,1.607900,0.785398
1.798798,0.000031,-0.802162,0.000018,-2.404812,-0.000010,1.607903,0.785398
1.800697,0.000036,-0.802162,0.000020,-2.404812,-0.000010,1.607908,0.785398
1.802678,0.000040,-0.802162,0.000022,-2.404812,-0.000010,1.607915,0.785398
1.804665,0.000045,-0.802162,0.000024,-2.404812,-0.000010,1.607924,0.785398
1.806714,0.000051,-0.802162,0.000026,-2.404812,-0.000010,1.607936,0.785398
1.808721,0.000057,-0.802162,0.000028,-2.404812,-0.000010,1.607950,0.785398
1.810684,0.000063,-0.802162,0.000031,-2.404812,-0.000010,1.607967,0.785398
1.812675,0.000070,-0.802162,0.000033,-2.404812,-0.000010,1.607988,0.785398
1.814684,0.000077,-0.802162,0.000036,-2.404812,-0.000010,1.608012,0.785398
1.816671,0.000085,-0.802161,0.000038,-2.404812,-0.000010,1.608041,0.785398
1.818671,0.000093,-0.802161,0.000041,-2.404812,-0.000010,1.608074,0.785398
1.820698,0.000102,-0.802160,0.000044,-2.404812,-0.000010,1.608112,0.785398
1.822718,0.000111,-0.802159,0.000047,-2.404812,-0.000010,1.608156,0.785398
1.824692,0.000121,-0.802158,0.000050,-2.404812,-0.000010,1.608206,0.785398
1.826700,0.000131,-0.802156,0.000054,-2.404812,-0.000010,1.608262,0.785398
1.828675,0.000142,-0.802154,0.000057,-2.404812,-0.000010,1.608324,0.785398
1.830696,0.000154,-0.802152,0.000061,-2.404812,-0.000010,1.608393,0.785398
1.832699,0.000166,-0.802150,0.000065,-2.404812,-0.000010,1.608469,0.785398
1.834694,0.000179,-0.802148,0.000069,-2.404812,-0.000010,1.608552,0.785398
1.836697,0.000192,-0.802145,0.000073,-2.404812,-0.000010,1.608643,0.785398
1.838716,0.000206,-0.802141,0.000078,-2.404812,-0.000010,1.608742,0.785398
1.840674,0.000221,-0.802138,0.000082,-2.404812,-0.000010,1.608849,0.785398
1.842667,0.000237,-0.802133,0.000087,-2.404812,-0.000010,1.608964,0.785398
1.844702,0.000253,-0.802129,0.000092,-2.404812,-0.000010,1.609088,0.785398
1.846709,0.000270,-0.802124,0.000097,-2.404812,-0.000008,1.609221,0.785398
1.848697,0.000288,-0.802119,0.000102,-2.404812,-0.000007,1.609363,0.785398
1.850699,0.000306,-0.802113,0.000108,-2.404812,-0.000004,1.609514,0.785398
1.852694,0.000325,-0.802106,0.000113,-2.404812,-0.000001,1.609674,0.785398
1.854700,0.000345,-0.802100,0.000119,-2.404812,0.000004,1.609844,0.785398
1.856698,0.000365,-0.802092,0.000125,-2.404812,0.000010,1.610023,0.785398
1.858695,0.000386,-0.802084,0.000132,-2.404812,0.000017,1.610212,0.785398
1.860697,0.000408,-0.802076,0.000138,-2.404812,0.000025,1.610411,0.785398
1.862697,0.000419,-0.802072,0.000141,-2.404812,0.000030,1.610515,0.785398
1.864696,0.000454,-0.802058,0.000152,-2.404812,0.000047,1.610840,0.785398
1.866698,0.000477,-0.802047,0.000159,-2.404812,0.000061,1.611069,0.785398
1.868700,0.000502,-0.802037,0.000166,-2.404812,0.000077,1.611309,0.785398
1.870698,0.000527,-0.802026,0.000174,-2.404812,0.000094,1.611560,0.785398
1.872674,0.000553,-0.802014,0.000182,-2.404812,0.000114,1.611820,0.785398
1.874673,0.000580,-0.802001,0.000190,-2.404812,0.000136,1.612092,0.785398
1.876664,0.000608,-0.801988,0.000198,-2.404812,0.000161,1.612374,0.785398
1.878664,0.000636,-0.801974,0.000206,-2.404812,0.000188,1.612666,0.785398
1.880721,0.000664,-0.801960,0.000215,-2.404812,0.000218,1.612969,0.785398
1.882671,0.000694,-0.801945,0.000224,-2.404812,0.000250,1.613283,0.785398
1.884685,0.000724,-0.801929,0.000233,-2.404812,0.000285,1.613608,0.785398
1.886740,0.000755,-0.801913,0.000243,-2.404812,0.000323,1.613943,0.785398
1.888682,0.000787,-0.801895,0.000252,-2.404812,0.000363,1.614289,0.785398
1.890711,0.000819,-0.801878,0.000262,-2.404812,0.000407,1.614645,0.785398
1.892681,0.000852,-0.801859,0.000273,-2.404812,0.000454,1.615012,0.785398
1.894751,0.000886,-0.801840,0.000283,-2.404812,0.000504,1.615390,0.785398
1.896665,0.000921,-0.801820,0.000294,-2.404812,0.000557,1.615778,0.785398
1.898683,0.000956,-0.801799,0.000305,-2.404812,0.000613,1.616177,0.785398
1.900615,0.000992,-0.801778,0.000316,-2.404812,0.000672,1.616586,0.785398
1.902700,0.001029,-0.801756,0.000327,-2.404812,0.000735,1.617006,0.785398
1.904617,0.001066,-0.801733,0.000339,-2.404812,0.000802,1.617435,0.785398
1.906637,0.001104,-0.801709,0.000351,-2.404812,0.000871,1.617875,0.785398
1.908674,0.001143,-0.801685,0.000363,-2.404812,0.000945,1.618325,0.785398
1.910632,0.001183,-0.801660,0.000376,-2.404812,0.001021,1.618786,0.785398
1.912709,0.001203,-0.801647,0.000382,-2.404812,0.001061,1.619019,0.785398
1.914724,0.001244,-0.801620,0.000395,-2.404812,0.001143,1.619495,0.785398
1.916698,0.001285,-0.801593,0.000408,-2.404812,0.001229,1.619980,0.785398
1.918715,0.001327,-0.801565,0.000422,-2.404812,0.001319,1.620477,0.785398
1.920670,0.001370,-0.801537,0.000435,-2.404812,0.001413,1.620984,0.785398
1.922698,0.001414,-0.801507,0.000449,-2.404812,0.001510,1.621501,0.785398
1.924725,0.001458,-0.801477,0.000463,-2.404812,0.001612,1.622029,0.785398
1.926727,0.001503,-0.801445,0.000478,-2.404812,0.001718,1.622568,0.785398
1.928671,0.001549,-0.801413,0.000493,-2.404812,0.001827,1.623117,0.785398
1.930728,0.001595,-0.801380,0.000508,-2.404813,0.001941,1.623677,0.785398
1.932701,0.001643,-0.801346,0.000523,-2.404813,0.002059,1.624248,0.785398
1.934722,0.001691,-0.801311,0.000539,-2.404813,0.002182,1.624830,0.785398
1.936729,0.001740,-0.801276,0.000555,-2.404814,0.002308,1.625422,0.785398
1.938709,0.001789,-0.801239,0.000571,-2.404814,0.002439,1.626025,0.785398
1.940702,0.001839,-0.801202,0.000588,-2.404815,0.002574,1.626639,0.785398
1.942700,0.001890,-0.801164,0.000604,-2.404816,0.002713,1.627264,0.785398
1.944667,0.001942,-0.801124,0.000621,-2.404817,0.002857,1.627899,0.785398
1.946698,0.001995,-0.801084,0.000639,-2.404819,0.003005,1.628545,0.785398
1.948697,0.002048,-0.801044,0.000656,-2.404821,0.003158,1.629201,0.785398
1.950698,0.002102,-0.801002,0.000674,-2.404822,0.003315,1.629868,0.785398
1.952663,0.002157,-0.800959,0.000693,-2.404825,0.003476,1.630545,0.785398
1.954667,0.002212,-0.800916,0.000711,-2.404827,0.003642,1.631233,0.785398
1.956707,0.002269,-0.800871,0.000730,-2.404830,0.003812,1.631930,0.785398
1.958698,0.002326,-0.800826,0.000749,-2.404833,0.003987,1.632638,0.785398
1.960663,0.002383,-0.800780,0.000769,-2.404836,0.004166,1.633355,0.785398
1.962688,0.002442,-0.800732,0.000788,-2.404840,0.004349,1.634083,0.785398
1.964673,0.002501,-0.800684,0.000808,-2.404844,0.004537,1.634819,0.785398
1.966665,0.002561,-0.800635,0.000829,-2.404848,0.004729,1.635566,0.785398
1.968684,0.002622,-0.800586,0.000849,-2.404852,0.004925,1.636322,0.785398
1.970765,0.002684,-0.800535,0.000870,-2.404857,0.005126,1.637087,0.785398
1.972667,0.002746,-0.800483,0.000891,-2.404862,0.005331,1.637861,0.785398
1.974670,0.002810,-0.800430,0.000913,-2.404868,0.005540,1.638644,0.785398
1.976669,0.002874,-0.800377,0.000934,-2.404873,0.005754,1.639436,0.785398
1.978682,0.002938,-0.800322,0.000956,-2.404879,0.005972,1.640236,0.785398
1.980668,0.003004,-0.800267,0.000979,-2.404886,0.006194,1.641045,0.785398
1.982663,0.003070,-0.800211,0.001001,-2.404893,0.006421,1.641862,0.785398
1.984660,0.003137,-0.800153,0.001024,-2.404900,0.006651,1.642687,0.785398
1.986660,0.003205,-0.800095,0.001048,-2.404907,0.006886,1.643519,0.785398
1.988660,0.003274,-0.800036,0.001071,-2.404914,0.007125,1.644360,0.785398
1.990659,0.003343,-0.799976,0.001095,-2.404922,0.007368,1.645208,0.785398
1.992752,0.003413,-0.799915,0.001119,-2.404931,0.007614,1.646063,0.785398
1.994666,0.003484,-0.799853,0.001143,-2.404939,0.007865,1.646925,0.785398
1.996721,0.003556,-0.799790,0.001168,-2.404948,0.008120,1.647794,0.785398
1.998687,0.003629,-0.799726,0.001193,-2.404957,0.008378,1.648669,0.785398
2.000663,0.003702,-0.799661,0.001218,-2.404966,0.008641,1.649551,0.785398
2.002662,0.003776,-0.799595,0.001244,-2.404976,0.008907,1.650440,0.785398
2.004662,0.003851,-0.799528,0.001270,-2.404986,0.009177,1.651334,0.785398
2.006662,0.003927,-0.799460,0.001296,-2.404996,0.009451,1.652234,0.785398
2.008672,0.004004,-0.799391,0.001323,-2.405006,0.009728,1.653140,0.785398
2.010663,0.004081,-0.799321,0.001349,-2.405016,0.010009,1.654051,0.785398
2.012661,0.004159,-0.799251,0.001376,-2.405027,0.010293,1.654967,0.785398
2.014662,0.004238,-0.799179,0.001404,-2.405038,0.010581,1.655889,0.785398
2.016661,0.004318,-0.799106,0.001431,-2.405050,0.010873,1.656816,0.785398
2.018661,0.004399,-0.799032,0.001459,-2.405061,0.011168,1.657748,0.785398
2.020650,0.004480,-0.798957,0.001488,-2.405073,0.011466,1.658686,0.785398
2.022742,0.004521,-0.798919,0.001502,-2.405080,0.011617,1.659157,0.785398
2.024719,0.004604,-0.798843,0.001530,-2.405092,0.011920,1.660104,0.785398
2.026719,0.004688,-0.798765,0.001559,-2.405105,0.012228,1.661055,0.785398
2.028654,0.004772,-0.798687,0.001589,-2.405118,0.012538,1.662013,0.785398
2.030711,0.004857,-0.798608,0.001618,-2.405132,0.012852,1.662977,0.785398
2.032715,0.004943,-0.798527,0.001648,-2.405147,0.013170,1.663947,0.785398
2.034699,0.005030,-0.798446,0.001678,-2.405161,0.013491,1.664922,0.785398
2.036675,0.005118,-0.798363,0.001709,-2.405177,0.013815,1.665904,0.785398
2.038695,0.005206,-0.798279,0.001739,-2.405192,0.014143,1.666891,0.785398
2.040704,0.005296,-0.798195,0.001771,-2.405209,0.014473,1.667883,0.785398
2.042679,0.005386,-0.798109,0.001802,-2.405226,0.014808,1.668882,0.785398
2.044730,0.005477,-0.798022,0.001834,-2.405243,0.015145,1.669886,0.785398
2.046662,0.005569,-0.797934,0.001865,-2.405261,0.015485,1.670895,0.785398
2.048693,0.005662,-0.797846,0.001898,-2.405279,0.015829,1.671910,0.785398
2.050716,0.005755,-0.797756,0.001930,-2.405298,0.016175,1.672930,0.785398
2.052729,0.005850,-0.797665,0.001963,-2.405318,0.016525,1.673955,0.785398
2.054742,0.005945,-0.797573,0.001996,-2.405338,0.016877,1.674986,0.785398
2.056704,0.006041,-0.797479,0.002030,-2.405359,0.017232,1.676022,0.785398
2.058714,0.006138,-0.797385,0.002063,-2.405380,0.017590,1.677062,0.785398
2.060719,0.006236,-0.797290,0.002097,-2.405402,0.017951,1.678108,0.785398
2.062707,0.006335,-0.797193,0.002132,-2.405424,0.018314,1.679158,0.785398
2.064698,0.006434,-0.797096,0.002166,-2.405447,0.018680,1.680213,0.785398
2.066694,0.006535,-0.796997,0.002201,-2.405471,0.019049,1.681273,0.785398
2.068694,0.006636,-0.796897,0.002237,-2.405495,0.019420,1.682337,0.785398
2.070697,0.006739,-0.796796,0.002272,-2.405520,0.019793,1.683405,0.785398
2.072708,0.006842,-0.796694,0.002308,-2.405546,0.020169,1.684478,0.785398
2.074700,0.006946,-0.796591,0.002344,-2.405572,0.020547,1.685555,0.785398
2.076690,0.007051,-0.796487,0.002380,-2.405599,0.020927,1.686636,0.785398
2.078698,0.007156,-0.796382,0.002417,-2.405626,0.021309,1.687721,0.785398
2.080668,0.007263,-0.796275,0.002454,-2.405654,0.021694,1.688809,0.785398
2.082695,0.007371,-0.796167,0.002491,-2.405682,0.022080,1.689902,0.785398
2.084695,0.007479,-0.796059,0.002529,-2.405712,0.022469,1.690997,0.785398
2.086662,0.007588,-0.795949,0.002567,-2.405741,0.022859,1.692097,0.785398
2.088693,0.007699,-0.795837,0.002605,-2.405772,0.023251,1.693200,0.785398
2.090749,0.007810,-0.795725,0.002643,-2.405803,0.023645,1.694306,0.785398
2.092664,0.007922,-0.795612,0.002682,-2.405834,0.024040,1.695415,0.785398
2.094663,0.008035,-0.795497,0.002721,-2.405867,0.024437,1.696527,0.785398
2.096663,0.008149,-0.795381,0.002760,-2.405899,0.024836,1.697642,0.785398
2.098663,0.008263,-0.795264,0.002799,-2.405933,0.025236,1.698760,0.785398
2.100662,0.008379,-0.795146,0.002839,-2.405967,0.025637,1.699881,0.785398
2.102662,0.008496,-0.795027,0.002879,-2.406002,0.026040,1.701004,0.785398
2.104662,0.008613,-0.794906,0.002920,-2.406037,0.026444,1.702129,0.785398
2.106666,0.008732,-0.794784,0.002960,-2.406073,0.026849,1.703257,0.785398
2.108662,0.008851,-0.794661,0.003001,-2.406110,0.027256,1.704387,0.785398
2.110662,0.008971,-0.794537,0.003042,-2.406147,0.027663,1.705520,0.785398
2.112662,0.009092,-0.794411,0.003084,-2.406184,0.028071,1.706654,0.785398
2.114663,0.009214,-0.794285,0.003126,-2.406223,0.028480,1.707791,0.785398
2.116662,0.009337,-0.794157,0.003168,-2.406262,0.028890,1.708930,0.785398
2.118661,0.009461,-0.794028,0.003210,-2.406302,0.029301,1.710072,0.785398
2.120709,0.009586,-0.793897,0.003252,-2.406342,0.029713,1.711216,0.785398
2.122664,0.009712,-0.793766,0.003295,-2.406383,0.030126,1.712363,0.785398
2.124620,0.009839,-0.793633,0.003338,-2.406426,0.030539,1.713513,0.785398
2.126670,0.009967,-0.793499,0.003382,-2.406468,0.030953,1.714667,0.785398
2.128648,0.010095,-0.793363,0.003425,-2.406512,0.031367,1.715823,0.785398
2.130679,0.010225,-0.793227,0.003469,-2.406557,0.031782,1.716982,0.785398
2.132626,0.010355,-0.793089,0.003513,-2.406602,0.032198,1.718145,0.785398
2.134700,0.010487,-0.792950,0.003558,-2.406648,0.032614,1.719311,0.785398
2.136715,0.010553,-0.792879,0.003580,-2.406672,0.032822,1.719895,0.785398
2.138638,0.010686,-0.792738,0.003625,-2.406719,0.033239,1.721066,0.785398
2.140797,0.010820,-0.792596,0.003670,-2.406768,0.033656,1.722241,0.785398
2.142907,0.011023,-0.792380,0.003738,-2.406843,0.034283,1.724012,0.785398
2.144660,0.011091,-0.792307,0.003761,-2.406869,0.034492,1.724604,0.785398
2.146703,0.011296,-0.792087,0.003830,-2.406947,0.035119,1.726387,0.785398
2.148641,0.011365,-0.792013,0.003853,-2.406973,0.035329,1.726984,0.785398
2.150632,0.011504,-0.791864,0.003900,-2.407027,0.035747,1.728180,0.785398
2.152701,0.011644,-0.791714,0.003947,-2.407082,0.036166,1.729380,0.785398
2.154719,0.011784,-0.791562,0.003994,-2.407138,0.036585,1.730585,0.785398
2.156688,0.011926,-0.791409,0.004041,-2.407196,0.037005,1.731794,0.785398
2.158699,0.012069,-0.791255,0.004089,-2.407254,0.037424,1.733008,0.785398
2.160695,0.012212,-0.791099,0.004137,-2.407314,0.037843,1.734226,0.785398
2.162662,0.012284,-0.791021,0.004161,-2.407344,0.038053,1.734837,0.785398
2.164669,0.012502,-0.790784,0.004233,-2.407436,0.038682,1.736677,0.785398
2.166696,0.012649,-0.790624,0.004282,-2.407500,0.039101,1.737910,0.785398
2.168696,0.012797,-0.790463,0.004331,-2.407564,0.039520,1.739147,0.785398
2.170668,0.012945,-0.790300,0.004380,-2.407630,0.039938,1.740389,0.785398
2.172691,0.013095,-0.790136,0.004429,-2.407697,0.040356,1.741636,0.785398
2.174712,0.013246,-0.789971,0.004479,-2.407765,0.040774,1.742887,0.785398
2.176700,0.013397,-0.789804,0.004529,-2.407834,0.041192,1.744142,0.785398
2.178697,0.013550,-0.789636,0.004579,-2.407905,0.041609,1.745402,0.785398
2.180704,0.013704,-0.789466,0.004630,-2.407977,0.042025,1.746667,0.785398
2.182703,0.013858,-0.789295,0.004681,-2.408050,0.042441,1.747936,0.785398
2.184698,0.014014,-0.789123,0.004732,-2.408125,0.042856,1.749210,0.785398
2.186695,0.014171,-0.788949,0.004783,-2.408201,0.043271,1.750488,0.785398
2.188692,0.014328,-0.788773,0.004835,-2.408278,0.043684,1.751770,0.785398
2.190695,0.014487,-0.788596,0.004887,-2.408356,0.044097,1.753057,0.785398
2.192700,0.014647,-0.788418,0.004939,-2.408436,0.044509,1.754348,0.785398
2.194676,0.014808,-0.788238,0.004991,-2.408517,0.044920,1.755643,0.785398
2.196670,0.014970,-0.788057,0.005044,-2.408599,0.045330,1.756942,0.785398
2.198663,0.015133,-0.787874,0.005097,-2.408683,0.045739,1.758246,0.785398
2.200662,0.015297,-0.787690,0.005150,-2.408768,0.046146,1.759553,0.785398
2.202683,0.015462,-0.787504,0.005203,-2.408854,0.046553,1.760865,0.785398
2.204662,0.015628,-0.787317,0.005257,-2.408942,0.046958,1.762181,0.785398
2.206674,0.015795,-0.787129,0.005310,-2.409031,0.047362,1.763500,0.785398
2.208681,0.015963,-0.786938,0.005365,-2.409121,0.047765,1.764824,0.785398
2.210680,0.016132,-0.786746,0.005419,-2.409213,0.048167,1.766151,0.785398
2.212670,0.016302,-0.786553,0.005473,-2.409306,0.048567,1.767482,0.785398
2.214845,0.016474,-0.786358,0.005528,-2.409400,0.048965,1.768818,0.785398
2.216866,0.016646,-0.786162,0.005583,-2.409496,0.049362,1.770157,0.785398
2.218864,0.016819,-0.785964,0.005639,-2.409593,0.049758,1.771501,0.785398
2.220703,0.016994,-0.785764,0.005694,-2.409691,0.050152,1.772850,0.785398
2.222688,0.017170,-0.785563,0.005750,-2.409791,0.050545,1.774204,0.785398
2.224676,0.017346,-0.785360,0.005806,-2.409893,0.050936,1.775562,0.785398
2.226673,0.017524,-0.785156,0.005862,-2.409996,0.051325,1.776926,0.785398
2.228634,0.017703,-0.784950,0.005919,-2.410101,0.051713,1.778295,0.785398
2.230679,0.017883,-0.784743,0.005976,-2.410207,0.052099,1.779669,0.785398
2.232686,0.018064,-0.784533,0.006033,-2.410315,0.052484,1.781049,0.785398
2.234680,0.018246,-0.784323,0.006090,-2.410425,0.052867,1.782434,0.785398
2.236681,0.018429,-0.784110,0.006147,-2.410536,0.053248,1.783826,0.785398
2.238680,0.018614,-0.783896,0.006205,-2.410649,0.053627,1.785223,0.785398
2.240665,0.018799,-0.783680,0.006263,-2.410764,0.054005,1.786625,0.785398
2.242665,0.018986,-0.783463,0.006321,-2.410880,0.054381,1.788034,0.785398
2.244661,0.019173,-0.783244,0.006380,-2.410998,0.054755,1.789449,0.785398
2.246656,0.019362,-0.783023,0.006439,-2.411118,0.055127,1.790871,0.785398
2.248814,0.019552,-0.782801,0.006497,-2.411239,0.055497,1.792298,0.785398
2.250711,0.019743,-0.782576,0.006557,-2.411363,0.055865,1.793732,0.785398
2.252738,0.019935,-0.782351,0.006616,-2.411488,0.056232,1.795172,0.785398
2.254832,0.020129,-0.782123,0.006676,-2.411615,0.056596,1.796619,0.785398
2.256716,0.020323,-0.781894,0.006736,-2.411744,0.056959,1.798073,0.785398
2.258731,0.020519,-0.781662,0.006796,-2.411874,0.057319,1.799533,0.785398
2.260711,0.020716,-0.781430,0.006856,-2.412007,0.057678,1.800999,0.785398
2.262716,0.020814,-0.781312,0.006886,-2.412074,0.057856,1.801735,0.785398
2.264673,0.021013,-0.781077,0.006947,-2.412209,0.058211,1.803212,0.785398
2.266675,0.021213,-0.780840,0.007008,-2.412346,0.058565,1.804696,0.785398
2.268637,0.021413,-0.780601,0.007069,-2.412486,0.058916,1.806187,0.785398
2.270657,0.021615,-0.780360,0.007131,-2.412627,0.059265,1.807686,0.785398
2.272668,0.021819,-0.780117,0.007192,-2.412770,0.059612,1.809192,0.785398
2.274651,0.022023,-0.779872,0.007254,-2.412915,0.059958,1.810705,0.785398
2.276675,0.022229,-0.779626,0.007317,-2.413062,0.060301,1.812226,0.785398
2.278702,0.022435,-0.779378,0.007379,-2.413212,0.060642,1.813755,0.785398
2.280702,0.022643,-0.779128,0.007442,-2.413363,0.060980,1.815290,0.785398
2.282722,0.022852,-0.778876,0.007504,-2.413516,0.061317,1.816833,0.785398
2.284704,0.023063,-0.778622,0.007567,-2.413671,0.061651,1.818383,0.785398
2.286699,0.023274,-0.778366,0.007631,-2.413828,0.061983,1.819941,0.785398
2.288703,0.023487,-0.778109,0.007694,-2.413987,0.062313,1.821506,0.785398
2.290680,0.023701,-0.777849,0.007758,-2.414149,0.062641,1.823077,0.785398
2.292696,0.023916,-0.777588,0.007822,-2.414312,0.062966,1.824656,0.785398
2.294703,0.024132,-0.777324,0.007886,-2.414477,0.063288,1.826242,0.785398
2.296697,0.024350,-0.777059,0.007951,-2.414644,0.063609,1.827835,0.785398
2.298703,0.024569,-0.776792,0.008015,-2.414813,0.063927,1.829435,0.785398
2.300706,0.024789,-0.776523,0.008080,-2.414985,0.064242,1.831042,0.785398
2.302676,0.025010,-0.776251,0.008145,-2.415158,0.064555,1.832655,0.785398
2.304670,0.025232,-0.775978,0.008210,-2.415333,0.064865,1.834275,0.785398
2.306746,0.025456,-0.775703,0.008276,-2.415510,0.065173,1.835901,0.785398
2.308662,0.025681,-0.775426,0.008341,-2.415689,0.065478,1.837534,0.785398
2.310697,0.025907,-0.775147,0.008407,-2.415870,0.065780,1.839174,0.785398
2.312701,0.026135,-0.774866,0.008473,-2.416054,0.066080,1.840820,0.785398
2.314706,0.026364,-0.774583,0.008540,-2.416239,0.066377,1.842472,0.785398
2.316681,0.026594,-0.774297,0.008606,-2.416426,0.066672,1.844131,0.785398
2.318664,0.026825,-0.774010,0.008673,-2.416615,0.066963,1.845796,0.785398
2.320702,0.027057,-0.773721,0.008739,-2.416806,0.067252,1.847469,0.785398
2.322682,0.027291,-0.773429,0.008806,-2.416999,0.067538,1.849148,0.785398
2.324664,0.027526,-0.773135,0.008874,-2.417194,0.067821,1.850833,0.785398
2.326685,0.027763,-0.772840,0.008941,-2.417392,0.068101,1.852526,0.785398
2.328716,0.028001,-0.772542,0.009008,-2.417591,0.068378,1.854226,0.785398
2.330726,0.028240,-0.772242,0.009076,-2.417793,0.068652,1.855933,0.785398
2.332683,0.028480,-0.771940,0.009144,-2.417996,0.068923,1.857647,0.785398
2.334700,0.028721,-0.771636,0.009212,-2.418202,0.069191,1.859369,0.785398
2.336690,0.028964,-0.771329,0.009280,-2.418410,0.069456,1.861097,0.785398
2.338682,0.029209,-0.771020,0.009349,-2.418620,0.069718,1.862833,0.785398
2.340674,0.029454,-0.770709,0.009417,-2.418832,0.069977,1.864576,0.785398
2.342701,0.029701,-0.770396,0.009486,-2.419046,0.070232,1.866326,0.785398
2.344721,0.029949,-0.770081,0.009555,-2.419262,0.070485,1.868084,0.785398
2.346668,0.030199,-0.769763,0.009624,-2.419481,0.070734,1.869849,0.785398
2.348677,0.030450,-0.769444,0.009693,-2.419702,0.070980,1.871621,0.785398
2.350760,0.030702,-0.769121,0.009762,-2.419924,0.071222,1.873401,0.785398
2.352674,0.030955,-0.768797,0.009832,-2.420149,0.071462,1.875188,0.785398
2.354685,0.031210,-0.768470,0.009901,-2.420377,0.071697,1.876982,0.785398
2.356680,0.031467,-0.768141,0.009971,-2.420606,0.071930,1.878784,0.785398
2.358663,0.031724,-0.767810,0.010041,-2.420837,0.072159,1.880593,0.785398
2.360662,0.031983,-0.767476,0.010111,-2.421071,0.072385,1.882409,0.785398
2.362662,0.032244,-0.767140,0.010181,-2.421307,0.072607,1.884232,0.785398
2.364679,0.032505,-0.766802,0.010251,-2.421545,0.072825,1.886063,0.785398
2.366687,0.032769,-0.766461,0.010322,-2.421785,0.073040,1.887900,0.785398
2.368652,0.033033,-0.766117,0.010392,-2.422027,0.073252,1.889745,0.785398
2.370686,0.033299,-0.765772,0.010463,-2.422271,0.073459,1.891597,0.785398
2.372665,0.033566,-0.765424,0.010534,-2.422518,0.073664,1.893456,0.785398
2.374664,0.033835,-0.765073,0.010604,-2.422766,0.073864,1.895321,0.785398
2.376664,0.034105,-0.764720,0.010675,-2.423017,0.074061,1.897194,0.785398
2.378729,0.034377,-0.764365,0.010746,-2.423270,0.074254,1.899074,0.785398
2.380669,0.034650,-0.764007,0.010817,-2.423525,0.074443,1.900960,0.785398
2.382664,0.034924,-0.763646,0.010889,-2.423782,0.074628,1.902853,0.785398
2.384679,0.035200,-0.763283,0.010960,-2.424041,0.074810,1.904753,0.785398
2.386659,0.035477,-0.762918,0.011031,-2.424302,0.074988,1.906659,0.785398
2.388745,0.035756,-0.762550,0.011103,-2.424565,0.075161,1.908572,0.785398
2.390770,0.036036,-0.762179,0.011174,-2.424831,0.075331,1.910491,0.785398
2.392744,0.036318,-0.761806,0.011245,-2.425098,0.075497,1.912417,0.785398
2.394663,0.036459,-0.761618,0.011281,-2.425233,0.075579,1.913382,0.785398
2.396698,0.036743,-0.761241,0.011353,-2.425503,0.075739,1.915317,0.785398
2.398702,0.037028,-0.760862,0.011424,-2.425776,0.075895,1.917260,0.785398
2.400697,0.037315,-0.760479,0.011496,-2.426050,0.076047,1.919209,0.785398
2.402705,0.037603,-0.760094,0.011568,-2.426327,0.076195,1.921165,0.785398
2.404693,0.037892,-0.759707,0.011640,-2.426606,0.076339,1.923128,0.785398
2.406696,0.038183,-0.759317,0.011711,-2.426887,0.076480,1.925097,0.785398
2.408670,0.038476,-0.758924,0.011783,-2.427170,0.076616,1.927073,0.785398
2.410723,0.038770,-0.758528,0.011855,-2.427455,0.076748,1.929056,0.785398
2.412696,0.039066,-0.758130,0.011927,-2.427742,0.076876,1.931045,0.785398
2.414729,0.039363,-0.757729,0.011999,-2.428031,0.077000,1.933040,0.785398
2.416683,0.039662,-0.757325,0.012070,-2.428323,0.077120,1.935042,0.785398
2.418767,0.039962,-0.756918,0.012142,-2.428616,0.077235,1.937051,0.785398
2.420697,0.040263,-0.756509,0.012214,-2.428911,0.077346,1.939066,0.785398
2.422694,0.040567,-0.756097,0.012286,-2.429208,0.077453,1.941088,0.785398
2.424663,0.040871,-0.755682,0.012358,-2.429508,0.077556,1.943116,0.785398
2.426694,0.041178,-0.755264,0.012429,-2.429809,0.077654,1.945151,0.785398
2.428639,0.041485,-0.754843,0.012501,-2.430113,0.077748,1.947193,0.785398
2.430666,0.041795,-0.754420,0.012573,-2.430418,0.077838,1.949242,0.785398
2.432664,0.042106,-0.753993,0.012645,-2.430726,0.077923,1.951298,0.785398
2.434688,0.042418,-0.753564,0.012716,-2.431035,0.078003,1.953360,0.785398
2.436665,0.042732,-0.753132,0.012788,-2.431347,0.078079,1.955430,0.785398
2.438722,0.043048,-0.752697,0.012859,-2.431660,0.078151,1.957506,0.785398
2.440669,0.043365,-0.752259,0.012930,-2.431976,0.078218,1.959589,0.785398
2.442674,0.043684,-0.751818,0.013002,-2.432294,0.078280,1.961679,0.785398
2.444669,0.044004,-0.751373,0.013073,-2.432614,0.078338,1.963776,0.785398
2.446668,0.044326,-0.750926,0.013144,-2.432935,0.078391,1.965880,0.785398
2.448705,0.044650,-0.750476,0.013215,-2.433259,0.078439,1.967991,0.785398
2.450687,0.044975,-0.750023,0.013286,-2.433585,0.078483,1.970109,0.785398
2.452705,0.045302,-0.749567,0.013357,-2.433913,0.078521,1.972234,0.785398
2.454703,0.045631,-0.749107,0.013428,-2.434243,0.078555,1.974366,0.785398
2.456700,0.045961,-0.748645,0.013498,-2.434575,0.078584,1.976505,0.785398
2.458694,0.046292,-0.748179,0.013568,-2.434908,0.078608,1.978650,0.785398
2.460694,0.046626,-0.747711,0.013639,-2.435244,0.078627,1.980803,0.785398
2.462677,0.046961,-0.747239,0.013709,-2.435582,0.078641,1.982962,0.785398
2.464668,0.047298,-0.746764,0.013779,-2.435921,0.078650,1.985128,0.785398
2.466663,0.047636,-0.746285,0.013848,-2.436263,0.078654,1.987301,0.785398
2.468701,0.047976,-0.745804,0.013918,-2.436607,0.078654,1.989480,0.785398
2.470699,0.048317,-0.745319,0.013988,-2.436952,0.078654,1.991667,0.785398
2.472696,0.048660,-0.744831,0.014057,-2.437300,0.078654,1.993859,0.785398
2.474674,0.049004,-0.744340,0.014127,-2.437649,0.078654,1.996059,0.785398
2.476665,0.049349,-0.743846,0.014196,-2.438001,0.078654,1.998265,0.785398
2.478664,0.049696,-0.743349,0.014266,-2.438354,0.078654,2.000478,0.785398
2.480667,0.050044,-0.742848,0.014335,-2.438710,0.078654,2.002697,0.785398
2.482670,0.050393,-0.742344,0.014404,-2.439067,0.078654,2.004923,0.785398
2.484695,0.050744,-0.741836,0.014474,-2.439427,0.078654,2.007155,0.785398
2.486699,0.051096,-0.741325,0.014543,-2.439788,0.078654,2.009393,0.785398
2.488666,0.051449,-0.740811,0.014612,-2.440151,0.078654,2.011637,0.785398
2.490665,0.051804,-0.740294,0.014681,-2.440516,0.078654,2.013888,0.785398
2.492662,0.052160,-0.739773,0.014750,-2.440883,0.078654,2.016145,0.785398
2.494663,0.052518,-0.739249,0.014819,-2.441252,0.078654,2.018408,0.785398
2.496661,0.052876,-0.738721,0.014888,-2.441622,0.078654,2.020677,0.785398
2.498661,0.053236,-0.738190,0.014956,-2.441995,0.078654,2.022952,0.785398
2.500699,0.053598,-0.737656,0.015025,-2.442369,0.078654,2.025233,0.785398
2.502665,0.053960,-0.737118,0.015093,-2.442745,0.078654,2.027520,0.785398
2.504664,0.054324,-0.736577,0.015162,-2.443122,0.078654,2.029812,0.785398
2.506768,0.054690,-0.736032,0.015230,-2.443502,0.078654,2.032110,0.785398
2.508687,0.055056,-0.735483,0.015298,-2.443883,0.078654,2.034414,0.785398
2.510662,0.055424,-0.734932,0.015366,-2.444266,0.078654,2.036723,0.785398
2.512661,0.055793,-0.734376,0.015433,-2.444650,0.078654,2.039038,0.785398
2.514691,0.056164,-0.733817,0.015501,-2.445036,0.078654,2.041358,0.785398
2.516724,0.056536,-0.733254,0.015568,-2.445424,0.078654,2.043684,0.785398
2.518680,0.056909,-0.732688,0.015636,-2.445814,0.078654,2.046015,0.785398
2.520621,0.057283,-0.732118,0.015703,-2.446205,0.078654,2.048352,0.785398
2.522663,0.057658,-0.731545,0.015769,-2.446598,0.078654,2.050695,0.785398
2.524692,0.058035,-0.730968,0.015836,-2.446992,0.078654,2.053043,0.785398
2.526854,0.058413,-0.730387,0.015902,-2.447388,0.078654,2.055397,0.785398
2.528704,0.058603,-0.730095,0.015936,-2.447586,0.078654,2.056576,0.785398
2.530674,0.059173,-0.729214,0.016035,-2.448185,0.078654,2.060123,0.785398
2.532698,0.059555,-0.728622,0.016101,-2.448586,0.078654,2.062495,0.785398
2.534811,0.059746,-0.728325,0.016133,-2.448787,0.078654,2.063684,0.785398
2.536708,0.060130,-0.727727,0.016199,-2.449190,0.078654,2.066065,0.785398
2.538706,0.060515,-0.727125,0.016264,-2.449595,0.078654,2.068453,0.785398
2.540706,0.060901,-0.726520,0.016329,-2.450001,0.078654,2.070847,0.785398
2.542668,0.061288,-0.725911,0.016394,-2.450409,0.078654,2.073248,0.785398
2.544707,0.061677,-0.725298,0.016458,-2.450819,0.078654,2.075656,0.785398
2.546700,0.062066,-0.724680,0.016522,-2.451230,0.078654,2.078071,0.785398
2.548696,0.062457,-0.724059,0.016586,-2.451643,0.078654,2.080492,0.785398
2.550671,0.062849,-0.723434,0.016650,-2.452058,0.078654,2.082920,0.785398
2.552697,0.063243,-0.722806,0.016713,-2.452474,0.078654,2.085355,0.785398
2.554695,0.063637,-0.722173,0.016776,-2.452891,0.078654,2.087796,0.785398
2.556696,0.064033,-0.721536,0.016839,-2.453310,0.078654,2.090244,0.785398
2.558693,0.064429,-0.720895,0.016902,-2.453731,0.078654,2.092698,0.785398
2.560662,0.064827,-0.720250,0.016964,-2.454152,0.078654,2.095159,0.785398
2.562693,0.065026,-0.719926,0.016995,-2.454364,0.078654,2.096391,0.785398
2.564696,0.065626,-0.718947,0.017087,-2.455001,0.078654,2.100099,0.785398
2.566664,0.066027,-0.718290,0.017148,-2.455427,0.078654,2.102579,0.785398
2.568669,0.066430,-0.717628,0.017209,-2.455854,0.078654,2.105066,0.785398
2.570699,0.066833,-0.716963,0.017270,-2.456283,0.078654,2.107559,0.785398
2.572695,0.067238,-0.716293,0.017330,-2.456714,0.078654,2.110059,0.785398
2.574697,0.067643,-0.715619,0.017389,-2.457145,0.078654,2.112564,0.785398
2.576667,0.068050,-0.714941,0.017449,-2.457578,0.078654,2.115075,0.785398
2.578683,0.068458,-0.714258,0.017508,-2.458012,0.078654,2.117592,0.785398
2.580700,0.068866,-0.713571,0.017566,-2.458448,0.078654,2.120115,0.785398
2.582704,0.069276,-0.712880,0.017624,-2.458884,0.078654,2.122644,0.785398
2.584696,0.069687,-0.712185,0.017682,-2.459322,0.078654,2.125179,0.785398
2.586694,0.070099,-0.711485,0.017739,-2.459761,0.078654,2.127719,0.785398
2.588739,0.070512,-0.710781,0.017796,-2.460200,0.078654,2.130265,0.785398
2.590698,0.070926,-0.710073,0.017853,-2.460641,0.078654,2.132817,0.785398
2.592696,0.071341,-0.709360,0.017909,-2.461084,0.078654,2.135374,0.785398
2.594694,0.071757,-0.708643,0.017964,-2.461527,0.078654,2.137937,0.785398
2.596693,0.072173,-0.707921,0.018019,-2.461971,0.078654,2.140504,0.785398
2.598695,0.072591,-0.707195,0.018074,-2.462416,0.078654,2.143078,0.785398
2.600665,0.073010,-0.706464,0.018128,-2.462862,0.078654,2.145656,0.785398
2.602690,0.073430,-0.705729,0.018181,-2.463309,0.078654,2.148239,0.785398
2.604696,0.073850,-0.704990,0.018234,-2.463756,0.078654,2.150828,0.785398
2.606694,0.074272,-0.704246,0.018287,-2.464205,0.078654,2.153421,0.785398
2.608700,0.074694,-0.703497,0.018339,-2.464654,0.078654,2.156019,0.785398
2.610694,0.075118,-0.702744,0.018390,-2.465105,0.078654,2.158622,0.785398
2.612697,0.075542,-0.701986,0.018441,-2.465555,0.078654,2.161230,0.785398
2.614667,0.075967,-0.701224,0.018492,-2.466007,0.078654,2.163842,0.785398
2.616698,0.076393,-0.700457,0.018542,-2.466460,0.078654,2.166460,0.785398
2.618662,0.076820,-0.699685,0.018591,-2.466913,0.078654,2.169082,0.785398
2.620697,0.077247,-0.698909,0.018640,-2.467366,0.078654,2.171709,0.785398
2.622693,0.077676,-0.698128,0.018688,-2.467821,0.078654,2.174340,0.785398
2.624699,0.078105,-0.697342,0.018736,-2.468276,0.078654,2.176977,0.785398
2.626673,0.078535,-0.696552,0.018782,-2.468731,0.078654,2.179618,0.785398
2.628663,0.078966,-0.695756,0.018829,-2.469187,0.078654,2.182264,0.785398
2.630663,0.079397,-0.694956,0.018875,-2.469644,0.078654,2.184916,0.785398
2.632642,0.079830,-0.694151,0.018920,-2.470101,0.078654,2.187572,0.785398
2.634692,0.080263,-0.693342,0.018964,-2.470559,0.078654,2.190233,0.785398
2.636718,0.080697,-0.692527,0.019008,-2.471017,0.078654,2.192898,0.785398
2.638702,0.081132,-0.691707,0.019051,-2.471476,0.078654,2.195569,0.785398
