VaruniBuereddy/DMP-LfD-MPC/W_results_OLD/franka_joint_positions.csv
time,q1,q2,q3,q4,q5,q6,q7
0.007287,-0.000001,-0.781335,0.000000,-2.424865,-0.000010,1.571040,0.785398
0.009331,-0.000001,-0.781335,0.000000,-2.424865,-0.000010,1.571040,0.785398
0.011240,-0.000001,-0.781335,0.000000,-2.424865,-0.000010,1.571059,0.785398
0.013272,-0.000001,-0.781335,0.000000,-2.424865,-0.000010,1.571104,0.785398
0.015277,-0.000001,-0.781335,0.000000,-2.424865,-0.000010,1.571175,0.785398
0.017343,-0.000001,-0.781335,0.000000,-2.424865,-0.000010,1.571219,0.785398
0.019349,-0.000001,-0.781335,0.000000,-2.424865,-0.000010,1.571388,0.785398
0.021391,-0.000001,-0.781335,0.000000,-2.424865,-0.000010,1.571530,0.785398
0.023221,-0.000001,-0.781335,0.000000,-2.424865,-0.000010,1.571694,0.785398
0.025235,-0.000001,-0.781335,0.000000,-2.424865,-0.000010,1.571881,0.785398
0.027271,-0.000001,-0.781335,0.000000,-2.424865,-0.000010,1.572089,0.785398
0.029232,-0.000001,-0.781335,0.000000,-2.424865,-0.000010,1.572318,0.785398
0.031241,-0.000001,-0.781335,0.000000,-2.424865,-0.000010,1.572567,0.785398
0.033206,-0.000001,-0.781335,0.000000,-2.424865,-0.000010,1.572836,0.785398
0.035273,-0.000001,-0.781335,0.000000,-2.424865,-0.000010,1.573123,0.785398
0.037324,-0.000001,-0.781335,0.000000,-2.424865,-0.000010,1.573274,0.785398
0.039395,-0.000001,-0.781335,0.000000,-2.424865,-0.000010,1.573753,0.785398
0.041342,-0.000001,-0.781335,0.000000,-2.424865,-0.000010,1.574095,0.785398
0.043280,-0.000001,-0.781335,0.000000,-2.424865,-0.000010,1.574452,0.785398
0.045260,-0.000001,-0.781335,0.000000,-2.424865,-0.000010,1.574826,0.785398
0.047297,-0.000001,-0.781335,0.000000,-2.424865,-0.000010,1.575214,0.785398
0.049332,-0.000001,-0.781335,0.000000,-2.424865,-0.000010,1.575414,0.785398
0.051279,-0.000001,-0.781335,0.000000,-2.424865,-0.000010,1.576035,0.785398
0.053337,-0.000001,-0.781335,0.000000,-2.424865,-0.000010,1.576466,0.785398
0.055274,-0.000001,-0.781335,0.000000,-2.424865,-0.000010,1.576910,0.785398
0.057311,-0.000001,-0.781335,0.000000,-2.424865,-0.000010,1.577136,0.785398
0.059292,-0.000001,-0.781335,0.000000,-2.424865,-0.000010,1.577597,0.785398
0.061310,-0.000001,-0.781335,0.000000,-2.424864,-0.000010,1.578310,0.785398
0.063250,-0.000001,-0.781335,0.000000,-2.424864,-0.000010,1.578798,0.785398
0.065257,-0.000001,-0.781335,0.000000,-2.424864,-0.000010,1.579046,0.785398
0.067353,-0.000001,-0.781335,0.000000,-2.424862,-0.000010,1.579801,0.785398
0.069276,-0.000001,-0.781335,0.000000,-2.424861,-0.000010,1.580314,0.785398
0.071303,-0.000001,-0.781335,0.000000,-2.424860,-0.000010,1.580574,0.785398
0.073353,-0.000001,-0.781335,0.000000,-2.424857,-0.000010,1.581361,0.785398
0.075298,-0.000001,-0.781335,0.000000,-2.424856,-0.000010,1.581626,0.785398
0.077271,-0.000001,-0.781335,0.000000,-2.424853,-0.000010,1.582161,0.785398
0.079284,-0.000001,-0.781335,0.000000,-2.424849,-0.000010,1.582700,0.785398
0.081267,-0.000001,-0.781335,0.000000,-2.424845,-0.000010,1.583244,0.785398
0.083292,-0.000001,-0.781335,0.000000,-2.424840,-0.000010,1.583790,0.785398
0.085264,-0.000001,-0.781335,0.000000,-2.424834,-0.000010,1.584339,0.785398
0.087273,-0.000001,-0.781335,0.000000,-2.424828,-0.000010,1.584890,0.785398
0.089263,-0.000001,-0.781335,0.000000,-2.424820,-0.000010,1.585442,0.785398
0.091272,-0.000001,-0.781335,0.000000,-2.424812,-0.000010,1.585995,0.785398
0.093265,-0.000001,-0.781335,0.000000,-2.424802,-0.000010,1.586547,0.785398
0.095261,-0.000001,-0.781335,0.000000,-2.424792,-0.000010,1.587099,0.785398
0.097262,-0.000001,-0.781335,0.000000,-2.424780,-0.000010,1.587650,0.785398
0.099260,-0.000001,-0.781335,0.000000,-2.424768,-0.000010,1.588199,0.785398
0.101265,-0.000001,-0.781335,0.000000,-2.424754,-0.000010,1.588746,0.785398
0.103274,-0.000001,-0.781335,0.000000,-2.424739,-0.000010,1.589290,0.785398
0.105315,-0.000001,-0.781335,0.000000,-2.424723,-0.000010,1.589830,0.785398
0.107334,-0.000001,-0.781335,0.000000,-2.424705,-0.000010,1.590367,0.785398
0.109392,-0.000001,-0.781335,0.000000,-2.424686,-0.000010,1.590900,0.785398
0.111300,-0.000001,-0.781335,0.000000,-2.424666,-0.000010,1.591427,0.785398
0.113485,-0.000001,-0.781335,0.000000,-2.424645,-0.000010,1.591950,0.785398
0.115410,-0.000001,-0.781335,0.000000,-2.424622,-0.000010,1.592467,0.785398
0.117369,-0.000001,-0.781335,0.000000,-2.424597,-0.000010,1.592977,0.785398
0.119464,-0.000001,-0.781335,0.000000,-2.424571,-0.000010,1.593482,0.785398
0.121227,-0.000001,-0.781335,0.000000,-2.424544,-0.000010,1.593979,0.785398
0.123290,-0.000001,-0.781335,0.000000,-2.424515,-0.000010,1.594469,0.785398
0.125290,-0.000001,-0.781335,0.000000,-2.424484,-0.000010,1.594951,0.785398
0.127295,-0.000001,-0.781335,0.000000,-2.424468,-0.000010,1.595189,0.785398
0.129329,-0.000001,-0.781335,0.000000,-2.424418,-0.000010,1.595891,0.785398
0.131516,-0.000001,-0.781335,0.000000,-2.424382,-0.000010,1.596349,0.785398
0.133320,-0.000001,-0.781335,0.000000,-2.424345,-0.000010,1.596797,0.785398
0.135335,-0.000001,-0.781335,0.000000,-2.424306,-0.000010,1.597236,0.785398
0.137259,-0.000001,-0.781335,0.000000,-2.424285,-0.000010,1.597452,0.785398
0.139326,-0.000001,-0.781335,0.000000,-2.424222,-0.000010,1.598085,0.785398
0.141218,-0.000001,-0.781335,0.000000,-2.424178,-0.000010,1.598495,0.785398
0.143244,-0.000001,-0.781335,0.000000,-2.424155,-0.000010,1.598696,0.785398
0.145365,-0.000001,-0.781335,0.000000,-2.424108,-0.000010,1.599090,0.785398
0.147497,-0.000001,-0.781335,0.000000,-2.424034,-0.000010,1.599661,0.785398
0.149304,-0.000001,-0.781335,0.000000,-2.424008,-0.000010,1.599846,0.785398
0.151307,-0.000001,-0.781335,0.000000,-2.423956,-0.000010,1.600208,0.785398
0.153304,-0.000001,-0.781335,0.000000,-2.423901,-0.000010,1.600559,0.785398
0.155300,-0.000001,-0.781335,0.000000,-2.423845,-0.000010,1.600898,0.785398
0.157267,-0.000001,-0.781335,0.000000,-2.423787,-0.000010,1.601226,0.785398
0.159273,-0.000001,-0.781335,0.000000,-2.423727,-0.000010,1.601543,0.785398
0.161338,-0.000001,-0.781335,0.000000,-2.423665,-0.000010,1.601847,0.785398
0.163301,-0.000001,-0.781335,0.000000,-2.423601,-0.000010,1.602140,0.785398
0.165302,-0.000001,-0.781335,0.000000,-2.423535,-0.000010,1.602421,0.785398
0.167310,-0.000001,-0.781335,0.000000,-2.423467,-0.000010,1.602690,0.785398
0.169289,-0.000001,-0.781335,0.000000,-2.423398,-0.000010,1.602947,0.785398
0.171286,-0.000001,-0.781335,0.000000,-2.423326,-0.000010,1.603192,0.785398
0.173278,-0.000001,-0.781335,0.000000,-2.423253,-0.000010,1.603424,0.785398
0.175298,-0.000001,-0.781335,0.000000,-2.423177,-0.000010,1.603645,0.785398
0.177264,-0.000001,-0.781335,0.000000,-2.423100,-0.000010,1.603853,0.785398
0.179258,-0.000001,-0.781335,0.000000,-2.423021,-0.000010,1.604049,0.785398
0.181330,-0.000001,-0.781335,0.000000,-2.422939,-0.000010,1.604233,0.785398
0.183292,-0.000001,-0.781335,0.000000,-2.422856,-0.000010,1.604404,0.785398
0.185262,-0.000001,-0.781335,0.000000,-2.422771,-0.000010,1.604564,0.785398
0.187279,-0.000001,-0.781335,0.000000,-2.422685,-0.000010,1.604711,0.785398
0.189283,-0.000001,-0.781335,0.000000,-2.422596,-0.000010,1.604846,0.785398
0.191255,-0.000001,-0.781335,0.000000,-2.422505,-0.000010,1.604969,0.785398
0.193319,-0.000001,-0.781335,0.000000,-2.422413,-0.000010,1.605080,0.785398
0.195250,-0.000001,-0.781335,0.000000,-2.422318,-0.000010,1.605179,0.785398
0.197307,-0.000001,-0.781335,0.000000,-2.422222,-0.000010,1.605266,0.785398
0.199368,-0.000001,-0.781335,0.000000,-2.422124,-0.000010,1.605342,0.785398
0.201287,-0.000001,-0.781335,0.000000,-2.422074,-0.000010,1.605375,0.785398
0.203306,-0.000001,-0.781335,0.000000,-2.421973,-0.000010,1.605433,0.785398
0.205300,-0.000001,-0.781335,0.000000,-2.421871,-0.000010,1.605480,0.785398
0.207298,-0.000001,-0.781335,0.000000,-2.421766,-0.000010,1.605515,0.785398
0.209299,-0.000001,-0.781335,0.000000,-2.421660,-0.000010,1.605539,0.785398
0.211249,-0.000001,-0.781335,0.000000,-2.421552,-0.000010,1.605552,0.785398
0.213295,-0.000001,-0.781335,0.000000,-2.421443,-0.000010,1.605554,0.785398
0.215294,-0.000001,-0.781335,0.000000,-2.421332,-0.000010,1.605554,0.785398
0.217294,-0.000001,-0.781335,0.000000,-2.421222,-0.000010,1.605554,0.785398
0.219268,-0.000001,-0.781335,0.000000,-2.421111,-0.000010,1.605554,0.785398
0.221284,-0.000001,-0.781335,0.000000,-2.420999,-0.000010,1.605554,0.785398
0.223303,-0.000001,-0.781335,0.000000,-2.420888,-0.000010,1.605554,0.785398
0.225300,-0.000001,-0.781335,0.000000,-2.420776,-0.000010,1.605554,0.785398
0.227299,-0.000001,-0.781335,0.000000,-2.420664,-0.000010,1.605554,0.785398
0.229293,-0.000001,-0.781335,0.000000,-2.420551,-0.000010,1.605554,0.785398
0.231304,-0.000001,-0.781335,0.000000,-2.420438,-0.000010,1.605554,0.785398
0.233264,-0.000001,-0.781335,0.000000,-2.420325,-0.000010,1.605554,0.785398
0.235296,-0.000001,-0.781335,0.000000,-2.420211,-0.000010,1.605554,0.785398
0.237293,-0.000001,-0.781335,0.000000,-2.420097,-0.000010,1.605554,0.785398
0.239293,-0.000001,-0.781335,0.000000,-2.419983,-0.000010,1.605554,0.785398
0.241292,-0.000001,-0.781335,0.000000,-2.419869,-0.000010,1.605554,0.785398
0.243266,-0.000001,-0.781335,0.000000,-2.419754,-0.000010,1.605554,0.785398
0.245276,-0.000001,-0.781335,0.000000,-2.419697,-0.000010,1.605554,0.785398
0.247299,-0.000001,-0.781335,0.000000,-2.419524,-0.000010,1.605554,0.785398
0.249302,-0.000001,-0.781335,0.000000,-2.419409,-0.000010,1.605554,0.785398
0.251291,-0.000001,-0.781335,0.000000,-2.419294,-0.000010,1.605554,0.785398
0.253332,-0.000001,-0.781335,0.000000,-2.419178,-0.000010,1.605554,0.785398
0.255303,-0.000001,-0.781335,0.000000,-2.419062,-0.000010,1.605554,0.785398
0.257310,-0.000001,-0.781335,0.000000,-2.418946,-0.000010,1.605554,0.785398
0.259307,-0.000001,-0.781335,0.000000,-2.418829,-0.000010,1.605554,0.785398
0.261306,-0.000001,-0.781335,0.000000,-2.418713,-0.000010,1.605554,0.785398
0.263263,-0.000001,-0.781335,0.000000,-2.418596,-0.000010,1.605554,0.785398
0.265265,-0.000001,-0.781335,0.000000,-2.418480,-0.000010,1.605554,0.785398
0.267261,-0.000001,-0.781335,0.000000,-2.418363,-0.000010,1.605554,0.785398
0.269291,-0.000001,-0.781335,0.000000,-2.418245,-0.000010,1.605554,0.785398
0.271265,-0.000001,-0.781335,0.000000,-2.418128,-0.000010,1.605554,0.785398
0.273261,-0.000001,-0.781335,0.000000,-2.418011,-0.000010,1.605554,0.785398
0.275260,-0.000001,-0.781335,0.000000,-2.417893,-0.000010,1.605554,0.785398
0.277413,-0.000001,-0.781335,0.000000,-2.417776,-0.000010,1.605554,0.785398
0.279337,-0.000001,-0.781335,0.000000,-2.417658,-0.000010,1.605554,0.785398
0.281262,-0.000001,-0.781335,0.000000,-2.417540,-0.000010,1.605554,0.785398
0.283262,-0.000001,-0.781335,0.000000,-2.417422,-0.000010,1.605554,0.785398
0.285491,-0.000001,-0.781335,0.000000,-2.417304,-0.000010,1.605554,0.785398
0.287268,-0.000001,-0.781335,0.000000,-2.417186,-0.000010,1.605554,0.785398
0.289272,-0.000001,-0.781335,0.000000,-2.417068,-0.000010,1.605554,0.785398
0.291303,-0.000001,-0.781335,0.000000,-2.416950,-0.000010,1.605554,0.785398
0.293305,-0.000001,-0.781335,0.000000,-2.416832,-0.000010,1.605554,0.785398
0.295393,-0.000001,-0.781335,0.000000,-2.416714,-0.000010,1.605554,0.785398
0.297262,-0.000001,-0.781335,0.000000,-2.416596,-0.000010,1.605554,0.785398
0.299283,-0.000001,-0.781335,0.000000,-2.416477,-0.000010,1.605554,0.785398
0.301285,-0.000001,-0.781335,0.000000,-2.416359,-0.000010,1.605554,0.785398
0.303283,-0.000001,-0.781335,0.000000,-2.416241,-0.000010,1.605554,0.785398
0.305274,-0.000001,-0.781335,0.000000,-2.416122,-0.000010,1.605554,0.785398
0.307351,-0.000001,-0.781335,0.000000,-2.416004,-0.000010,1.605554,0.785398
0.309443,-0.000001,-0.781335,0.000000,-2.415886,-0.000010,1.605554,0.785398
0.311370,-0.000001,-0.781335,0.000000,-2.415768,-0.000010,1.605554,0.785398
0.313224,-0.000001,-0.781335,0.000000,-2.415649,-0.000010,1.605554,0.785398
0.315232,-0.000001,-0.781335,0.000000,-2.415531,-0.000010,1.605554,0.785398
0.317516,-0.000001,-0.781335,0.000000,-2.415413,-0.000010,1.605554,0.785398
0.319428,-0.000001,-0.781335,0.000000,-2.415295,-0.000010,1.605554,0.785398
0.321230,-0.000001,-0.781335,0.000000,-2.415177,-0.000010,1.605554,0.785398
0.323283,-0.000001,-0.781335,0.000000,-2.415059,-0.000010,1.605554,0.785398
0.325217,-0.000001,-0.781335,0.000000,-2.414941,-0.000010,1.605554,0.785398
0.327293,-0.000001,-0.781335,0.000000,-2.414823,-0.000010,1.605554,0.785398
0.329365,-0.000001,-0.781335,0.000000,-2.414706,-0.000010,1.605554,0.785398
0.331272,-0.000001,-0.781335,0.000000,-2.414588,-0.000010,1.605554,0.785398
0.333277,-0.000001,-0.781335,0.000000,-2.414470,-0.000010,1.605554,0.785398
0.335256,-0.000001,-0.781335,0.000000,-2.414353,-0.000010,1.605554,0.785398
0.337264,-0.000001,-0.781335,0.000000,-2.414236,-0.000010,1.605554,0.785398
0.339334,-0.000001,-0.781335,0.000000,-2.414119,-0.000010,1.605554,0.785398
0.341271,-0.000001,-0.781335,0.000000,-2.414002,-0.000010,1.605554,0.785398
0.343330,-0.000001,-0.781335,0.000000,-2.413885,-0.000010,1.605554,0.785398
0.345285,-0.000001,-0.781335,0.000000,-2.413768,-0.000010,1.605554,0.785398
0.347273,-0.000001,-0.781335,0.000000,-2.413651,-0.000010,1.605554,0.785398
0.349271,-0.000001,-0.781335,0.000000,-2.413535,-0.000010,1.605554,0.785398
0.351254,-0.000001,-0.781335,0.000000,-2.413418,-0.000010,1.605554,0.785398
0.353296,-0.000001,-0.781335,0.000000,-2.413360,-0.000010,1.605554,0.785398
0.355254,-0.000001,-0.781335,0.000000,-2.413244,-0.000010,1.605554,0.785398
0.357331,-0.000001,-0.781335,0.000000,-2.413070,-0.000010,1.605554,0.785398
0.359422,-0.000001,-0.781335,0.000000,-2.412955,-0.000010,1.605554,0.785398
0.361366,-0.000001,-0.781335,0.000000,-2.412839,-0.000010,1.605554,0.785398
0.363414,-0.000001,-0.781335,0.000000,-2.412724,-0.000010,1.605554,0.785398
0.365305,-0.000001,-0.781335,0.000000,-2.412609,-0.000010,1.605554,0.785398
0.367350,-0.000001,-0.781335,0.000000,-2.412494,-0.000010,1.605554,0.785398
0.369258,-0.000001,-0.781335,0.000000,-2.412380,-0.000010,1.605554,0.785398
0.371281,-0.000001,-0.781335,0.000000,-2.412265,-0.000010,1.605554,0.785398
0.373280,-0.000001,-0.781335,0.000000,-2.412151,-0.000010,1.605554,0.785398
0.375274,-0.000001,-0.781335,0.000000,-2.412037,-0.000010,1.605554,0.785398
0.377237,-0.000001,-0.781335,0.000000,-2.411924,-0.000010,1.605554,0.785398
0.379209,-0.000001,-0.781335,0.000000,-2.411810,-0.000010,1.605554,0.785398
0.381327,-0.000001,-0.781335,0.000000,-2.411697,-0.000010,1.605554,0.785398
0.383305,-0.000001,-0.781335,0.000000,-2.411641,-0.000010,1.605554,0.785398
0.385296,-0.000001,-0.781335,0.000000,-2.411528,-0.000010,1.605554,0.785398
0.387294,-0.000001,-0.781335,0.000000,-2.411415,-0.000010,1.605554,0.785398
0.389292,-0.000001,-0.781335,0.000000,-2.411303,-0.000010,1.605554,0.785398
0.391296,-0.000001,-0.781335,0.000000,-2.411191,-0.000010,1.605554,0.785398
0.393279,-0.000001,-0.781335,0.000000,-2.411079,-0.000010,1.605554,0.785398
0.395303,-0.000001,-0.781335,0.000000,-2.410968,-0.000010,1.605554,0.785398
0.397301,-0.000001,-0.781335,0.000000,-2.410857,-0.000010,1.605554,0.785398
0.399264,-0.000001,-0.781335,0.000000,-2.410746,-0.000010,1.605554,0.785398
0.401299,-0.000001,-0.781335,0.000000,-2.410636,-0.000010,1.605554,0.785398
0.403296,-0.000001,-0.781335,0.000000,-2.410525,-0.000010,1.605554,0.785398
0.405288,-0.000001,-0.781335,0.000000,-2.410416,-0.000010,1.605554,0.785398
0.407280,-0.000001,-0.781335,0.000000,-2.410306,-0.000010,1.605554,0.785398
0.409276,-0.000001,-0.781335,0.000000,-2.410197,-0.000010,1.605554,0.785398
0.411275,-0.000001,-0.781335,0.000000,-2.410088,-0.000010,1.605554,0.785398
0.413263,-0.000001,-0.781335,0.000000,-2.409979,-0.000010,1.605554,0.785398
0.415294,-0.000001,-0.781335,0.000000,-2.409871,-0.000010,1.605554,0.785398
0.417283,-0.000001,-0.781335,0.000000,-2.409763,-0.000010,1.605554,0.785398
0.419264,-0.000001,-0.781335,0.000000,-2.409656,-0.000010,1.605554,0.785398
0.421263,-0.000001,-0.781335,0.000000,-2.409548,-0.000010,1.605554,0.785398
0.423277,-0.000001,-0.781335,0.000000,-2.409442,-0.000010,1.605554,0.785398
0.425292,-0.000001,-0.781335,0.000000,-2.409335,-0.000010,1.605554,0.785398
0.427289,-0.000001,-0.781335,0.000000,-2.409229,-0.000010,1.605554,0.785398
0.429262,-0.000001,-0.781335,0.000000,-2.409123,-0.000010,1.605554,0.785398
0.431296,-0.000001,-0.781335,0.000000,-2.409018,-0.000010,1.605554,0.785398
0.433208,-0.000001,-0.781335,0.000000,-2.408913,-0.000010,1.605554,0.785398
0.435304,-0.000001,-0.781335,0.000000,-2.408809,-0.000010,1.605554,0.785398
0.437291,-0.000001,-0.781335,0.000000,-2.408705,-0.000010,1.605554,0.785398
0.439296,-0.000001,-0.781335,0.000000,-2.408601,-0.000010,1.605554,0.785398
0.441256,-0.000001,-0.781335,0.000000,-2.408497,-0.000010,1.605554,0.785398
0.443281,-0.000001,-0.781335,0.000000,-2.408394,-0.000010,1.605554,0.785398
0.445261,-0.000001,-0.781335,0.000000,-2.408292,-0.000010,1.605554,0.785398
0.447264,-0.000001,-0.781335,0.000000,-2.408190,-0.000010,1.605554,0.785398
0.449209,-0.000001,-0.781335,0.000000,-2.408088,-0.000010,1.605554,0.785398
0.451289,-0.000001,-0.781335,0.000000,-2.407987,-0.000010,1.605554,0.785398
0.453558,-0.000001,-0.781335,0.000000,-2.407886,-0.000010,1.605554,0.785398
0.455347,-0.000001,-0.781335,0.000000,-2.407786,-0.000010,1.605554,0.785398
0.457244,-0.000001,-0.781335,0.000000,-2.407686,-0.000010,1.605554,0.785398
0.459419,-0.000001,-0.781335,0.000000,-2.407586,-0.000010,1.605554,0.785398
0.461323,-0.000001,-0.781335,0.000000,-2.407487,-0.000010,1.605554,0.785398
0.463249,-0.000001,-0.781335,0.000000,-2.407388,-0.000010,1.605554,0.785398
0.465291,-0.000001,-0.781335,0.000000,-2.407290,-0.000010,1.605554,0.785398
0.467273,-0.000001,-0.781335,0.000000,-2.407193,-0.000010,1.605554,0.785398
0.469266,-0.000001,-0.781335,0.000000,-2.407144,-0.000010,1.605554,0.785398
0.471252,-0.000001,-0.781335,0.000000,-2.406999,-0.000010,1.605554,0.785398
0.473282,-0.000001,-0.781335,0.000000,-2.406950,-0.000010,1.605554,0.785398
0.475294,-0.000001,-0.781335,0.000000,-2.406854,-0.000010,1.605554,0.785398
0.477292,-0.000001,-0.781335,0.000000,-2.406759,-0.000010,1.605554,0.785398
0.479319,-0.000001,-0.781335,0.000000,-2.406663,-0.000010,1.605554,0.785398
0.481317,-0.000001,-0.781335,0.000000,-2.406522,-0.000010,1.605554,0.785398
0.483335,-0.000001,-0.781335,0.000000,-2.406475,-0.000010,1.605554,0.785398
0.485323,-0.000001,-0.781335,0.000000,-2.406381,-0.000010,1.605554,0.785398
0.487282,-0.000001,-0.781335,0.000000,-2.406288,-0.000010,1.605554,0.785398
0.489278,-0.000001,-0.781335,0.000000,-2.406195,-0.000010,1.605554,0.785398
0.491284,-0.000001,-0.781335,0.000000,-2.406103,-0.000010,1.605554,0.785398
0.493300,-0.000001,-0.781335,0.000000,-2.406011,-0.000010,1.605554,0.785398
0.495296,-0.000001,-0.781335,0.000000,-2.405920,-0.000010,1.605554,0.785398
0.497279,-0.000001,-0.781335,0.000000,-2.405829,-0.000010,1.605554,0.785398
0.499303,-0.000001,-0.781335,0.000000,-2.405739,-0.000010,1.605554,0.785398
0.501301,-0.000001,-0.781335,0.000000,-2.405649,-0.000010,1.605554,0.785398
0.503268,-0.000001,-0.781335,0.000000,-2.405560,-0.000010,1.605554,0.785398
0.505298,-0.000001,-0.781335,0.000000,-2.405471,-0.000010,1.605554,0.785398
0.507314,-0.000001,-0.781335,0.000000,-2.405383,-0.000010,1.605554,0.785398
0.509267,-0.000001,-0.781335,0.000000,-2.405295,-0.000010,1.605554,0.785398
0.511298,-0.000001,-0.781335,0.000000,-2.405208,-0.000010,1.605554,0.785398
0.513294,-0.000001,-0.781335,0.000000,-2.405122,-0.000010,1.605554,0.785398
0.515292,-0.000001,-0.781335,0.000000,-2.405035,-0.000010,1.605554,0.785398
0.517293,-0.000001,-0.781335,0.000000,-2.404950,-0.000010,1.605554,0.785398
0.519293,-0.000001,-0.781335,0.000000,-2.404865,-0.000010,1.605554,0.785398
0.521310,-0.000001,-0.781335,0.000000,-2.404780,-0.000010,1.605554,0.785398
0.523295,-0.000001,-0.781335,0.000000,-2.404697,-0.000010,1.605554,0.785398
0.525295,-0.000001,-0.781335,0.000000,-2.404613,-0.000010,1.605554,0.785398
0.527349,-0.000001,-0.781335,0.000000,-2.404530,-0.000010,1.605554,0.785398
0.529267,-0.000001,-0.781335,0.000000,-2.404448,-0.000010,1.605554,0.785398
0.531261,-0.000001,-0.781335,0.000000,-2.404366,-0.000010,1.605554,0.785398
0.533262,-0.000001,-0.781335,0.000000,-2.404285,-0.000010,1.605554,0.785398
0.535300,-0.000001,-0.781335,0.000000,-2.404204,-0.000010,1.605554,0.785398
0.537261,-0.000001,-0.781335,0.000000,-2.404124,-0.000010,1.605554,0.785398
0.539308,-0.000001,-0.781335,0.000000,-2.404045,-0.000010,1.605554,0.785398
0.541267,-0.000001,-0.781335,0.000000,-2.403966,-0.000010,1.605554,0.785398
0.543268,-0.000001,-0.781335,0.000000,-2.403888,-0.000010,1.605554,0.785398
0.545262,-0.000001,-0.781335,0.000000,-2.403810,-0.000010,1.605554,0.785398
0.547291,-0.000001,-0.781335,0.000000,-2.403732,-0.000010,1.605554,0.785398
0.549273,-0.000001,-0.781335,0.000000,-2.403656,-0.000010,1.605554,0.785398
0.551218,-0.000001,-0.781335,0.000000,-2.403580,-0.000010,1.605554,0.785398
0.553243,-0.000001,-0.781335,0.000000,-2.403504,-0.000010,1.605554,0.785398
0.555217,-0.000001,-0.781335,0.000000,-2.403429,-0.000010,1.605554,0.785398
0.557322,-0.000001,-0.781335,0.000000,-2.403355,-0.000010,1.605554,0.785398
0.559280,-0.000001,-0.781335,0.000000,-2.403281,-0.000010,1.605554,0.785398
0.561266,-0.000001,-0.781335,0.000000,-2.403208,-0.000010,1.605554,0.785398
0.563233,-0.000001,-0.781335,0.000000,-2.403135,-0.000010,1.605554,0.785398
0.565424,-0.000001,-0.781335,0.000000,-2.403063,-0.000010,1.605554,0.785398
0.567275,-0.000001,-0.781335,0.000000,-2.402991,-0.000010,1.605554,0.785398
0.569289,-0.000001,-0.781335,0.000000,-2.402920,-0.000010,1.605554,0.785398
0.571265,-0.000001,-0.781335,0.000000,-2.402850,-0.000010,1.605554,0.785398
0.573229,-0.000001,-0.781335,0.000000,-2.402780,-0.000010,1.605554,0.785398
0.575238,-0.000001,-0.781335,0.000000,-2.402746,-0.000010,1.605554,0.785398
0.577326,-0.000001,-0.781335,0.000000,-2.402643,-0.000010,1.605554,0.785398
0.579292,-0.000001,-0.781335,0.000000,-2.402575,-0.000010,1.605554,0.785398
0.581227,-0.000001,-0.781335,0.000000,-2.402507,-0.000010,1.605554,0.785398
0.583260,-0.000001,-0.781335,0.000000,-2.402440,-0.000010,1.605554,0.785398
0.585316,-0.000001,-0.781335,0.000000,-2.402374,-0.000010,1.605554,0.785398
0.587331,-0.000001,-0.781335,0.000000,-2.402309,-0.000010,1.605554,0.785398
0.589302,-0.000001,-0.781335,0.000000,-2.402244,-0.000010,1.605554,0.785398
0.591378,-0.000001,-0.781335,0.000000,-2.402179,-0.000010,1.605554,0.785398
0.593328,-0.000001,-0.781335,0.000000,-2.402115,-0.000010,1.605554,0.785398
0.595370,-0.000001,-0.781335,0.000000,-2.402052,-0.000010,1.605554,0.785398
0.597316,-0.000001,-0.781335,0.000000,-2.401989,-0.000010,1.605554,0.785398
0.599401,-0.000001,-0.781335,0.000000,-2.401927,-0.000010,1.605554,0.785398
0.601317,-0.000001,-0.781335,0.000000,-2.401866,-0.000010,1.605554,0.785398
0.603266,-0.000001,-0.781335,0.000000,-2.401805,-0.000010,1.605554,0.785398
0.605372,-0.000001,-0.781335,0.000000,-2.401745,-0.000010,1.605554,0.785398
0.607247,-0.000001,-0.781335,0.000000,-2.401685,-0.000010,1.605554,0.785398
0.609285,-0.000001,-0.781335,0.000000,-2.401626,-0.000010,1.605554,0.785398
0.611267,-0.000001,-0.781335,0.000000,-2.401568,-0.000010,1.605554,0.785398
0.613257,-0.000001,-0.781335,0.000000,-2.401510,-0.000010,1.605554,0.785398
0.615300,-0.000001,-0.781335,0.000000,-2.401453,-0.000010,1.605554,0.785398
0.617308,-0.000001,-0.781335,0.000000,-2.401396,-0.000010,1.605554,0.785398
0.619436,-0.000001,-0.781335,0.000000,-2.401340,-0.000010,1.605554,0.785398
0.621335,-0.000001,-0.781335,0.000000,-2.401285,-0.000010,1.605554,0.785398
0.623257,-0.000001,-0.781335,0.000000,-2.401257,-0.000010,1.605554,0.785398
0.625406,-0.000001,-0.781335,0.000000,-2.401176,-0.000010,1.605554,0.785398
0.627314,-0.000001,-0.781335,0.000000,-2.401122,-0.000010,1.605554,0.785398
0.629242,-0.000001,-0.781335,0.000000,-2.401096,-0.000010,1.605554,0.785398
0.631270,-0.000001,-0.781335,0.000000,-2.401017,-0.000010,1.605554,0.785398
0.633455,-0.000001,-0.781335,0.000000,-2.400965,-0.000010,1.605554,0.785398
0.635322,-0.000001,-0.781335,0.000000,-2.400940,-0.000010,1.605554,0.785398
0.637320,-0.000001,-0.781335,0.000000,-2.400889,-0.000010,1.605554,0.785398
0.639295,-0.000001,-0.781335,0.000000,-2.400838,-0.000010,1.605554,0.785398
0.641273,-0.000001,-0.781335,0.000000,-2.400789,-0.000010,1.605554,0.785398
0.643286,-0.000001,-0.781335,0.000000,-2.400740,-0.000010,1.605554,0.785398
0.645264,-0.000001,-0.781335,0.000000,-2.400691,-0.000010,1.605554,0.785398
0.647310,-0.000001,-0.781335,0.000000,-2.400643,-0.000010,1.605554,0.785398
0.649287,-0.000001,-0.781335,0.000000,-2.400596,-0.000010,1.605554,0.785398
0.651303,-0.000001,-0.781335,0.000000,-2.400550,-0.000010,1.605554,0.785398
0.653296,-0.000001,-0.781335,0.000000,-2.400504,-0.000010,1.605554,0.785398
0.655302,-0.000001,-0.781335,0.000000,-2.400458,-0.000010,1.605554,0.785398
0.657301,-0.000001,-0.781335,0.000000,-2.400413,-0.000010,1.605554,0.785398
0.659273,-0.000001,-0.781335,0.000000,-2.400369,-0.000010,1.605554,0.785398
0.661274,-0.000001,-0.781335,0.000000,-2.400326,-0.000010,1.605554,0.785398
0.663264,-0.000001,-0.781335,0.000000,-2.400283,-0.000010,1.605554,0.785398
0.665260,-0.000001,-0.781336,0.000000,-2.400240,-0.000010,1.605554,0.785398
0.667293,-0.000001,-0.781336,0.000000,-2.400199,-0.000010,1.605554,0.785398
0.669300,-0.000001,-0.781336,0.000000,-2.400157,-0.000010,1.605554,0.785398
0.671287,-0.000001,-0.781336,0.000000,-2.400117,-0.000010,1.605554,0.785398
0.673282,-0.000001,-0.781336,0.000000,-2.400077,-0.000010,1.605554,0.785398
0.675306,-0.000001,-0.781336,0.000000,-2.400038,-0.000010,1.605554,0.785398
0.677296,-0.000001,-0.781336,0.000000,-2.399999,-0.000010,1.605554,0.785398
0.679259,-0.000001,-0.781336,0.000000,-2.399961,-0.000010,1.605554,0.785398
0.681260,-0.000001,-0.781336,0.000000,-2.399923,-0.000010,1.605554,0.785398
0.683260,-0.000001,-0.781337,0.000000,-2.399887,-0.000010,1.605554,0.785398
0.685259,-0.000001,-0.781337,0.000000,-2.399850,-0.000010,1.605554,0.785398
0.687259,-0.000001,-0.781337,0.000000,-2.399815,-0.000010,1.605554,0.785398
0.689269,-0.000001,-0.781337,0.000000,-2.399780,-0.000010,1.605554,0.785398
0.691262,-0.000001,-0.781338,0.000000,-2.399745,-0.000010,1.605554,0.785398
0.693258,-0.000001,-0.781338,0.000000,-2.399711,-0.000010,1.605554,0.785398
0.695259,-0.000001,-0.781338,0.000000,-2.399678,-0.000010,1.605554,0.785398
0.697282,-0.000001,-0.781339,0.000000,-2.399646,-0.000010,1.605554,0.785398
0.699426,-0.000001,-0.781339,0.000000,-2.399614,-0.000010,1.605554,0.785398
0.701254,-0.000001,-0.781339,0.000000,-2.399582,-0.000010,1.605554,0.785398
0.703236,-0.000001,-0.781340,0.000000,-2.399552,-0.000010,1.605554,0.785398
0.705216,-0.000001,-0.781340,0.000000,-2.399521,-0.000010,1.605554,0.785398
0.707253,-0.000001,-0.781341,0.000000,-2.399492,-0.000010,1.605554,0.785398
0.709244,-0.000001,-0.781342,0.000000,-2.399463,-0.000010,1.605554,0.785398
0.711279,-0.000001,-0.781342,0.000000,-2.399435,-0.000010,1.605554,0.785398
0.713294,-0.000001,-0.781343,0.000000,-2.399407,-0.000010,1.605554,0.785398
0.715288,-0.000001,-0.781344,0.000000,-2.399380,-0.000010,1.605554,0.785398
0.717257,-0.000001,-0.781344,0.000000,-2.399353,-0.000010,1.605554,0.785398
0.719289,-0.000001,-0.781345,0.000000,-2.399328,-0.000010,1.605554,0.785398
0.721284,-0.000001,-0.781346,0.000000,-2.399302,-0.000010,1.605554,0.785398
0.723288,-0.000001,-0.781347,0.000000,-2.399278,-0.000010,1.605554,0.785398
0.725270,-0.000001,-0.781348,0.000000,-2.399254,-0.000010,1.605554,0.785398
0.727360,-0.000001,-0.781349,0.000000,-2.399230,-0.000010,1.605554,0.785398
0.729304,-0.000001,-0.781350,0.000000,-2.399207,-0.000010,1.605554,0.785398
0.731334,-0.000001,-0.781351,0.000000,-2.399185,-0.000010,1.605554,0.785398
0.733257,-0.000001,-0.781352,0.000000,-2.399164,-0.000010,1.605554,0.785398
0.735244,-0.000001,-0.781354,0.000000,-2.399143,-0.000010,1.605554,0.785398
0.737330,-0.000001,-0.781355,0.000000,-2.399122,-0.000010,1.605554,0.785398
0.739463,-0.000001,-0.781356,0.000000,-2.399103,-0.000010,1.605554,0.785398
0.741416,-0.000001,-0.781358,0.000000,-2.399083,-0.000010,1.605554,0.785398
0.743326,-0.000001,-0.781359,0.000000,-2.399065,-0.000010,1.605554,0.785398
0.745372,-0.000001,-0.781361,0.000000,-2.399047,-0.000010,1.605554,0.785398
0.747289,-0.000001,-0.781362,0.000000,-2.399030,-0.000010,1.605554,0.785398
0.749316,-0.000001,-0.781364,0.000000,-2.399013,-0.000010,1.605554,0.785398
0.751246,-0.000001,-0.781366,0.000000,-2.398997,-0.000010,1.605554,0.785398
0.753314,-0.000001,-0.781367,0.000000,-2.398981,-0.000010,1.605554,0.785398
0.755354,-0.000001,-0.781369,0.000000,-2.398966,-0.000010,1.605554,0.785398
0.757255,-0.000001,-0.781371,0.000000,-2.398952,-0.000010,1.605554,0.785398
0.759218,-0.000001,-0.781372,0.000000,-2.398945,-0.000010,1.605554,0.785398
0.761264,-0.000001,-0.781374,0.000000,-2.398931,-0.000010,1.605554,0.785398
0.763445,-0.000001,-0.781377,0.000000,-2.398912,-0.000010,1.605554,0.785398
0.765235,-0.000001,-0.781379,0.000000,-2.398901,-0.000010,1.605554,0.785398
0.767296,-0.000001,-0.781382,0.000000,-2.398889,-0.000010,1.605554,0.785398
0.769215,-0.000001,-0.781384,0.000000,-2.398878,-0.000010,1.605554,0.785398
0.771273,-0.000001,-0.781385,0.000000,-2.398873,-0.000010,1.605554,0.785398
0.773339,-0.000001,-0.781389,0.000000,-2.398859,-0.000010,1.605554,0.785398
0.775295,-0.000001,-0.781390,0.000000,-2.398854,-0.000010,1.605554,0.785398
0.777312,-0.000001,-0.781394,0.000000,-2.398841,-0.000010,1.605554,0.785398
0.779282,-0.000001,-0.781397,0.000000,-2.398834,-0.000010,1.605554,0.785398
0.781273,-0.000001,-0.781398,0.000000,-2.398830,-0.000010,1.605554,0.785398
0.783270,-0.000001,-0.781401,0.000000,-2.398823,-0.000010,1.605554,0.785398
0.785324,-0.000001,-0.781404,0.000000,-2.398817,-0.000010,1.605554,0.785398
0.787325,-0.000001,-0.781407,0.000000,-2.398811,-0.000010,1.605554,0.785398
0.789272,-0.000001,-0.781410,0.000000,-2.398806,-0.000010,1.605554,0.785398
0.791301,-0.000001,-0.781413,0.000000,-2.398801,-0.000010,1.605554,0.785398
0.793296,-0.000001,-0.781417,0.000000,-2.398797,-0.000010,1.605554,0.785398
0.795300,-0.000001,-0.781420,0.000000,-2.398794,-0.000010,1.605554,0.785398
0.797273,-0.000001,-0.781423,0.000000,-2.398791,-0.000010,1.605554,0.785398
0.799294,-0.000001,-0.781427,0.000000,-2.398789,-0.000010,1.605554,0.785398
0.801258,-0.000001,-0.781430,0.000000,-2.398787,-0.000010,1.605554,0.785398
0.803294,-0.000001,-0.781434,0.000000,-2.398786,-0.000010,1.605554,0.785398
0.805294,-0.000001,-0.781438,0.000000,-2.398785,-0.000010,1.605554,0.785398
0.807263,-0.000001,-0.781442,0.000000,-2.398785,-0.000010,1.605554,0.785398
0.809264,-0.000001,-0.781445,0.000000,-2.398785,-0.000010,1.605554,0.785398
0.811341,-0.000001,-0.781449,0.000000,-2.398785,-0.000010,1.605554,0.785398
0.813280,-0.000001,-0.781452,0.000000,-2.398785,-0.000010,1.605554,0.785398
0.815286,-0.000001,-0.781455,0.000000,-2.398785,-0.000010,1.605554,0.785398
0.817283,-0.000001,-0.781458,0.000000,-2.398785,-0.000010,1.605554,0.785398
0.819263,-0.000001,-0.781461,0.000000,-2.398785,-0.000010,1.605554,0.785398
0.821270,-0.000001,-0.781464,0.000000,-2.398785,-0.000010,1.605554,0.785398
0.823261,-0.000001,-0.781466,0.000000,-2.398785,-0.000010,1.605554,0.785398
0.825259,-0.000001,-0.781469,0.000000,-2.398785,-0.000010,1.605554,0.785398
0.827211,-0.000001,-0.781471,0.000000,-2.398785,-0.000010,1.605554,0.785398
0.829260,-0.000001,-0.781473,0.000000,-2.398785,-0.000010,1.605554,0.785398
0.831259,-0.000001,-0.781475,0.000000,-2.398785,-0.000010,1.605554,0.785398
0.833259,-0.000001,-0.781477,0.000000,-2.398785,-0.000010,1.605554,0.785398
0.835437,-0.000001,-0.781478,0.000000,-2.398785,-0.000010,1.605554,0.785398
0.837297,-0.000001,-0.781480,0.000000,-2.398785,-0.000010,1.605554,0.785398
0.839220,-0.000001,-0.781481,0.000000,-2.398785,-0.000010,1.605554,0.785398
0.841293,-0.000001,-0.781482,0.000000,-2.398785,-0.000010,1.605554,0.785398
0.843302,-0.000001,-0.781483,0.000000,-2.398785,-0.000010,1.605554,0.785398
0.845259,-0.000001,-0.781484,0.000000,-2.398785,-0.000010,1.605554,0.785398
0.847281,-0.000001,-0.781485,0.000000,-2.398785,-0.000010,1.605554,0.785398
0.849227,-0.000001,-0.781485,0.000000,-2.398785,-0.000010,1.605554,0.785398
0.851267,-0.000001,-0.781486,0.000000,-2.398785,-0.000010,1.605554,0.785398
0.853340,-0.000001,-0.781486,0.000000,-2.398785,-0.000010,1.605554,0.785398
0.855461,-0.000001,-0.781486,0.000000,-2.398785,-0.000010,1.605554,0.785398
0.857266,-0.000001,-0.781486,0.000000,-2.398785,-0.000010,1.605554,0.785398
0.859280,-0.000001,-0.781486,0.000000,-2.398785,-0.000010,1.605554,0.785398
0.861336,-0.000001,-0.781486,0.000000,-2.398785,-0.000010,1.605554,0.785398
0.863326,-0.000001,-0.781486,0.000000,-2.398785,-0.000010,1.605554,0.785398
0.865206,-0.000001,-0.781486,0.000000,-2.398785,-0.000010,1.605554,0.785398
0.867275,-0.000001,-0.781486,0.000000,-2.398785,-0.000010,1.605554,0.785398
0.869296,-0.000001,-0.781486,0.000000,-2.398785,-0.000010,1.605554,0.785398
0.871262,-0.000001,-0.781486,0.000000,-2.398785,-0.000010,1.605554,0.785398
0.873264,-0.000001,-0.781486,0.000000,-2.398785,-0.000010,1.605554,0.785398
0.875439,-0.000001,-0.781486,0.000000,-2.398785,-0.000010,1.605554,0.785398
0.877295,-0.000001,-0.781486,0.000000,-2.398785,-0.000010,1.605554,0.785398
0.879302,-0.000001,-0.781486,0.000000,-2.398785,-0.000010,1.605554,0.785398
0.881282,-0.000001,-0.781486,0.000000,-2.398785,-0.000010,1.605554,0.785398
0.883434,-0.000001,-0.781486,0.000000,-2.398785,-0.000010,1.605554,0.785398
0.885266,-0.000001,-0.781486,0.000000,-2.398785,-0.000010,1.605554,0.785398
0.887264,-0.000001,-0.781486,0.000000,-2.398785,-0.000010,1.605554,0.785398
0.889413,-0.000001,-0.781486,0.000000,-2.398785,-0.000010,1.605554,0.785398
0.891251,-0.000001,-0.781486,0.000000,-2.398785,-0.000010,1.605554,0.785398
0.893236,-0.000001,-0.781486,0.000000,-2.398785,-0.000010,1.605554,0.785398
0.895238,-0.000001,-0.781486,0.000000,-2.398785,-0.000010,1.605554,0.785398
0.897294,-0.000001,-0.781486,0.000000,-2.398785,-0.000010,1.605554,0.785398
0.899299,-0.000001,-0.781486,0.000000,-2.398785,-0.000010,1.605554,0.785398
0.901220,-0.000001,-0.781486,0.000000,-2.398785,-0.000010,1.605554,0.785398
0.903235,-0.000001,-0.781486,0.000000,-2.398785,-0.000010,1.605554,0.785398
0.905292,-0.000001,-0.781486,0.000000,-2.398785,-0.000010,1.605554,0.785398
0.907269,-0.000001,-0.781486,0.000000,-2.398785,-0.000010,1.605554,0.785398
0.909248,-0.000001,-0.781486,0.000000,-2.398785,-0.000010,1.605554,0.785398
0.911370,-0.000001,-0.781486,0.000000,-2.398785,-0.000010,1.605554,0.785398
0.913270,-0.000001,-0.781486,0.000000,-2.398785,-0.000010,1.605554,0.785398
0.915271,-0.000001,-0.781486,0.000000,-2.398785,-0.000010,1.605554,0.785398
0.917258,-0.000001,-0.781486,0.000000,-2.398785,-0.000010,1.605554,0.785398
0.919305,-0.000001,-0.781486,0.000000,-2.398785,-0.000010,1.605554,0.785398
0.921332,-0.000001,-0.781486,0.000000,-2.398785,-0.000010,1.605554,0.785398
0.923269,-0.000001,-0.781486,0.000000,-2.398785,-0.000010,1.605554,0.785398
0.925337,-0.000001,-0.781486,0.000000,-2.398785,-0.000010,1.605554,0.785398
0.927262,-0.000001,-0.781486,0.000000,-2.398785,-0.000010,1.605554,0.785398
0.929350,-0.000001,-0.781486,0.000000,-2.398785,-0.000010,1.605554,0.785398
0.931310,-0.000001,-0.781486,0.000000,-2.398785,-0.000010,1.605554,0.785398
0.933234,-0.000001,-0.781486,0.000000,-2.398785,-0.000010,1.605554,0.785398
0.935268,-0.000001,-0.781486,0.000000,-2.398785,-0.000010,1.605554,0.785398
0.937244,-0.000001,-0.781486,0.000000,-2.398785,-0.000010,1.605554,0.785398
0.939330,-0.000001,-0.781486,0.000000,-2.398785,-0.000010,1.605554,0.785398
0.941208,-0.000001,-0.781486,0.000000,-2.398785,-0.000010,1.605554,0.785398
0.943227,-0.000001,-0.781486,0.000000,-2.398785,-0.000010,1.605554,0.785398
0.945376,-0.000001,-0.781486,0.000000,-2.398785,-0.000010,1.605554,0.785398
0.947348,-0.000001,-0.781486,0.000000,-2.398785,-0.000010,1.605554,0.785398
0.949223,-0.000001,-0.781486,0.000000,-2.398785,-0.000010,1.605554,0.785398
0.951263,-0.000001,-0.781486,0.000000,-2.398785,-0.000010,1.605554,0.785398
0.953261,-0.000001,-0.781486,0.000000,-2.398785,-0.000010,1.605554,0.785398
0.955266,-0.000001,-0.781486,0.000000,-2.398785,-0.000010,1.605554,0.785398
0.957248,-0.000001,-0.781486,0.000000,-2.398785,-0.000010,1.605554,0.785398
0.959399,-0.000001,-0.781486,0.000000,-2.398785,-0.000010,1.605554,0.785398
0.961402,-0.000001,-0.781486,0.000000,-2.398785,-0.000010,1.605554,0.785398
0.963326,-0.000001,-0.781486,0.000000,-2.398785,-0.000010,1.605554,0.785398
0.965327,-0.000001,-0.781486,0.000000,-2.398785,-0.000010,1.605554,0.785398
0.967297,-0.000001,-0.781486,0.000000,-2.398785,-0.000010,1.605554,0.785398
0.969311,-0.000001,-0.781486,0.000000,-2.398785,-0.000010,1.605554,0.785398
0.971282,-0.000001,-0.781486,0.000000,-2.398785,-0.000010,1.605554,0.785398
0.973276,-0.000001,-0.781486,0.000000,-2.398785,-0.000010,1.605554,0.785398
0.975296,-0.000001,-0.781486,0.000000,-2.398785,-0.000010,1.605554,0.785398
0.977281,-0.000001,-0.781486,0.000000,-2.398785,-0.000010,1.605554,0.785398
0.979285,-0.000001,-0.781486,0.000000,-2.398785,-0.000010,1.605554,0.785398
0.981264,-0.000001,-0.781486,0.000000,-2.398785,-0.000010,1.605554,0.785398
0.983328,-0.000001,-0.781486,0.000000,-2.398785,-0.000010,1.605554,0.785398
0.985287,-0.000001,-0.781486,0.000000,-2.398785,-0.000010,1.605554,0.785398
0.987276,-0.000001,-0.781486,0.000000,-2.398785,-0.000010,1.605554,0.785398
0.989289,-0.000001,-0.781486,0.000000,-2.398785,-0.000010,1.605554,0.785398
0.991259,-0.000001,-0.781486,0.000000,-2.398785,-0.000010,1.605554,0.785398
0.993288,-0.000001,-0.781486,0.000000,-2.398785,-0.000010,1.605554,0.785398
0.995394,-0.000001,-0.781486,0.000000,-2.398785,-0.000010,1.605554,0.785398
0.997316,-0.000001,-0.781486,0.000000,-2.398785,-0.000010,1.605554,0.785398
0.999331,-0.000001,-0.781486,0.000000,-2.398785,-0.000010,1.605554,0.785398
1.001233,-0.000001,-0.781486,0.000000,-2.398785,-0.000010,1.605554,0.785398
1.003287,-0.000001,-0.781486,0.000000,-2.398785,-0.000010,1.605554,0.785398
1.005253,-0.000001,-0.781486,0.000000,-2.398785,-0.000010,1.605554,0.785398
1.007321,-0.000001,-0.781486,0.000000,-2.398785,-0.000010,1.605554,0.785398
1.009237,-0.000001,-0.781486,0.000000,-2.398785,-0.000010,1.605554,0.785398
1.011446,-0.000001,-0.781486,0.000000,-2.398785,-0.000010,1.605554,0.785398
1.013375,-0.000001,-0.781486,0.000000,-2.398785,-0.000010,1.605554,0.785398
1.015302,-0.000001,-0.781486,0.000000,-2.398785,-0.000010,1.605554,0.785398
1.017234,-0.000001,-0.781486,0.000000,-2.398785,-0.000010,1.605554,0.785398
1.019322,-0.000001,-0.781486,0.000000,-2.398785,-0.000010,1.605554,0.785398
1.021406,-0.000001,-0.781486,0.000000,-2.398785,-0.000010,1.605554,0.785398
1.023271,-0.000001,-0.781486,0.000000,-2.398785,-0.000010,1.605554,0.785398
1.025323,-0.000001,-0.781486,0.000000,-2.398785,-0.000010,1.605554,0.785398
1.027231,-0.000001,-0.781486,0.000000,-2.398785,-0.000010,1.605554,0.785398
1.029519,-0.000001,-0.781486,0.000000,-2.398785,-0.000010,1.605554,0.785398
1.031286,-0.000001,-0.781486,0.000000,-2.398785,-0.000010,1.605554,0.785398
1.033260,-0.000001,-0.781486,0.000000,-2.398785,-0.000010,1.605554,0.785398
1.035241,-0.000001,-0.781486,0.000000,-2.398785,-0.000010,1.605554,0.785398
1.037279,-0.000001,-0.781486,0.000000,-2.398785,-0.000010,1.605554,0.785398
1.039288,-0.000001,-0.781486,0.000000,-2.398785,-0.000010,1.605554,0.785398
1.041256,-0.000001,-0.781486,0.000000,-2.398785,-0.000010,1.605554,0.785398
1.043236,-0.000001,-0.781486,0.000000,-2.398785,-0.000010,1.605554,0.785398
1.045244,-0.000001,-0.781486,0.000000,-2.398785,-0.000010,1.605554,0.785398
1.047475,-0.000001,-0.781486,0.000000,-2.398785,-0.000010,1.605554,0.785398
1.049338,-0.000001,-0.781486,0.000000,-2.398785,-0.000010,1.605554,0.785398
1.051233,-0.000001,-0.781486,0.000000,-2.398785,-0.000010,1.605554,0.785398
1.053405,-0.000001,-0.781486,0.000000,-2.398785,-0.000010,1.605554,0.785398
1.055327,-0.000001,-0.781486,0.000000,-2.398785,-0.000010,1.605554,0.785398
1.057264,-0.000001,-0.781486,0.000000,-2.398785,-0.000010,1.605554,0.785398
1.059373,-0.000001,-0.781486,0.000000,-2.398785,-0.000010,1.605554,0.785398
1.061305,-0.000001,-0.781486,0.000000,-2.398785,-0.000010,1.605554,0.785398
1.063456,-0.000001,-0.781486,0.000000,-2.398785,-0.000010,1.605554,0.785398
1.065286,-0.000001,-0.781486,0.000000,-2.398785,-0.000010,1.605554,0.785398
1.067308,-0.000001,-0.781486,0.000000,-2.398785,-0.000010,1.605554,0.785398
1.069293,-0.000001,-0.781486,0.000000,-2.398785,-0.000010,1.605554,0.785398
1.071231,-0.000001,-0.781486,0.000000,-2.398785,-0.000010,1.605554,0.785398
1.073209,-0.000001,-0.781486,0.000000,-2.398785,-0.000010,1.605554,0.785398
1.075244,-0.000001,-0.781486,0.000000,-2.398785,-0.000010,1.605554,0.785398
1.077255,-0.000001,-0.781486,0.000000,-2.398785,-0.000010,1.605554,0.785398
1.079342,-0.000001,-0.781486,0.000000,-2.398785,-0.000010,1.605554,0.785398
1.081264,-0.000001,-0.781486,0.000000,-2.398785,-0.000010,1.605554,0.785398
1.083330,-0.000001,-0.781486,0.000000,-2.398785,-0.000010,1.605554,0.785398
1.085308,-0.000001,-0.781486,0.000000,-2.398785,-0.000010,1.605554,0.785398
1.087220,-0.000001,-0.781486,0.000000,-2.398785,-0.000010,1.605554,0.785398
1.089225,-0.000001,-0.781486,0.000000,-2.398785,-0.000010,1.605554,0.785398
1.091264,-0.000001,-0.781486,0.000000,-2.398785,-0.000010,1.605554,0.785398
1.093269,-0.000001,-0.781486,0.000000,-2.398785,-0.000010,1.605554,0.785398
1.095268,-0.000001,-0.781486,0.000000,-2.398785,-0.000010,1.605554,0.785398
1.097294,-0.000001,-0.781486,0.000000,-2.398785,-0.000010,1.605554,0.785398
1.099348,-0.000001,-0.781486,0.000000,-2.398785,-0.000010,1.605554,0.785398
1.101296,-0.000001,-0.781486,0.000000,-2.398785,-0.000010,1.605554,0.785398
1.103293,-0.000001,-0.781486,0.000000,-2.398785,-0.000010,1.605554,0.785398
1.105276,-0.000001,-0.781486,0.000000,-2.398785,-0.000010,1.605554,0.785398
1.107294,-0.000001,-0.781486,0.000000,-2.398785,-0.000010,1.605554,0.785398
1.109294,-0.000001,-0.781486,0.000000,-2.398785,-0.000010,1.605554,0.785398
1.111316,-0.000001,-0.781486,0.000000,-2.398785,-0.000010,1.605554,0.785398
1.113276,-0.000001,-0.781486,0.000000,-2.398785,-0.000010,1.605554,0.785398
1.115291,-0.000001,-0.781486,0.000000,-2.398785,-0.000010,1.605554,0.785398
1.117321,-0.000001,-0.781486,0.000000,-2.398785,-0.000010,1.605554,0.785398
1.119341,-0.000001,-0.781486,0.000000,-2.398785,-0.000010,1.605554,0.785398
1.121319,-0.000001,-0.781486,0.000000,-2.398785,-0.000010,1.605554,0.785398
1.123319,-0.000001,-0.781486,0.000000,-2.398785,-0.000010,1.605554,0.785398
1.125294,-0.000001,-0.781486,0.000000,-2.398785,-0.000010,1.605554,0.785398
1.127261,-0.000001,-0.781486,0.000000,-2.398785,-0.000010,1.605554,0.785398
1.129260,-0.000001,-0.781486,0.000000,-2.398785,-0.000010,1.605554,0.785398
1.131260,-0.000001,-0.781486,0.000000,-2.398785,-0.000010,1.605554,0.785398
1.133289,-0.000001,-0.781487,0.000000,-2.398785,-0.000010,1.605554,0.785398
1.135261,-0.000001,-0.781487,0.000000,-2.398785,-0.000010,1.605554,0.785398
1.137260,-0.000001,-0.781487,0.000000,-2.398785,-0.000010,1.605554,0.785398
1.139260,-0.000001,-0.781487,0.000000,-2.398785,-0.000010,1.605554,0.785398
1.141290,-0.000001,-0.781487,0.000000,-2.398785,-0.000010,1.605554,0.785398
1.143264,-0.000001,-0.781487,0.000000,-2.398785,-0.000010,1.605554,0.785398
1.145228,-0.000001,-0.781488,0.000000,-2.398785,-0.000010,1.605554,0.785398
1.147236,-0.000001,-0.781488,0.000000,-2.398785,-0.000010,1.605554,0.785398
1.149296,-0.000001,-0.781488,0.000000,-2.398785,-0.000010,1.605554,0.785398
1.151230,-0.000001,-0.781489,0.000000,-2.398785,-0.000010,1.605554,0.785398
1.153320,-0.000001,-0.781489,0.000000,-2.398785,-0.000010,1.605554,0.785398
1.155258,-0.000001,-0.781489,0.000000,-2.398785,-0.000010,1.605554,0.785398
1.157263,-0.000001,-0.781490,0.000000,-2.398785,-0.000010,1.605554,0.785398
1.159461,-0.000001,-0.781490,0.000000,-2.398785,-0.000010,1.605554,0.785398
1.161275,-0.000001,-0.781491,0.000000,-2.398785,-0.000010,1.605554,0.785398
1.163277,-0.000001,-0.781491,0.000000,-2.398785,-0.000010,1.605554,0.785398
1.165277,-0.000001,-0.781492,0.000000,-2.398785,-0.000010,1.605554,0.785398
1.167237,-0.000001,-0.781492,0.000000,-2.398785,-0.000010,1.605554,0.785398
1.169365,-0.000001,-0.781493,0.000000,-2.398785,-0.000010,1.605554,0.785398
1.171217,-0.000001,-0.781494,0.000000,-2.398785,-0.000010,1.605554,0.785398
1.173284,-0.000001,-0.781494,0.000000,-2.398785,-0.000010,1.605554,0.785398
1.175387,-0.000001,-0.781495,0.000000,-2.398785,-0.000010,1.605554,0.785398
1.177503,-0.000001,-0.781496,0.000000,-2.398785,-0.000010,1.605554,0.785398
1.179247,-0.000001,-0.781496,0.000000,-2.398785,-0.000010,1.605554,0.785398
1.181304,-0.000001,-0.781497,0.000000,-2.398785,-0.000010,1.605554,0.785398
1.183268,-0.000001,-0.781498,0.000000,-2.398785,-0.000010,1.605554,0.785398
1.185271,-0.000001,-0.781499,0.000000,-2.398785,-0.000010,1.605554,0.785398
1.187407,-0.000001,-0.781500,0.000000,-2.398785,-0.000010,1.605554,0.785398
1.189356,-0.000001,-0.781501,0.000000,-2.398785,-0.000010,1.605554,0.785398
1.191345,-0.000001,-0.781502,0.000000,-2.398785,-0.000010,1.605554,0.785398
1.193349,-0.000001,-0.781504,0.000000,-2.398785,-0.000010,1.605554,0.785398
1.195348,-0.000001,-0.781505,0.000000,-2.398785,-0.000010,1.605554,0.785398
1.197337,-0.000001,-0.781506,0.000000,-2.398785,-0.000010,1.605554,0.785398
1.199383,-0.000001,-0.781507,0.000000,-2.398785,-0.000010,1.605554,0.785398
1.201281,-0.000001,-0.781509,0.000000,-2.398785,-0.000010,1.605554,0.785398
1.203208,-0.000001,-0.781510,0.000000,-2.398785,-0.000010,1.605554,0.785398
1.205253,-0.000001,-0.781511,0.000000,-2.398785,-0.000010,1.605554,0.785398
1.207319,-0.000001,-0.781513,0.000000,-2.398785,-0.000010,1.605554,0.785398
1.209223,-0.000001,-0.781515,0.000000,-2.398785,-0.000010,1.605554,0.785398
1.211234,-0.000001,-0.781516,0.000000,-2.398785,-0.000010,1.605554,0.785398
1.213271,-0.000001,-0.781518,0.000000,-2.398785,-0.000010,1.605554,0.785398
1.215300,-0.000001,-0.781519,0.000000,-2.398785,-0.000010,1.605554,0.785398
1.217478,-0.000001,-0.781522,0.000000,-2.398785,-0.000010,1.605554,0.785398
1.219368,-0.000001,-0.781524,0.000000,-2.398785,-0.000010,1.605554,0.785398
1.221420,-0.000001,-0.781526,0.000000,-2.398785,-0.000010,1.605554,0.785398
1.223265,-0.000001,-0.781527,0.000000,-2.398785,-0.000010,1.605554,0.785398
1.225316,-0.000001,-0.781529,0.000000,-2.398785,-0.000010,1.605554,0.785398
1.227312,-0.000001,-0.781531,0.000000,-2.398785,-0.000010,1.605554,0.785398
1.229296,-0.000001,-0.781533,0.000000,-2.398785,-0.000010,1.605554,0.785398
1.231294,-0.000001,-0.781535,0.000000,-2.398785,-0.000010,1.605554,0.785398
1.233321,-0.000001,-0.781538,0.000000,-2.398785,-0.000010,1.605554,0.785398
1.235320,-0.000001,-0.781540,0.000000,-2.398785,-0.000010,1.605554,0.785398
1.237298,-0.000001,-0.781543,0.000000,-2.398785,-0.000010,1.605554,0.785398
1.239295,-0.000001,-0.781545,0.000000,-2.398785,-0.000010,1.605554,0.785398
1.241292,-0.000001,-0.781548,0.000000,-2.398785,-0.000010,1.605554,0.785398
1.243328,-0.000001,-0.781551,0.000000,-2.398785,-0.000010,1.605554,0.785398
1.245283,-0.000001,-0.781553,0.000000,-2.398785,-0.000010,1.605554,0.785398
1.247298,-0.000001,-0.781556,0.000000,-2.398785,-0.000010,1.605554,0.785398
1.249261,-0.000001,-0.781559,0.000000,-2.398785,-0.000010,1.605554,0.785398
1.251273,-0.000001,-0.781562,0.000000,-2.398785,-0.000010,1.605554,0.785398
1.253272,-0.000001,-0.781565,0.000000,-2.398785,-0.000010,1.605554,0.785398
1.255261,-0.000001,-0.781568,0.000000,-2.398785,-0.000010,1.605554,0.785398
1.257284,-0.000001,-0.781572,0.000000,-2.398785,-0.000010,1.605554,0.785398
1.259281,-0.000001,-0.781575,0.000000,-2.398785,-0.000010,1.605554,0.785398
1.261280,-0.000001,-0.781579,0.000000,-2.398785,-0.000010,1.605554,0.785398
1.263279,-0.000001,-0.781582,-0.000000,-2.398785,-0.000010,1.605554,0.785398
1.265279,-0.000001,-0.781586,-0.000000,-2.398785,-0.000010,1.605554,0.785398
1.267261,-0.000001,-0.781589,-0.000000,-2.398785,-0.000010,1.605554,0.785398
1.269223,-0.000001,-0.781593,-0.000000,-2.398785,-0.000010,1.605554,0.785398
1.271296,-0.000001,-0.781597,-0.000000,-2.398785,-0.000010,1.605554,0.785398
1.273276,-0.000001,-0.781601,-0.000000,-2.398785,-0.000010,1.605554,0.785398
1.275261,-0.000001,-0.781605,-0.000000,-2.398785,-0.000010,1.605554,0.785398
1.277381,-0.000001,-0.781609,-0.000000,-2.398785,-0.000010,1.605554,0.785398
1.279216,-0.000001,-0.781613,-0.000000,-2.398785,-0.000010,1.605553,0.785398
1.281281,-0.000001,-0.781618,-0.000000,-2.398785,-0.000010,1.605553,0.785398
1.283279,-0.000001,-0.781622,-0.000000,-2.398785,-0.000010,1.605552,0.785398
1.285233,-0.000001,-0.781627,-0.000000,-2.398785,-0.000010,1.605550,0.785398
1.287416,-0.000001,-0.781631,-0.000000,-2.398785,-0.000010,1.605549,0.785398
1.289296,-0.000001,-0.781636,-0.000000,-2.398785,-0.000010,1.605546,0.785398
1.291397,-0.000001,-0.781641,-0.000000,-2.398785,-0.000010,1.605544,0.785398
1.293292,-0.000001,-0.781646,-0.000000,-2.398785,-0.000010,1.605540,0.785398
1.295243,-0.000001,-0.781651,-0.000000,-2.398785,-0.000010,1.605536,0.785398
1.297337,-0.000001,-0.781657,-0.000000,-2.398785,-0.000010,1.605531,0.785398
1.299277,-0.000001,-0.781662,-0.000000,-2.398785,-0.000010,1.605526,0.785398
1.301343,-0.000001,-0.781667,-0.000000,-2.398785,-0.000010,1.605520,0.785398
1.303285,-0.000001,-0.781673,-0.000000,-2.398785,-0.000010,1.605513,0.785398
1.305307,-0.000001,-0.781679,-0.000000,-2.398785,-0.000010,1.605505,0.785398
1.307210,-0.000001,-0.781685,-0.000000,-2.398785,-0.000010,1.605496,0.785398
1.309381,-0.000001,-0.781691,-0.000000,-2.398785,-0.000010,1.605486,0.785398
1.311221,-0.000001,-0.781697,-0.000000,-2.398785,-0.000010,1.605476,0.785398
1.313253,-0.000001,-0.781703,-0.000000,-2.398785,-0.000010,1.605464,0.785398
1.315296,-0.000001,-0.781709,-0.000000,-2.398785,-0.000010,1.605452,0.785398
1.317249,-0.000001,-0.781716,-0.000000,-2.398785,-0.000010,1.605438,0.785398
1.319277,-0.000001,-0.781723,-0.000000,-2.398785,-0.000010,1.605423,0.785398
1.321359,-0.000001,-0.781729,-0.000000,-2.398785,-0.000010,1.605408,0.785398
1.323326,-0.000001,-0.781736,-0.000000,-2.398785,-0.000010,1.605391,0.785398
1.325317,-0.000001,-0.781743,-0.000000,-2.398785,-0.000010,1.605373,0.785398
1.327324,-0.000001,-0.781750,-0.000000,-2.398785,-0.000010,1.605354,0.785398
1.329400,-0.000001,-0.781758,-0.000000,-2.398785,-0.000010,1.605334,0.785398
1.331344,-0.000001,-0.781765,-0.000000,-2.398785,-0.000010,1.605313,0.785398
1.333292,-0.000001,-0.781773,-0.000000,-2.398785,-0.000010,1.605291,0.785398
1.335353,-0.000001,-0.781781,-0.000000,-2.398785,-0.000010,1.605267,0.785398
1.337433,-0.000001,-0.781788,-0.000000,-2.398785,-0.000010,1.605243,0.785398
1.339387,-0.000001,-0.781796,-0.000000,-2.398785,-0.000010,1.605218,0.785398
1.341296,-0.000001,-0.781805,-0.000000,-2.398785,-0.000010,1.605191,0.785398
1.343294,-0.000001,-0.781813,-0.000000,-2.398785,-0.000010,1.605163,0.785398
1.345260,-0.000001,-0.781821,-0.000000,-2.398785,-0.000010,1.605134,0.785398
1.347266,-0.000001,-0.781830,-0.000000,-2.398785,-0.000010,1.605104,0.785398
1.349298,-0.000001,-0.781838,-0.000000,-2.398785,-0.000010,1.605073,0.785398
1.351276,-0.000001,-0.781847,-0.000000,-2.398785,-0.000010,1.605041,0.785398
1.353484,-0.000001,-0.781856,-0.000000,-2.398785,-0.000010,1.605007,0.785398
1.355305,-0.000001,-0.781865,-0.000000,-2.398785,-0.000010,1.604973,0.785398
1.357242,-0.000001,-0.781874,-0.000000,-2.398785,-0.000010,1.604937,0.785398
1.359296,-0.000001,-0.781884,-0.000000,-2.398785,-0.000010,1.604900,0.785398
1.361259,-0.000001,-0.781893,-0.000000,-2.398785,-0.000010,1.604862,0.785398
1.363278,-0.000001,-0.781903,-0.000000,-2.398785,-0.000010,1.604823,0.785398
1.365265,-0.000001,-0.781913,-0.000000,-2.398785,-0.000010,1.604783,0.785398
1.367260,-0.000001,-0.781922,-0.000000,-2.398785,-0.000010,1.604742,0.785398
1.369291,-0.000001,-0.781932,-0.000000,-2.398785,-0.000010,1.604700,0.785398
1.371211,-0.000001,-0.781943,-0.000000,-2.398785,-0.000010,1.604656,0.785398
1.373260,-0.000001,-0.781953,-0.000000,-2.398785,-0.000010,1.604612,0.785398
1.375369,-0.000001,-0.781963,-0.000000,-2.398785,-0.000010,1.604566,0.785398
1.377434,-0.000001,-0.781974,-0.000000,-2.398785,-0.000010,1.604520,0.785398
1.379352,-0.000001,-0.781984,-0.000000,-2.398785,-0.000010,1.604472,0.785398
1.381393,-0.000001,-0.781995,-0.000000,-2.398785,-0.000010,1.604424,0.785398
1.383321,-0.000001,-0.782006,-0.000000,-2.398785,-0.000010,1.604374,0.785398
1.385367,-0.000001,-0.782017,-0.000000,-2.398785,-0.000010,1.604324,0.785398
1.387405,-0.000001,-0.782028,-0.000000,-2.398785,-0.000010,1.604272,0.785398
1.389269,-0.000001,-0.782039,-0.000000,-2.398785,-0.000010,1.604220,0.785398
1.391250,-0.000001,-0.782051,-0.000000,-2.398785,-0.000010,1.604166,0.785398
1.393395,-0.000001,-0.782062,-0.000000,-2.398785,-0.000010,1.604112,0.785398
1.395316,-0.000001,-0.782074,-0.000000,-2.398785,-0.000010,1.604057,0.785398
1.397374,-0.000001,-0.782086,-0.000000,-2.398785,-0.000010,1.604001,0.785398
1.399369,-0.000001,-0.782098,-0.000000,-2.398785,-0.000010,1.603944,0.785398
1.401308,-0.000001,-0.782104,-0.000000,-2.398785,-0.000010,1.603915,0.785398
1.403309,-0.000001,-0.782116,-0.000000,-2.398785,-0.000010,1.603857,0.785398
1.405441,-0.000001,-0.782134,-0.000000,-2.398785,-0.000010,1.603767,0.785398
1.407358,-0.000001,-0.782146,-0.000000,-2.398785,-0.000010,1.603707,0.785398
1.409338,-0.000001,-0.782152,-0.000000,-2.398785,-0.000010,1.603677,0.785398
1.411311,-0.000001,-0.782165,-0.000000,-2.398785,-0.000010,1.603615,0.785398
1.413306,-0.000001,-0.782178,-0.000000,-2.398785,-0.000010,1.603553,0.785398
1.415296,-0.000001,-0.782190,-0.000000,-2.398785,-0.000010,1.603490,0.785398
1.417287,-0.000001,-0.782203,-0.000000,-2.398785,-0.000010,1.603426,0.785398
1.419275,-0.000001,-0.782216,-0.000000,-2.398785,-0.000010,1.603361,0.785398
1.421272,-0.000001,-0.782229,-0.000000,-2.398785,-0.000010,1.603297,0.785398
1.423275,-0.000001,-0.782242,-0.000000,-2.398785,-0.000010,1.603231,0.785398
1.425296,-0.000001,-0.782255,-0.000000,-2.398785,-0.000010,1.603165,0.785398
1.427297,-0.000001,-0.782269,-0.000000,-2.398785,-0.000010,1.603098,0.785398
1.429292,-0.000001,-0.782282,-0.000000,-2.398785,-0.000010,1.603032,0.785398
1.431294,-0.000001,-0.782296,-0.000000,-2.398785,-0.000010,1.602964,0.785398
1.433288,-0.000001,-0.782309,-0.000000,-2.398785,-0.000010,1.602897,0.785398
1.435260,-0.000001,-0.782323,-0.000000,-2.398785,-0.000010,1.602829,0.785398
1.437260,-0.000001,-0.782337,-0.000000,-2.398785,-0.000010,1.602760,0.785398
1.439259,-0.000001,-0.782351,-0.000000,-2.398785,-0.000010,1.602692,0.785398
1.441267,-0.000001,-0.782364,-0.000000,-2.398785,-0.000010,1.602623,0.785398
1.443261,-0.000001,-0.782378,-0.000000,-2.398785,-0.000010,1.602554,0.785398
1.445213,-0.000001,-0.782392,-0.000000,-2.398785,-0.000010,1.602485,0.785398
1.447260,-0.000001,-0.782407,-0.000000,-2.398785,-0.000010,1.602416,0.785398
1.449259,-0.000001,-0.782421,-0.000000,-2.398785,-0.000010,1.602347,0.785398
1.451260,-0.000001,-0.782435,-0.000000,-2.398785,-0.000010,1.602278,0.785398
1.453290,-0.000001,-0.782449,-0.000000,-2.398785,-0.000010,1.602209,0.785398
1.455260,-0.000001,-0.782464,-0.000000,-2.398785,-0.000010,1.602139,0.785398
1.457282,-0.000001,-0.782478,-0.000000,-2.398785,-0.000010,1.602070,0.785398
1.459307,-0.000001,-0.782493,-0.000000,-2.398785,-0.000010,1.602001,0.785398
1.461318,-0.000001,-0.782507,-0.000000,-2.398785,-0.000010,1.601932,0.785398
1.463301,-0.000001,-0.782522,-0.000000,-2.398785,-0.000010,1.601864,0.785398
1.465230,-0.000001,-0.782537,-0.000000,-2.398785,-0.000010,1.601795,0.785398
1.467342,-0.000001,-0.782551,-0.000000,-2.398785,-0.000010,1.601726,0.785398
1.469248,-0.000001,-0.782566,-0.000000,-2.398785,-0.000010,1.601658,0.785398
1.471242,-0.000001,-0.782581,-0.000000,-2.398785,-0.000010,1.601590,0.785398
1.473289,-0.000001,-0.782596,-0.000000,-2.398785,-0.000010,1.601523,0.785398
1.475309,-0.000001,-0.782603,-0.000000,-2.398785,-0.000010,1.601489,0.785398
1.477292,-0.000001,-0.782618,-0.000000,-2.398785,-0.000010,1.601422,0.785398
1.479296,-0.000001,-0.782633,-0.000000,-2.398785,-0.000010,1.601355,0.785398
1.481294,-0.000001,-0.782648,-0.000000,-2.398785,-0.000010,1.601288,0.785398
1.483294,-0.000001,-0.782664,-0.000000,-2.398785,-0.000010,1.601222,0.785398
1.485293,-0.000001,-0.782679,-0.000000,-2.398785,-0.000010,1.601156,0.785398
1.487288,-0.000001,-0.782694,-0.000000,-2.398785,-0.000010,1.601090,0.785398
1.489292,-0.000001,-0.782709,-0.000000,-2.398785,-0.000010,1.601025,0.785398
1.491353,-0.000001,-0.782724,-0.000000,-2.398785,-0.000010,1.600961,0.785398
1.493319,-0.000001,-0.782739,-0.000000,-2.398785,-0.000010,1.600896,0.785398
1.495297,-0.000001,-0.782755,-0.000000,-2.398785,-0.000010,1.600833,0.785398
1.497298,-0.000001,-0.782770,-0.000000,-2.398785,-0.000010,1.600769,0.785398
1.499276,-0.000001,-0.782785,-0.000000,-2.398785,-0.000010,1.600706,0.785398
1.501288,-0.000001,-0.782801,-0.000000,-2.398785,-0.000010,1.600644,0.785398
1.503402,-0.000001,-0.782816,-0.000000,-2.398785,-0.000010,1.600582,0.785398
1.505261,-0.000001,-0.782831,-0.000000,-2.398785,-0.000010,1.600521,0.785398
1.507257,-0.000001,-0.782847,-0.000000,-2.398785,-0.000010,1.600460,0.785398
1.509315,-0.000001,-0.782862,-0.000000,-2.398785,-0.000010,1.600400,0.785398
1.511240,-0.000001,-0.782878,-0.000000,-2.398785,-0.000010,1.600341,0.785398
1.513280,-0.000001,-0.782893,-0.000000,-2.398785,-0.000010,1.600282,0.785398
1.515263,-0.000001,-0.782909,-0.000000,-2.398785,-0.000010,1.600224,0.785398
1.517260,-0.000001,-0.782924,-0.000000,-2.398785,-0.000010,1.600167,0.785398
1.519369,-0.000001,-0.782940,-0.000000,-2.398785,-0.000010,1.600110,0.785398
1.521301,-0.000001,-0.782955,-0.000000,-2.398785,-0.000010,1.600054,0.785398
1.523314,-0.000001,-0.782971,-0.000000,-2.398785,-0.000010,1.599999,0.785398
1.525291,-0.000001,-0.782986,-0.000000,-2.398785,-0.000010,1.599945,0.785398
1.527346,-0.000001,-0.783001,-0.000000,-2.398785,-0.000010,1.599892,0.785398
1.529376,-0.000001,-0.783017,-0.000000,-2.398785,-0.000010,1.599840,0.785398
1.531219,-0.000001,-0.783025,-0.000000,-2.398785,-0.000010,1.599814,0.785398
1.533285,-0.000001,-0.783048,-0.000000,-2.398785,-0.000010,1.599738,0.785398
1.535241,-0.000001,-0.783063,-0.000000,-2.398785,-0.000010,1.599689,0.785398
1.537268,-0.000001,-0.783079,-0.000000,-2.398785,-0.000010,1.599640,0.785398
1.539277,-0.000001,-0.783086,-0.000000,-2.398785,-0.000010,1.599617,0.785398
1.541315,-0.000001,-0.783102,-0.000000,-2.398785,-0.000010,1.599570,0.785398
1.543296,-0.000001,-0.783117,-0.000000,-2.398785,-0.000010,1.599525,0.785398
1.545297,-0.000001,-0.783125,-0.000000,-2.398785,-0.000010,1.599502,0.785398
1.547294,-0.000001,-0.783148,-0.000000,-2.398785,-0.000010,1.599437,0.785398
1.549295,-0.000001,-0.783163,-0.000000,-2.398785,-0.000010,1.599395,0.785398
1.551262,-0.000001,-0.783178,-0.000000,-2.398785,-0.000010,1.599353,0.785398
1.553267,-0.000001,-0.783193,-0.000000,-2.398785,-0.000010,1.599314,0.785398
1.555302,-0.000001,-0.783208,-0.000000,-2.398785,-0.000010,1.599275,0.785398
1.557296,-0.000001,-0.783224,-0.000000,-2.398785,-0.000010,1.599237,0.785398
1.559298,-0.000001,-0.783239,-0.000000,-2.398785,-0.000010,1.599201,0.785398
1.561296,-0.000001,-0.783254,-0.000000,-2.398785,-0.000010,1.599166,0.785398
1.563303,-0.000001,-0.783269,-0.000000,-2.398785,-0.000010,1.599132,0.785398
1.565290,-0.000001,-0.783284,-0.000000,-2.398785,-0.000010,1.599100,0.785398
1.567303,-0.000001,-0.783298,-0.000000,-2.398785,-0.000010,1.599068,0.785398
1.569303,-0.000001,-0.783313,-0.000000,-2.398785,-0.000010,1.599038,0.785398
1.571270,-0.000001,-0.783328,-0.000000,-2.398785,-0.000010,1.599010,0.785398
1.573292,-0.000001,-0.783343,-0.000000,-2.398785,-0.000010,1.598982,0.785398
1.575267,-0.000001,-0.783358,-0.000000,-2.398785,-0.000010,1.598956,0.785398
1.577302,-0.000001,-0.783372,-0.000000,-2.398785,-0.000010,1.598931,0.785398
1.579283,-0.000001,-0.783387,-0.000000,-2.398785,-0.000010,1.598907,0.785398
1.581261,-0.000001,-0.783401,-0.000000,-2.398785,-0.000010,1.598884,0.785398
1.583260,-0.000001,-0.783416,-0.000000,-2.398785,-0.000010,1.598863,0.785398
1.585263,-0.000001,-0.783430,-0.000000,-2.398785,-0.000010,1.598843,0.785398
1.587261,-0.000001,-0.783444,-0.000000,-2.398785,-0.000010,1.598824,0.785398
1.589273,-0.000001,-0.783459,-0.000000,-2.398785,-0.000010,1.598807,0.785398
1.591265,-0.000001,-0.783473,-0.000000,-2.398785,-0.000010,1.598791,0.785398
1.593260,-0.000001,-0.783487,-0.000000,-2.398785,-0.000010,1.598776,0.785398
1.595259,-0.000001,-0.783501,-0.000000,-2.398785,-0.000010,1.598762,0.785398
1.597259,-0.000001,-0.783515,-0.000000,-2.398785,-0.000010,1.598749,0.785398
1.599262,-0.000001,-0.783529,-0.000000,-2.398785,-0.000010,1.598738,0.785398
1.601259,-0.000001,-0.783543,-0.000000,-2.398785,-0.000010,1.598728,0.785398
1.603259,-0.000001,-0.783557,-0.000000,-2.398785,-0.000010,1.598719,0.785398
1.605259,-0.000001,-0.783571,-0.000000,-2.398785,-0.000010,1.598711,0.785398
1.607259,-0.000001,-0.783584,-0.000000,-2.398785,-0.000010,1.598704,0.785398
1.609258,-0.000001,-0.783598,-0.000000,-2.398785,-0.000010,1.598699,0.785398
1.611246,-0.000001,-0.783605,-0.000000,-2.398785,-0.000010,1.598697,0.785398
1.613281,-0.000001,-0.783625,-0.000000,-2.398785,-0.000010,1.598691,0.785398
1.615298,-0.000001,-0.783638,-0.000000,-2.398785,-0.000010,1.598690,0.785398
1.617278,-0.000001,-0.783652,-0.000000,-2.398785,-0.000010,1.598689,0.785398
1.619220,-0.000001,-0.783665,-0.000000,-2.398785,-0.000010,1.598689,0.785398
1.621317,-0.000001,-0.783672,-0.000000,-2.398785,-0.000010,1.598689,0.785398
1.623318,-0.000001,-0.783685,-0.000000,-2.398785,-0.000010,1.598689,0.785398
1.625243,-0.000001,-0.783698,-0.000000,-2.398785,-0.000010,1.598689,0.785398
1.627380,-0.000001,-0.783717,-0.000000,-2.398785,-0.000010,1.598689,0.785398
1.629370,-0.000001,-0.783730,-0.000000,-2.398785,-0.000010,1.598689,0.785398
1.631290,-0.000001,-0.783743,-0.000000,-2.398785,-0.000010,1.598689,0.785398
1.633212,-0.000001,-0.783756,-0.000000,-2.398785,-0.000010,1.598689,0.785398
1.635256,-0.000001,-0.783769,-0.000000,-2.398785,-0.000010,1.598689,0.785398
1.637233,-0.000001,-0.783781,-0.000000,-2.398785,-0.000010,1.598689,0.785398
1.639285,-0.000001,-0.783794,-0.000000,-2.398785,-0.000010,1.598689,0.785398
1.641305,-0.000001,-0.783807,-0.000000,-2.398785,-0.000010,1.598689,0.785398
1.643345,-0.000001,-0.783819,-0.000000,-2.398785,-0.000010,1.598689,0.785398
1.645265,-0.000001,-0.783831,-0.000000,-2.398785,-0.000010,1.598689,0.785398
1.647265,-0.000001,-0.783844,-0.000000,-2.398785,-0.000010,1.598689,0.785398
1.649256,-0.000001,-0.783856,-0.000000,-2.398785,-0.000010,1.598689,0.785398
1.651209,-0.000001,-0.783868,-0.000000,-2.398785,-0.000010,1.598689,0.785398
1.653269,-0.000001,-0.783880,-0.000000,-2.398785,-0.000010,1.598689,0.785398
1.655399,-0.000001,-0.783892,-0.000000,-2.398785,-0.000010,1.598689,0.785398
1.657209,-0.000001,-0.783904,-0.000000,-2.398785,-0.000010,1.598689,0.785398
1.659263,-0.000001,-0.783915,-0.000000,-2.398785,-0.000010,1.598689,0.785398
1.661269,-0.000001,-0.783927,-0.000000,-2.398785,-0.000010,1.598689,0.785398
1.663222,-0.000001,-0.783933,-0.000000,-2.398785,-0.000010,1.598689,0.785398
1.665480,-0.000001,-0.783950,-0.000000,-2.398785,-0.000010,1.598689,0.785398
1.667261,-0.000001,-0.783961,-0.000000,-2.398785,-0.000010,1.598689,0.785398
1.669289,-0.000001,-0.783972,-0.000000,-2.398785,-0.000010,1.598689,0.785398
1.671264,-0.000001,-0.783983,-0.000000,-2.398785,-0.000010,1.598689,0.785398
1.673257,-0.000001,-0.783994,-0.000000,-2.398785,-0.000010,1.598689,0.785398
1.675354,-0.000001,-0.784005,-0.000000,-2.398785,-0.000010,1.598689,0.785398
1.677208,-0.000001,-0.784016,-0.000000,-2.398785,-0.000010,1.598689,0.785398
1.679366,-0.000001,-0.784026,-0.000000,-2.398785,-0.000010,1.598689,0.785398
1.681263,-0.000001,-0.784037,-0.000000,-2.398785,-0.000010,1.598689,0.785398
1.683283,-0.000001,-0.784047,-0.000000,-2.398785,-0.000010,1.598689,0.785398
1.685249,-0.000001,-0.784057,-0.000000,-2.398785,-0.000010,1.598689,0.785398
1.687270,-0.000001,-0.784062,-0.000000,-2.398785,-0.000010,1.598689,0.785398
1.689247,-0.000001,-0.784072,-0.000000,-2.398785,-0.000010,1.598689,0.785398
1.691270,-0.000001,-0.784087,-0.000000,-2.398785,-0.000010,1.598689,0.785398
1.693328,-0.000001,-0.784097,-0.000000,-2.398785,-0.000010,1.598689,0.785398
1.695272,-0.000001,-0.784106,-0.000000,-2.398785,-0.000010,1.598689,0.785398
1.697302,-0.000001,-0.784111,-0.000000,-2.398785,-0.000010,1.598689,0.785398
1.699299,-0.000001,-0.784120,-0.000000,-2.398785,-0.000010,1.598689,0.785398
1.701298,-0.000001,-0.784129,-0.000000,-2.398785,-0.000010,1.598689,0.785398
1.703289,-0.000001,-0.784138,-0.000000,-2.398785,-0.000010,1.598689,0.785398
1.705292,-0.000001,-0.784147,-0.000000,-2.398785,-0.000010,1.598689,0.785398
1.707269,-0.000001,-0.784156,-0.000000,-2.398785,-0.000010,1.598689,0.785398
1.709292,-0.000001,-0.784165,-0.000000,-2.398785,-0.000010,1.598689,0.785398
1.711321,-0.000001,-0.784173,-0.000000,-2.398785,-0.000010,1.598689,0.785398
1.713285,-0.000001,-0.784181,-0.000000,-2.398785,-0.000010,1.598689,0.785398
1.715339,-0.000001,-0.784189,-0.000000,-2.398785,-0.000010,1.598689,0.785398
1.717294,-0.000001,-0.784197,-0.000000,-2.398785,-0.000010,1.598689,0.785398
1.719280,-0.000001,-0.784205,-0.000000,-2.398785,-0.000010,1.598689,0.785398
1.721303,-0.000001,-0.784212,-0.000000,-2.398785,-0.000010,1.598689,0.785398
1.723274,-0.000001,-0.784220,-0.000000,-2.398785,-0.000010,1.598689,0.785398
1.725302,-0.000001,-0.784227,-0.000000,-2.398785,-0.000010,1.598689,0.785398
1.727320,-0.000001,-0.784234,-0.000000,-2.398785,-0.000010,1.598689,0.785398
1.729299,-0.000001,-0.784241,-0.000000,-2.398785,-0.000010,1.598689,0.785398
1.731295,-0.000001,-0.784247,-0.000000,-2.398785,-0.000010,1.598689,0.785398
1.733276,-0.000001,-0.784254,-0.000000,-2.398785,-0.000010,1.598689,0.785398
1.735287,-0.000001,-0.784260,-0.000000,-2.398785,-0.000010,1.598689,0.785398
1.737286,-0.000001,-0.784266,-0.000000,-2.398785,-0.000010,1.598689,0.785398
1.739298,-0.000001,-0.784272,-0.000000,-2.398785,-0.000010,1.598689,0.785398
1.741262,-0.000001,-0.784277,-0.000000,-2.398785,-0.000010,1.598689,0.785398
1.743259,-0.000001,-0.784283,-0.000000,-2.398785,-0.000010,1.598689,0.785398
1.745303,-0.000001,-0.784288,-0.000000,-2.398785,-0.000010,1.598689,0.785398
1.747274,-0.000001,-0.784293,-0.000000,-2.398785,-0.000010,1.598689,0.785398
1.749296,-0.000001,-0.784297,-0.000000,-2.398785,-0.000010,1.598689,0.785398
1.751261,-0.000001,-0.784302,-0.000000,-2.398785,-0.000010,1.598689,0.785398
1.753305,-0.000001,-0.784306,-0.000000,-2.398785,-0.000010,1.598689,0.785398
1.755262,-0.000001,-0.784310,-0.000000,-2.398785,-0.000010,1.598689,0.785398
1.757331,-0.000001,-0.784314,-0.000000,-2.398785,-0.000010,1.598689,0.785398
1.759261,-0.000001,-0.784317,-0.000000,-2.398785,-0.000010,1.598689,0.785398
1.761266,-0.000001,-0.784321,-0.000000,-2.398785,-0.000010,1.598689,0.785398
1.763259,-0.000001,-0.784324,-0.000000,-2.398785,-0.000010,1.598689,0.785398
1.765260,-0.000001,-0.784326,-0.000000,-2.398785,-0.000010,1.598689,0.785398
1.767278,-0.000001,-0.784329,-0.000000,-2.398785,-0.000010,1.598689,0.785398
1.769263,-0.000001,-0.784331,-0.000000,-2.398785,-0.000010,1.598689,0.785398
1.771260,-0.000001,-0.784333,-0.000000,-2.398785,-0.000010,1.598689,0.785398
1.773265,-0.000001,-0.784335,-0.000000,-2.398785,-0.000010,1.598689,0.785398
1.775218,-0.000001,-0.784336,-0.000000,-2.398785,-0.000010,1.598689,0.785398
1.777291,-0.000001,-0.784337,-0.000000,-2.398785,-0.000010,1.598689,0.785398
1.779264,-0.000001,-0.784337,-0.000000,-2.398785,-0.000010,1.598689,0.785398
1.781288,-0.000001,-0.784338,-0.000000,-2.398785,-0.000010,1.598689,0.785398
1.783296,-0.000001,-0.784339,-0.000000,-2.398785,-0.000010,1.598689,0.785398
1.785290,-0.000001,-0.784339,-0.000000,-2.398785,-0.000010,1.598689,0.785398
1.787284,-0.000001,-0.784339,-0.000000,-2.398785,-0.000010,1.598689,0.785398
1.789287,-0.000001,-0.784339,-0.000000,-2.398785,-0.000010,1.598689,0.785398
1.791327,-0.000001,-0.784339,-0.000000,-2.398785,-0.000010,1.598689,0.785398
1.793283,-0.000001,-0.784339,-0.000000,-2.398785,-0.000010,1.598689,0.785398
1.795310,-0.000001,-0.784339,-0.000000,-2.398785,-0.000010,1.598689,0.785398
1.797302,-0.000001,-0.784339,-0.000000,-2.398785,-0.000010,1.598689,0.785398
1.799300,-0.000001,-0.784339,-0.000000,-2.398785,-0.000010,1.598689,0.785398
1.801263,-0.000001,-0.784339,-0.000000,-2.398785,-0.000010,1.598689,0.785398
1.803379,-0.000001,-0.784339,-0.000000,-2.398785,-0.000010,1.598689,0.785398
1.805294,-0.000001,-0.784339,-0.000000,-2.398785,-0.000010,1.598689,0.785398
1.807299,-0.000001,-0.784339,-0.000000,-2.398785,-0.000010,1.598689,0.785398
1.809294,-0.000001,-0.784339,-0.000000,-2.398785,-0.000010,1.598689,0.785398
1.811252,-0.000001,-0.784339,-0.000000,-2.398785,-0.000010,1.598689,0.785398
1.813291,-0.000001,-0.784339,0.000000,-2.398785,-0.000010,1.598689,0.785398
1.815303,-0.000001,-0.784339,0.000000,-2.398785,-0.000010,1.598689,0.785398
1.817265,-0.000001,-0.784339,0.000000,-2.398785,-0.000010,1.598689,0.785398
1.819299,-0.000001,-0.784339,0.000000,-2.398785,-0.000010,1.598689,0.785398
1.821294,-0.000001,-0.784339,0.000000,-2.398785,-0.000010,1.598689,0.785398
1.823290,-0.000001,-0.784339,0.000000,-2.398785,-0.000010,1.598689,0.785398
1.825279,-0.000001,-0.784339,0.000000,-2.398785,-0.000010,1.598689,0.785398
1.827316,-0.000001,-0.784339,0.000000,-2.398785,-0.000010,1.598689,0.785398
1.829274,-0.000001,-0.784339,0.000000,-2.398785,-0.000010,1.598689,0.785398
1.831263,-0.000001,-0.784339,0.000000,-2.398785,-0.000010,1.598689,0.785398
1.833262,-0.000001,-0.784339,0.000000,-2.398785,-0.000010,1.598689,0.785398
1.835266,-0.000001,-0.784339,0.000000,-2.398785,-0.000010,1.598689,0.785398
1.837261,-0.000001,-0.784339,0.000000,-2.398785,-0.000010,1.598689,0.785398
1.839263,-0.000001,-0.784339,0.000000,-2.398785,-0.000010,1.598689,0.785398
1.841259,-0.000001,-0.784339,0.000000,-2.398785,-0.000010,1.598689,0.785398
1.843283,-0.000001,-0.784339,0.000000,-2.398785,-0.000010,1.598689,0.785398
1.845262,-0.000001,-0.784339,0.000000,-2.398785,-0.000010,1.598689,0.785398
1.847315,-0.000001,-0.784339,0.000000,-2.398785,-0.000010,1.598689,0.785398
1.849352,-0.000001,-0.784339,0.000000,-2.398785,-0.000010,1.598689,0.785398
1.851217,-0.000001,-0.784339,0.000000,-2.398785,-0.000010,1.598689,0.785398
1.853229,-0.000001,-0.784339,0.000000,-2.398785,-0.000010,1.598689,0.785398
1.855244,-0.000001,-0.784339,0.000001,-2.398785,-0.000010,1.598689,0.785398
1.857312,-0.000000,-0.784339,0.000001,-2.398785,-0.000010,1.598689,0.785398
1.859304,-0.000000,-0.784339,0.000001,-2.398785,-0.000010,1.598689,0.785398
1.861285,0.000000,-0.784339,0.000002,-2.398785,-0.000010,1.598689,0.785398
1.863286,0.000001,-0.784339,0.000002,-2.398785,-0.000010,1.598689,0.785398
1.865259,0.000001,-0.784339,0.000002,-2.398785,-0.000010,1.598689,0.785398
1.867396,0.000002,-0.784339,0.000003,-2.398785,-0.000010,1.598689,0.785398
1.869315,0.000003,-0.784339,0.000003,-2.398785,-0.000010,1.598689,0.785398
1.871289,0.000004,-0.784339,0.000004,-2.398785,-0.000010,1.598689,0.785398
1.873268,0.000005,-0.784339,0.000005,-2.398785,-0.000010,1.598689,0.785398
1.875264,0.000005,-0.784339,0.000005,-2.398785,-0.000010,1.598689,0.785398
1.877231,0.000008,-0.784339,0.000006,-2.398785,-0.000010,1.598689,0.785398
1.879264,0.000009,-0.784339,0.000007,-2.398785,-0.000010,1.598689,0.785398
1.881306,0.000011,-0.784339,0.000008,-2.398785,-0.000010,1.598689,0.785398
1.883257,0.000014,-0.784339,0.000009,-2.398785,-0.000010,1.598689,0.785398
1.885229,0.000016,-0.784339,0.000010,-2.398785,-0.000010,1.598689,0.785398
1.887300,0.000019,-0.784339,0.000012,-2.398785,-0.000010,1.598689,0.785398
1.889219,0.000022,-0.784339,0.000013,-2.398785,-0.000010,1.598689,0.785398
1.891293,0.000025,-0.784339,0.000014,-2.398785,-0.000010,1.598689,0.785398
1.893289,0.000029,-0.784339,0.000016,-2.398785,-0.000010,1.598689,0.785398
1.895229,0.000031,-0.784339,0.000016,-2.398785,-0.000010,1.598689,0.785398
1.897324,0.000037,-0.784339,0.000019,-2.398785,-0.000010,1.598689,0.785398
1.899285,0.000042,-0.784339,0.000020,-2.398785,-0.000010,1.598689,0.785398
1.901355,0.000047,-0.784339,0.000022,-2.398785,-0.000010,1.598689,0.785398
1.903278,0.000053,-0.784339,0.000024,-2.398785,-0.000010,1.598689,0.785398
1.905257,0.000058,-0.784339,0.000026,-2.398785,-0.000010,1.598689,0.785398
1.907300,0.000065,-0.784339,0.000028,-2.398785,-0.000010,1.598689,0.785398
1.909280,0.000071,-0.784339,0.000030,-2.398785,-0.000010,1.598689,0.785398
1.911349,0.000075,-0.784339,0.000031,-2.398785,-0.000010,1.598689,0.785398
1.913303,0.000082,-0.784339,0.000034,-2.398785,-0.000010,1.598689,0.785398
1.915276,0.000090,-0.784339,0.000036,-2.398785,-0.000010,1.598689,0.785398
1.917329,0.000102,-0.784339,0.000040,-2.398785,-0.000010,1.598689,0.785398
1.919488,0.000111,-0.784339,0.000043,-2.398785,-0.000010,1.598689,0.785398
1.921382,0.000121,-0.784339,0.000046,-2.398785,-0.000010,1.598689,0.785398
1.923405,0.000131,-0.784339,0.000049,-2.398785,-0.000010,1.598689,0.785398
1.925307,0.000136,-0.784339,0.000050,-2.398785,-0.000010,1.598689,0.785398
1.927276,0.000147,-0.784339,0.000053,-2.398785,-0.000010,1.598689,0.785398
1.929273,0.000158,-0.784339,0.000056,-2.398785,-0.000010,1.598689,0.785398
1.931277,0.000170,-0.784339,0.000060,-2.398785,-0.000010,1.598689,0.785398
1.933280,0.000183,-0.784339,0.000063,-2.398785,-0.000010,1.598689,0.785398
1.935316,0.000196,-0.784339,0.000067,-2.398785,-0.000010,1.598689,0.785398
1.937297,0.000210,-0.784339,0.000071,-2.398785,-0.000010,1.598689,0.785398
1.939260,0.000225,-0.784339,0.000075,-2.398785,-0.000010,1.598689,0.785398
1.941283,0.000240,-0.784339,0.000079,-2.398785,-0.000010,1.598689,0.785398
1.943294,0.000256,-0.784339,0.000083,-2.398785,-0.000009,1.598689,0.785398
1.945293,0.000272,-0.784339,0.000087,-2.398785,-0.000008,1.598689,0.785398
1.947305,0.000289,-0.784339,0.000092,-2.398785,-0.000007,1.598689,0.785398
1.949301,0.000307,-0.784339,0.000096,-2.398785,-0.000005,1.598689,0.785398
1.951292,0.000325,-0.784339,0.000101,-2.398785,-0.000002,1.598689,0.785398
1.953291,0.000344,-0.784339,0.000106,-2.398785,0.000002,1.598689,0.785398
1.955267,0.000364,-0.784339,0.000111,-2.398785,0.000007,1.598689,0.785398
1.957305,0.000384,-0.784339,0.000116,-2.398785,0.000014,1.598689,0.785398
1.959322,0.000405,-0.784339,0.000122,-2.398785,0.000022,1.598689,0.785398
1.961269,0.000427,-0.784339,0.000127,-2.398785,0.000032,1.598689,0.785398
1.963285,0.000449,-0.784339,0.000133,-2.398785,0.000043,1.598689,0.785398
1.965306,0.000472,-0.784339,0.000139,-2.398785,0.000057,1.598689,0.785398
1.967268,0.000495,-0.784339,0.000145,-2.398785,0.000072,1.598689,0.785398
1.969266,0.000519,-0.784339,0.000152,-2.398785,0.000089,1.598689,0.785398
1.971261,0.000544,-0.784339,0.000158,-2.398785,0.000109,1.598689,0.785398
1.973264,0.000570,-0.784339,0.000165,-2.398785,0.000131,1.598689,0.785398
1.975260,0.000596,-0.784339,0.000172,-2.398785,0.000156,1.598689,0.785398
1.977258,0.000623,-0.784339,0.000179,-2.398785,0.000183,1.598689,0.785398
1.979287,0.000650,-0.784339,0.000186,-2.398785,0.000212,1.598689,0.785398
1.981319,0.000678,-0.784339,0.000193,-2.398785,0.000245,1.598689,0.785398
1.983263,0.000707,-0.784339,0.000201,-2.398785,0.000280,1.598689,0.785398
1.985259,0.000736,-0.784339,0.000209,-2.398785,0.000318,1.598689,0.785398
1.987303,0.000766,-0.784339,0.000217,-2.398785,0.000359,1.598689,0.785398
1.989331,0.000796,-0.784339,0.000225,-2.398785,0.000402,1.598689,0.785398
1.991280,0.000828,-0.784339,0.000233,-2.398785,0.000449,1.598689,0.785398
1.993278,0.000859,-0.784339,0.000242,-2.398785,0.000499,1.598689,0.785398
1.995328,0.000892,-0.784339,0.000251,-2.398785,0.000553,1.598689,0.785398
1.997255,0.000925,-0.784339,0.000260,-2.398785,0.000609,1.598689,0.785398
1.999300,0.000942,-0.784339,0.000264,-2.398785,0.000639,1.598689,0.785398
2.001238,0.000993,-0.784338,0.000279,-2.398785,0.000732,1.598689,0.785398
2.003249,0.001028,-0.784338,0.000288,-2.398785,0.000799,1.598689,0.785398
2.005301,0.001046,-0.784338,0.000293,-2.398785,0.000833,1.598690,0.785398
2.007383,0.001100,-0.784338,0.000308,-2.398785,0.000942,1.598692,0.785398
2.009285,0.001137,-0.784337,0.000318,-2.398785,0.001019,1.598695,0.785398
2.011218,0.001156,-0.784337,0.000324,-2.398785,0.001059,1.598697,0.785398
2.013317,0.001213,-0.784336,0.000340,-2.398785,0.001184,1.598706,0.785398
2.015299,0.001252,-0.784335,0.000351,-2.398785,0.001272,1.598715,0.785398
2.017275,0.001291,-0.784334,0.000362,-2.398785,0.001363,1.598727,0.785398
2.019229,0.001332,-0.784332,0.000373,-2.398785,0.001459,1.598742,0.785398
2.021264,0.001352,-0.784331,0.000379,-2.398785,0.001508,1.598750,0.785398
2.023291,0.001393,-0.784330,0.000391,-2.398785,0.001609,1.598770,0.785398
2.025295,0.001435,-0.784328,0.000403,-2.398785,0.001714,1.598794,0.785398
2.027294,0.001477,-0.784326,0.000415,-2.398785,0.001823,1.598823,0.785398
2.029293,0.001521,-0.784323,0.000427,-2.398785,0.001936,1.598856,0.785398
2.031297,0.001564,-0.784320,0.000440,-2.398785,0.002053,1.598894,0.785398
2.033263,0.001609,-0.784317,0.000453,-2.398785,0.002174,1.598938,0.785398
2.035295,0.001654,-0.784313,0.000466,-2.398785,0.002300,1.598987,0.785398
2.037292,0.001700,-0.784309,0.000479,-2.398785,0.002430,1.599042,0.785398
2.039293,0.001746,-0.784305,0.000493,-2.398785,0.002564,1.599103,0.785398
2.041292,0.001794,-0.784300,0.000507,-2.398785,0.002702,1.599171,0.785398
2.043293,0.001841,-0.784295,0.000521,-2.398785,0.002845,1.599245,0.785398
2.045271,0.001890,-0.784289,0.000535,-2.398785,0.002992,1.599327,0.785398
2.047284,0.001939,-0.784283,0.000550,-2.398785,0.003143,1.599416,0.785398
2.049267,0.001989,-0.784276,0.000565,-2.398785,0.003299,1.599512,0.785398
2.051263,0.002039,-0.784269,0.000580,-2.398785,0.003459,1.599616,0.785398
2.053337,0.002091,-0.784261,0.000595,-2.398785,0.003623,1.599728,0.785398
2.055285,0.002143,-0.784253,0.000611,-2.398785,0.003792,1.599848,0.785398
2.057410,0.002195,-0.784244,0.000627,-2.398785,0.003966,1.599976,0.785398
2.059257,0.002248,-0.784234,0.000643,-2.398785,0.004143,1.600112,0.785398
2.061257,0.002302,-0.784224,0.000659,-2.398785,0.004326,1.600257,0.785398
2.063257,0.002357,-0.784214,0.000676,-2.398785,0.004512,1.600411,0.785398
2.065339,0.002412,-0.784203,0.000693,-2.398785,0.004703,1.600574,0.785398
2.067266,0.002468,-0.784191,0.000710,-2.398785,0.004899,1.600745,0.785398
2.069285,0.002525,-0.784179,0.000727,-2.398785,0.005098,1.600926,0.785398
2.071316,0.002582,-0.784166,0.000745,-2.398785,0.005302,1.601116,0.785398
2.073344,0.002640,-0.784152,0.000763,-2.398785,0.005511,1.601315,0.785398
2.075300,0.002699,-0.784137,0.000781,-2.398785,0.005724,1.601523,0.785398
2.077262,0.002758,-0.784122,0.000800,-2.398785,0.005941,1.601741,0.785398
2.079248,0.002819,-0.784107,0.000819,-2.398785,0.006163,1.601968,0.785398
2.081251,0.002879,-0.784090,0.000838,-2.398785,0.006389,1.602205,0.785398
2.083221,0.002941,-0.784073,0.000857,-2.398785,0.006619,1.602451,0.785398
2.085260,0.003003,-0.784055,0.000877,-2.398785,0.006854,1.602707,0.785398
2.087260,0.003066,-0.784037,0.000896,-2.398785,0.007092,1.602972,0.785398
2.089475,0.003130,-0.784018,0.000916,-2.398785,0.007335,1.603247,0.785398
2.091336,0.003194,-0.783998,0.000937,-2.398785,0.007582,1.603532,0.785398
2.093284,0.003226,-0.783987,0.000947,-2.398785,0.007707,1.603678,0.785398
2.095333,0.003325,-0.783955,0.000978,-2.398785,0.008089,1.604130,0.785398
2.097273,0.003391,-0.783933,0.000999,-2.398785,0.008349,1.604444,0.785398
2.099266,0.003458,-0.783910,0.001021,-2.398785,0.008613,1.604768,0.785398
2.101249,0.003526,-0.783886,0.001043,-2.398785,0.008880,1.605101,0.785398
2.103241,0.003594,-0.783862,0.001065,-2.398785,0.009152,1.605443,0.785398
2.105289,0.003664,-0.783837,0.001087,-2.398785,0.009428,1.605795,0.785398
2.107233,0.003699,-0.783824,0.001098,-2.398785,0.009567,1.605974,0.785398
2.109257,0.003804,-0.783783,0.001132,-2.398785,0.009991,1.606527,0.785398
2.111259,0.003876,-0.783756,0.001155,-2.398785,0.010278,1.606907,0.785398
2.113338,0.003948,-0.783727,0.001178,-2.398785,0.010570,1.607297,0.785398
2.115288,0.003984,-0.783713,0.001190,-2.398785,0.010717,1.607495,0.785398
2.117257,0.004057,-0.783683,0.001214,-2.398785,0.011014,1.607899,0.785398
2.119330,0.004168,-0.783637,0.001250,-2.398785,0.011467,1.608522,0.785398
2.121269,0.004243,-0.783605,0.001274,-2.398785,0.011773,1.608950,0.785398
2.123329,0.004319,-0.783572,0.001299,-2.398785,0.012084,1.609388,0.785398
2.125405,0.004395,-0.783538,0.001324,-2.398786,0.012398,1.609836,0.785398
2.127368,0.004472,-0.783504,0.001349,-2.398786,0.012716,1.610293,0.785398
2.129292,0.004550,-0.783469,0.001375,-2.398786,0.013037,1.610760,0.785398
2.131279,0.004628,-0.783432,0.001401,-2.398787,0.013363,1.611237,0.785398
2.133289,0.004707,-0.783395,0.001427,-2.398787,0.013691,1.611724,0.785398
2.135292,0.004787,-0.783357,0.001453,-2.398788,0.014024,1.612221,0.785398
2.137322,0.004828,-0.783338,0.001466,-2.398788,0.014192,1.612473,0.785398
2.139267,0.004949,-0.783279,0.001506,-2.398790,0.014700,1.613244,0.785398
2.141253,0.005031,-0.783238,0.001534,-2.398791,0.015043,1.613771,0.785398
2.143296,0.005114,-0.783197,0.001561,-2.398793,0.015390,1.614308,0.785398
2.145247,0.005198,-0.783155,0.001589,-2.398794,0.015740,1.614854,0.785398
2.147339,0.005282,-0.783111,0.001617,-2.398796,0.016094,1.615411,0.785398
2.149328,0.005367,-0.783067,0.001645,-2.398798,0.016451,1.615977,0.785398
2.151362,0.005453,-0.783022,0.001674,-2.398801,0.016811,1.616552,0.785398
2.153380,0.005539,-0.782976,0.001702,-2.398804,0.017175,1.617137,0.785398
2.155244,0.005627,-0.782930,0.001731,-2.398807,0.017542,1.617732,0.785398
2.157231,0.005714,-0.782882,0.001761,-2.398810,0.017912,1.618336,0.785398
2.159217,0.005803,-0.782834,0.001790,-2.398813,0.018286,1.618950,0.785398
2.161307,0.005893,-0.782784,0.001820,-2.398817,0.018662,1.619573,0.785398
2.163263,0.005983,-0.782734,0.001851,-2.398821,0.019042,1.620204,0.785398
2.165350,0.006074,-0.782682,0.001881,-2.398826,0.019425,1.620845,0.785398
2.167264,0.006165,-0.782630,0.001912,-2.398831,0.019810,1.621495,0.785398
2.169281,0.006257,-0.782577,0.001943,-2.398836,0.020199,1.622153,0.785398
2.171225,0.006304,-0.782550,0.001959,-2.398838,0.020394,1.622486,0.785398
2.173261,0.006397,-0.782496,0.001990,-2.398844,0.020787,1.623157,0.785398
2.175271,0.006539,-0.782412,0.002038,-2.398852,0.021382,1.624180,0.785398
2.177333,0.006634,-0.782356,0.002070,-2.398859,0.021783,1.624873,0.785398
2.179294,0.006682,-0.782327,0.002086,-2.398862,0.021984,1.625223,0.785398
2.181253,0.006779,-0.782269,0.002119,-2.398869,0.022388,1.625927,0.785398
2.183290,0.006876,-0.782210,0.002151,-2.398876,0.022795,1.626640,0.785398
2.185276,0.006974,-0.782150,0.002185,-2.398883,0.023204,1.627362,0.785398
2.187293,0.007073,-0.782089,0.002218,-2.398891,0.023617,1.628090,0.785398
2.189267,0.007172,-0.782027,0.002252,-2.398899,0.024032,1.628827,0.785398
2.191309,0.007272,-0.781964,0.002286,-2.398907,0.024449,1.629571,0.785398
2.193300,0.007373,-0.781900,0.002320,-2.398916,0.024869,1.630323,0.785398
2.195301,0.007475,-0.781835,0.002354,-2.398925,0.025291,1.631081,0.785398
2.197292,0.007577,-0.781769,0.002389,-2.398934,0.025716,1.631847,0.785398
2.199305,0.007681,-0.781703,0.002424,-2.398944,0.026143,1.632619,0.785398
2.201263,0.007785,-0.781635,0.002460,-2.398954,0.026572,1.633398,0.785398
2.203304,0.007889,-0.781566,0.002495,-2.398964,0.027003,1.634184,0.785398
2.205265,0.007995,-0.781497,0.002531,-2.398974,0.027436,1.634975,0.785398
2.207296,0.008101,-0.781426,0.002567,-2.398985,0.027872,1.635772,0.785398
2.209269,0.008208,-0.781354,0.002604,-2.398996,0.028309,1.636575,0.785398
2.211268,0.008316,-0.781282,0.002641,-2.399007,0.028748,1.637384,0.785398
2.213291,0.008425,-0.781208,0.002678,-2.399018,0.029189,1.638198,0.785398
2.215276,0.008534,-0.781134,0.002715,-2.399030,0.029632,1.639017,0.785398
2.217290,0.008644,-0.781058,0.002752,-2.399042,0.030076,1.639842,0.785398
2.219269,0.008755,-0.780981,0.002790,-2.399054,0.030522,1.640672,0.785398
2.221273,0.008867,-0.780904,0.002828,-2.399067,0.030970,1.641507,0.785398
2.223265,0.008979,-0.780825,0.002867,-2.399080,0.031420,1.642348,0.785398
2.225261,0.009093,-0.780746,0.002905,-2.399093,0.031871,1.643194,0.785398
2.227265,0.009207,-0.780665,0.002944,-2.399106,0.032324,1.644045,0.785398
2.229259,0.009321,-0.780583,0.002983,-2.399120,0.032779,1.644901,0.785398
2.231259,0.009437,-0.780501,0.003023,-2.399134,0.033235,1.645762,0.785398
2.233262,0.009553,-0.780417,0.003063,-2.399149,0.033693,1.646629,0.785398
2.235259,0.009671,-0.780332,0.003103,-2.399164,0.034152,1.647501,0.785398
2.237262,0.009789,-0.780246,0.003143,-2.399179,0.034612,1.648377,0.785398
2.239258,0.009907,-0.780160,0.003183,-2.399195,0.035074,1.649259,0.785398
2.241259,0.010027,-0.780072,0.003224,-2.399211,0.035538,1.650145,0.785398
2.243258,0.010147,-0.779983,0.003265,-2.399227,0.036003,1.651036,0.785398
2.245265,0.010268,-0.779893,0.003307,-2.399244,0.036469,1.651932,0.785398
2.247258,0.010390,-0.779802,0.003348,-2.399261,0.036936,1.652833,0.785398
2.249257,0.010513,-0.779710,0.003390,-2.399279,0.037405,1.653738,0.785398
2.251256,0.010637,-0.779617,0.003433,-2.399297,0.037875,1.654647,0.785398
2.253256,0.010761,-0.779522,0.003475,-2.399315,0.038346,1.655562,0.785398
2.255211,0.010886,-0.779427,0.003518,-2.399334,0.038818,1.656480,0.785398
2.257288,0.011012,-0.779331,0.003561,-2.399353,0.039291,1.657403,0.785398
2.259256,0.011139,-0.779233,0.003604,-2.399373,0.039766,1.658330,0.785398
2.261288,0.011266,-0.779135,0.003648,-2.399393,0.040241,1.659261,0.785398
2.263268,0.011395,-0.779035,0.003692,-2.399414,0.040718,1.660196,0.785398
2.265322,0.011524,-0.778935,0.003736,-2.399435,0.041195,1.661135,0.785398
2.267270,0.011654,-0.778833,0.003780,-2.399456,0.041673,1.662077,0.785398
2.269258,0.011785,-0.778730,0.003825,-2.399478,0.042152,1.663024,0.785398
2.271241,0.011917,-0.778626,0.003870,-2.399500,0.042632,1.663974,0.785398
2.273341,0.012049,-0.778521,0.003915,-2.399523,0.043112,1.664928,0.785398
2.275237,0.012183,-0.778415,0.003961,-2.399546,0.043594,1.665885,0.785398
2.277322,0.012317,-0.778308,0.004006,-2.399570,0.044076,1.666845,0.785398
2.279241,0.012452,-0.778199,0.004052,-2.399594,0.044558,1.667809,0.785398
2.281240,0.012587,-0.778090,0.004099,-2.399618,0.045041,1.668776,0.785398
2.283309,0.012724,-0.777979,0.004145,-2.399643,0.045525,1.669746,0.785398
2.285417,0.012862,-0.777867,0.004192,-2.399668,0.046009,1.670718,0.785398
2.287295,0.013000,-0.777755,0.004239,-2.399694,0.046494,1.671694,0.785398
2.289409,0.013139,-0.777640,0.004287,-2.399720,0.046979,1.672673,0.785398
2.291304,0.013279,-0.777525,0.004335,-2.399747,0.047464,1.673654,0.785398
2.293368,0.013420,-0.777409,0.004382,-2.399774,0.047950,1.674637,0.785398
2.295227,0.013491,-0.777350,0.004407,-2.399788,0.048193,1.675130,0.785398
2.297245,0.013704,-0.777173,0.004479,-2.399829,0.048922,1.676612,0.785398
2.299268,0.013847,-0.777053,0.004528,-2.399858,0.049408,1.677603,0.785398
2.301215,0.013992,-0.776932,0.004577,-2.399886,0.049895,1.678596,0.785398
2.303232,0.014137,-0.776810,0.004626,-2.399916,0.050381,1.679591,0.785398
2.305219,0.014283,-0.776687,0.004676,-2.399945,0.050868,1.680588,0.785398
2.307218,0.014429,-0.776562,0.004726,-2.399975,0.051355,1.681587,0.785398
2.309207,0.014577,-0.776437,0.004776,-2.400006,0.051841,1.682587,0.785398
2.311250,0.014725,-0.776310,0.004826,-2.400037,0.052327,1.683589,0.785398
2.313347,0.014875,-0.776182,0.004877,-2.400068,0.052813,1.684593,0.785398
2.315295,0.014950,-0.776118,0.004902,-2.400084,0.053056,1.685095,0.785398
2.317265,0.015100,-0.775988,0.004953,-2.400116,0.053542,1.686102,0.785398
2.319269,0.015252,-0.775857,0.005004,-2.400148,0.054028,1.687110,0.785398
2.321300,0.015404,-0.775725,0.005056,-2.400181,0.054514,1.688122,0.785398
2.323329,0.015558,-0.775591,0.005108,-2.400215,0.055000,1.689136,0.785398
2.325319,0.015712,-0.775457,0.005160,-2.400249,0.055486,1.690153,0.785398
2.327315,0.015867,-0.775321,0.005212,-2.400284,0.055972,1.691172,0.785398
2.329277,0.016022,-0.775184,0.005265,-2.400319,0.056458,1.692195,0.785398
2.331295,0.016179,-0.775046,0.005318,-2.400355,0.056944,1.693221,0.785398
2.333337,0.016337,-0.774907,0.005371,-2.400392,0.057430,1.694250,0.785398
2.335273,0.016495,-0.774766,0.005424,-2.400430,0.057915,1.695283,0.785398
2.337303,0.016655,-0.774624,0.005478,-2.400468,0.058401,1.696319,0.785398
2.339300,0.016815,-0.774481,0.005532,-2.400507,0.058887,1.697358,0.785398
2.341298,0.016976,-0.774337,0.005587,-2.400546,0.059373,1.698401,0.785398
2.343293,0.017138,-0.774191,0.005641,-2.400587,0.059858,1.699447,0.785398
2.345314,0.017301,-0.774044,0.005696,-2.400628,0.060344,1.700497,0.785398
2.347264,0.017465,-0.773896,0.005751,-2.400670,0.060829,1.701550,0.785398
2.349293,0.017630,-0.773747,0.005807,-2.400713,0.061314,1.702607,0.785398
2.351282,0.017796,-0.773596,0.005862,-2.400757,0.061799,1.703668,0.785398
2.353284,0.017962,-0.773445,0.005918,-2.400801,0.062284,1.704733,0.785398
2.355260,0.018130,-0.773291,0.005975,-2.400847,0.062768,1.705801,0.785398
2.357260,0.018298,-0.773137,0.006031,-2.400893,0.063253,1.706873,0.785398
2.359270,0.018468,-0.772981,0.006088,-2.400940,0.063737,1.707949,0.785398
2.361264,0.018638,-0.772824,0.006145,-2.400988,0.064220,1.709029,0.785398
2.363258,0.018809,-0.772666,0.006203,-2.401037,0.064704,1.710113,0.785398
2.365258,0.018981,-0.772507,0.006261,-2.401087,0.065187,1.711201,0.785398
2.367257,0.019155,-0.772346,0.006319,-2.401138,0.065670,1.712292,0.785398
2.369282,0.019329,-0.772184,0.006377,-2.401189,0.066152,1.713388,0.785398
2.371259,0.019503,-0.772020,0.006435,-2.401242,0.066634,1.714487,0.785398
2.373258,0.019679,-0.771855,0.006494,-2.401295,0.067115,1.715590,0.785398
2.375259,0.019856,-0.771689,0.006554,-2.401350,0.067596,1.716697,0.785398
2.377292,0.020034,-0.771522,0.006613,-2.401405,0.068077,1.717809,0.785398
2.379292,0.020213,-0.771353,0.006673,-2.401461,0.068557,1.718924,0.785398
2.381259,0.020392,-0.771183,0.006733,-2.401519,0.069037,1.720042,0.785398
2.383258,0.020573,-0.771011,0.006793,-2.401577,0.069516,1.721165,0.785398
2.385314,0.020755,-0.770839,0.006854,-2.401636,0.069994,1.722292,0.785398
2.387223,0.020937,-0.770664,0.006915,-2.401696,0.070472,1.723422,0.785398
2.389260,0.021121,-0.770489,0.006976,-2.401757,0.070949,1.724556,0.785398
2.391304,0.021305,-0.770312,0.007037,-2.401820,0.071426,1.725694,0.785398
2.393354,0.021491,-0.770134,0.007099,-2.401883,0.071902,1.726836,0.785398
2.395283,0.021677,-0.769954,0.007161,-2.401947,0.072377,1.727981,0.785398
2.397287,0.021864,-0.769773,0.007223,-2.402012,0.072851,1.729130,0.785398
2.399229,0.022053,-0.769591,0.007286,-2.402078,0.073325,1.730283,0.785398
2.401247,0.022242,-0.769407,0.007349,-2.402145,0.073798,1.731440,0.785398
2.403286,0.022432,-0.769222,0.007412,-2.402213,0.074270,1.732600,0.785398
2.405217,0.022624,-0.769035,0.007476,-2.402282,0.074741,1.733763,0.785398
2.407225,0.022816,-0.768847,0.007539,-2.402352,0.075211,1.734930,0.785398
2.409293,0.023009,-0.768658,0.007603,-2.402423,0.075681,1.736101,0.785398
2.411301,0.023106,-0.768562,0.007635,-2.402459,0.075915,1.736687,0.785398
2.413273,0.023399,-0.768274,0.007732,-2.402569,0.076617,1.738452,0.785398
2.415297,0.023595,-0.768081,0.007797,-2.402643,0.077083,1.739633,0.785398
2.417232,0.023792,-0.767886,0.007862,-2.402718,0.077549,1.740819,0.785398
2.419244,0.023991,-0.767689,0.007928,-2.402794,0.078014,1.742008,0.785398
2.421279,0.024190,-0.767491,0.007993,-2.402872,0.078478,1.743201,0.785398
2.423273,0.024390,-0.767292,0.008059,-2.402951,0.078941,1.744399,0.785398
2.425275,0.024491,-0.767191,0.008092,-2.402990,0.079172,1.744999,0.785398
2.427436,0.024794,-0.766888,0.008192,-2.403111,0.079863,1.746807,0.785398
2.429389,0.024997,-0.766684,0.008259,-2.403193,0.080323,1.748019,0.785398
2.431327,0.025202,-0.766479,0.008326,-2.403277,0.080783,1.749235,0.785398
2.433292,0.025304,-0.766376,0.008360,-2.403319,0.081012,1.749845,0.785398
2.435272,0.025510,-0.766168,0.008428,-2.403404,0.081469,1.751069,0.785398
2.437225,0.025717,-0.765959,0.008496,-2.403491,0.081926,1.752298,0.785398
2.439307,0.025925,-0.765748,0.008564,-2.403578,0.082382,1.753533,0.785398
2.441279,0.026239,-0.765429,0.008667,-2.403713,0.083064,1.755396,0.785398
2.443282,0.026450,-0.765215,0.008736,-2.403804,0.083518,1.756646,0.785398
2.445240,0.026556,-0.765107,0.008770,-2.403850,0.083745,1.757272,0.785398
2.447279,0.026875,-0.764781,0.008874,-2.403991,0.084423,1.759161,0.785398
2.449305,0.027088,-0.764562,0.008944,-2.404086,0.084873,1.760427,0.785398
2.451264,0.027196,-0.764452,0.008979,-2.404134,0.085098,1.761062,0.785398
2.453285,0.027411,-0.764231,0.009050,-2.404231,0.085547,1.762336,0.785398
2.455293,0.027737,-0.763896,0.009156,-2.404380,0.086219,1.764259,0.785398
2.457250,0.027846,-0.763783,0.009191,-2.404430,0.086442,1.764903,0.785398
2.459265,0.028064,-0.763557,0.009262,-2.404532,0.086888,1.766195,0.785398
2.461477,0.028394,-0.763215,0.009370,-2.404687,0.087555,1.768145,0.785398
2.463245,0.028505,-0.763100,0.009406,-2.404739,0.087777,1.768798,0.785398
2.465298,0.028727,-0.762869,0.009478,-2.404845,0.088220,1.770108,0.785398
2.467328,0.029062,-0.762520,0.009587,-2.405007,0.088882,1.772086,0.785398
2.469234,0.029174,-0.762403,0.009623,-2.405062,0.089102,1.772748,0.785398
2.471382,0.029513,-0.762048,0.009733,-2.405228,0.089761,1.774744,0.785398
2.473334,0.029740,-0.761810,0.009806,-2.405340,0.090199,1.776082,0.785398
2.475267,0.029968,-0.761570,0.009880,-2.405454,0.090635,1.777425,0.785398
2.477259,0.030197,-0.761329,0.009954,-2.405570,0.091070,1.778775,0.785398
2.479354,0.030427,-0.761085,0.010028,-2.405686,0.091504,1.780129,0.785398
2.481353,0.030659,-0.760841,0.010103,-2.405805,0.091936,1.781490,0.785398
2.483290,0.030892,-0.760594,0.010178,-2.405924,0.092367,1.782856,0.785398
2.485424,0.031125,-0.760346,0.010253,-2.406046,0.092796,1.784227,0.785398
2.487368,0.031360,-0.760096,0.010328,-2.406168,0.093224,1.785604,0.785398
2.489391,0.031596,-0.759844,0.010404,-2.406292,0.093650,1.786987,0.785398
2.491239,0.031833,-0.759591,0.010480,-2.406417,0.094076,1.788375,0.785398
2.493385,0.032072,-0.759336,0.010556,-2.406544,0.094499,1.789768,0.785398
2.495293,0.032311,-0.759079,0.010633,-2.406673,0.094921,1.791167,0.785398
2.497275,0.032552,-0.758821,0.010710,-2.406802,0.095342,1.792571,0.785398
2.499324,0.032794,-0.758560,0.010787,-2.406933,0.095760,1.793980,0.785398
2.501329,0.033037,-0.758298,0.010864,-2.407066,0.096178,1.795394,0.785398
2.503261,0.033281,-0.758035,0.010942,-2.407200,0.096593,1.796814,0.785398
2.505241,0.033526,-0.757769,0.011020,-2.407335,0.097007,1.798239,0.785398
2.507230,0.033773,-0.757502,0.011098,-2.407472,0.097420,1.799668,0.785398
2.509248,0.033896,-0.757368,0.011138,-2.407541,0.097625,1.800385,0.785398
2.511427,0.034269,-0.756962,0.011256,-2.407750,0.098239,1.802543,0.785398
2.513253,0.034519,-0.756689,0.011335,-2.407891,0.098647,1.803988,0.785398
2.515268,0.034771,-0.756415,0.011414,-2.408033,0.099053,1.805438,0.785398
2.517420,0.035023,-0.756139,0.011494,-2.408177,0.099457,1.806893,0.785398
2.519347,0.035277,-0.755860,0.011573,-2.408323,0.099859,1.808354,0.785398
2.521307,0.035532,-0.755581,0.011653,-2.408469,0.100259,1.809820,0.785398
2.523356,0.035788,-0.755299,0.011734,-2.408618,0.100658,1.811292,0.785398
2.525266,0.036045,-0.755015,0.011814,-2.408768,0.101055,1.812769,0.785398
2.527286,0.036304,-0.754730,0.011895,-2.408919,0.101450,1.814252,0.785398
2.529298,0.036564,-0.754442,0.011977,-2.409072,0.101843,1.815741,0.785398
2.531277,0.036825,-0.754153,0.012058,-2.409226,0.102235,1.817235,0.785398
2.533321,0.037087,-0.753862,0.012140,-2.409382,0.102625,1.818736,0.785398
2.535239,0.037351,-0.753569,0.012222,-2.409539,0.103013,1.820242,0.785398
2.537393,0.037616,-0.753274,0.012304,-2.409698,0.103399,1.821755,0.785398
2.539257,0.037882,-0.752977,0.012386,-2.409859,0.103783,1.823274,0.785398
2.541282,0.038149,-0.752678,0.012469,-2.410021,0.104166,1.824798,0.785398
2.543257,0.038418,-0.752377,0.012552,-2.410184,0.104546,1.826330,0.785398
2.545218,0.038688,-0.752075,0.012635,-2.410349,0.104925,1.827867,0.785398
2.547383,0.038959,-0.751770,0.012719,-2.410516,0.105302,1.829410,0.785398
2.549290,0.039231,-0.751463,0.012802,-2.410685,0.105677,1.830960,0.785398
2.551258,0.039505,-0.751155,0.012886,-2.410855,0.106050,1.832517,0.785398
2.553277,0.039780,-0.750844,0.012971,-2.411026,0.106421,1.834079,0.785398
2.555218,0.040056,-0.750531,0.013055,-2.411199,0.106790,1.835648,0.785398
2.557367,0.040334,-0.750217,0.013140,-2.411374,0.107157,1.837224,0.785398
2.559280,0.040613,-0.749900,0.013225,-2.411550,0.107522,1.838806,0.785398
2.561267,0.040753,-0.749741,0.013267,-2.411639,0.107704,1.839599,0.785398
2.563328,0.041175,-0.749260,0.013395,-2.411908,0.108246,1.841989,0.785398
2.565325,0.041316,-0.749099,0.013438,-2.411998,0.108426,1.842789,0.785398
2.567395,0.041742,-0.748613,0.013567,-2.412272,0.108963,1.845199,0.785398
2.569290,0.042028,-0.748286,0.013653,-2.412456,0.109318,1.846815,0.785398
2.571471,0.042315,-0.747957,0.013740,-2.412643,0.109671,1.848437,0.785398
2.573298,0.042459,-0.747791,0.013783,-2.412736,0.109847,1.849250,0.785398
2.575271,0.042748,-0.747459,0.013870,-2.412925,0.110197,1.850882,0.785398
2.577317,0.043038,-0.747125,0.013957,-2.413115,0.110546,1.852520,0.785398
2.579268,0.043330,-0.746788,0.014044,-2.413307,0.110892,1.854165,0.785398
2.581274,0.043623,-0.746449,0.014131,-2.413500,0.111236,1.855818,0.785398
2.583292,0.043918,-0.746109,0.014219,-2.413695,0.111578,1.857477,0.785398
2.585313,0.044214,-0.745766,0.014307,-2.413892,0.111918,1.859143,0.785398
2.587261,0.044511,-0.745420,0.014395,-2.414090,0.112256,1.860816,0.785398
2.589272,0.044810,-0.745073,0.014483,-2.414290,0.112592,1.862496,0.785398
2.591274,0.045110,-0.744724,0.014572,-2.414492,0.112926,1.864182,0.785398
2.593317,0.045411,-0.744372,0.014660,-2.414695,0.113258,1.865875,0.785398
2.595267,0.045714,-0.744018,0.014749,-2.414900,0.113587,1.867574,0.785398
2.597276,0.046019,-0.743662,0.014838,-2.415107,0.113915,1.869280,0.785398
2.599300,0.046324,-0.743303,0.014928,-2.415315,0.114240,1.870992,0.785398
2.601260,0.046631,-0.742943,0.015017,-2.415524,0.114563,1.872710,0.785398
2.603262,0.046940,-0.742580,0.015107,-2.415735,0.114883,1.874434,0.785398
2.605259,0.047250,-0.742214,0.015197,-2.415948,0.115201,1.876165,0.785398
2.607257,0.047562,-0.741847,0.015287,-2.416162,0.115517,1.877901,0.785398
2.609285,0.047875,-0.741477,0.015377,-2.416378,0.115831,1.879643,0.785398
2.611288,0.048189,-0.741105,0.015468,-2.416595,0.116142,1.881391,0.785398
2.613418,0.048505,-0.740730,0.015558,-2.416813,0.116450,1.883144,0.785398
2.615232,0.048822,-0.740354,0.015649,-2.417034,0.116756,1.884904,0.785398
2.617260,0.049141,-0.739975,0.015740,-2.417255,0.117060,1.886669,0.785398
2.619324,0.049462,-0.739593,0.015831,-2.417478,0.117361,1.888440,0.785398
2.621504,0.049783,-0.739209,0.015922,-2.417703,0.117660,1.890218,0.785398
2.623462,0.050107,-0.738823,0.016013,-2.417929,0.117956,1.892001,0.785398
2.625377,0.050431,-0.738434,0.016105,-2.418157,0.118250,1.893791,0.785398
2.627312,0.050758,-0.738043,0.016196,-2.418386,0.118541,1.895587,0.785398
2.629395,0.051086,-0.737650,0.016288,-2.418617,0.118830,1.897389,0.785398
2.631322,0.051415,-0.737254,0.016380,-2.418849,0.119116,1.899198,0.785398
2.633316,0.051580,-0.737055,0.016426,-2.418966,0.119258,1.900105,0.785398
2.635263,0.051912,-0.736655,0.016518,-2.419200,0.119541,1.901923,0.785398
2.637309,0.052245,-0.736253,0.016610,-2.419436,0.119820,1.903749,0.785398
2.639306,0.052580,-0.735849,0.016703,-2.419674,0.120098,1.905582,0.785398
2.641300,0.052916,-0.735442,0.016795,-2.419914,0.120373,1.907422,0.785398
2.643258,0.053254,-0.735032,0.016888,-2.420154,0.120645,1.909269,0.785398
2.645294,0.053424,-0.734826,0.016934,-2.420276,0.120780,1.910196,0.785398
2.647274,0.053935,-0.734205,0.017074,-2.420641,0.121182,1.912986,0.785398
